;FLAVOR:UltiGCode
;TIME:5585
;MATERIAL:15743
;MATERIAL2:0
;NOZZLE_DIAMETER:0.400000
;NOZZLE_DIAMETER2:0.400000

;Layer count: 137
;LAYER:0
M107
G0 F9000 X131.598 Y102.132 Z0.200
;TYPE:SKIRT
G1 F1200 X131.386 Y102.408 E0.02784
G1 X131.278 Y102.576 E0.04382
G1 X131.010 Y103.074 E0.08906
G1 X130.894 Y103.354 E0.11331
G1 X130.788 Y103.689 E0.14142
G1 X130.708 Y104.053 E0.17123
G1 X130.665 Y104.378 E0.19746
G1 X130.663 Y104.399 E0.19915
G1 X130.647 Y104.750 E0.22726
G1 X130.664 Y105.118 E0.25673
G1 X130.709 Y105.458 E0.28416
G1 X130.789 Y105.818 E0.31367
G1 X130.891 Y106.141 E0.34077
G1 X131.032 Y106.480 E0.37014
G1 X131.117 Y106.643 E0.38484
G1 X131.424 Y107.141 E0.43165
G1 X131.507 Y107.250 E0.44261
G1 X131.888 Y107.679 E0.48851
G1 X131.979 Y107.762 E0.49836
G1 X132.434 Y108.121 E0.54473
G1 X132.697 Y108.289 E0.56969
G1 X133.001 Y108.448 E0.59714
G1 X133.206 Y108.532 E0.61486
G1 X133.701 Y108.698 E0.65663
G1 X134.027 Y108.771 E0.68335
G1 X134.203 Y108.794 E0.69755
G1 X134.788 Y108.828 E0.74443
G1 X134.929 Y108.822 E0.75572
G1 X135.497 Y108.756 E0.80147
G1 X135.792 Y108.690 E0.82565
G1 X136.123 Y108.585 E0.85343
G1 X136.460 Y108.446 E0.88260
G1 X136.752 Y108.295 E0.90890
G1 X137.081 Y108.085 E0.94012
G1 X137.228 Y107.973 E0.95490
G1 X137.653 Y107.595 E1.00041
G1 X137.810 Y107.423 E1.01904
G1 X137.915 Y107.297 E1.03216
G1 X138.068 Y107.098 E1.05224
G1 X138.272 Y106.777 E1.08267
G1 X138.429 Y106.474 E1.10997
G1 X138.512 Y106.275 E1.12722
G1 X138.679 Y105.777 E1.16924
G1 X138.748 Y105.464 E1.19488
G1 X138.792 Y105.129 E1.22191
G1 X138.796 Y105.084 E1.22552
G1 X138.811 Y104.750 E1.25227
G1 X138.794 Y104.371 E1.28262
G1 X138.750 Y104.045 E1.30894
G1 X138.669 Y103.682 E1.33869
G1 X138.564 Y103.352 E1.36639
G1 X138.426 Y103.019 E1.39523
G1 X138.269 Y102.718 E1.42239
G1 X138.153 Y102.535 E1.43972
G1 X137.817 Y102.083 E1.48478
G1 X137.721 Y101.978 E1.49616
G1 X137.416 Y101.688 E1.52983
G1 X137.024 Y101.379 E1.56976
G1 X136.757 Y101.208 E1.59513
G1 X136.457 Y101.052 E1.62218
G1 X136.125 Y100.915 E1.65091
G1 X135.786 Y100.808 E1.67935
G1 X135.528 Y100.751 E1.70049
G1 X135.284 Y100.710 E1.72028
G1 X135.083 Y100.683 E1.73651
G1 X134.731 Y100.668 E1.76469
G1 X134.542 Y100.676 E1.77983
G1 X133.959 Y100.744 E1.82678
G1 X133.845 Y100.769 E1.83612
G1 X133.269 Y100.941 E1.88421
G1 X133.000 Y101.053 E1.90752
G1 X132.697 Y101.211 E1.93486
G1 X132.397 Y101.401 E1.96327
G1 X132.093 Y101.635 E1.99396
G1 X131.843 Y101.864 E2.02108
G1 X131.598 Y102.132 E2.05013
G0 F9000 X131.289 Y101.877
G1 F1200 X131.061 Y102.174 E2.08008
G1 X130.935 Y102.371 E2.09879
G1 X130.645 Y102.910 E2.14775
G1 X130.520 Y103.211 E2.17383
G1 X130.399 Y103.593 E2.20588
G1 X130.314 Y103.978 E2.23743
G1 X130.270 Y104.315 E2.26461
G1 X130.264 Y104.381 E2.26992
G1 X130.247 Y104.750 E2.29947
G1 X130.265 Y105.157 E2.33206
G1 X130.313 Y105.521 E2.36143
G1 X130.401 Y105.917 E2.39388
G1 X130.518 Y106.285 E2.42478
G1 X130.666 Y106.644 E2.45584
G1 X130.772 Y106.848 E2.47423
G1 X131.092 Y107.366 E2.52294
G1 X131.192 Y107.497 E2.53613
G1 X131.601 Y107.957 E2.58537
G1 X131.729 Y108.075 E2.59930
G1 X132.205 Y108.451 E2.64782
G1 X132.491 Y108.633 E2.67494
G1 X132.830 Y108.810 E2.70554
G1 X133.057 Y108.904 E2.72519
G1 X133.593 Y109.084 E2.77043
G1 X133.957 Y109.165 E2.80026
G1 X134.168 Y109.192 E2.81728
G1 X134.792 Y109.229 E2.86728
G1 X134.950 Y109.222 E2.87994
G1 X135.566 Y109.150 E2.92955
G1 X135.891 Y109.078 E2.95618
G1 X136.257 Y108.962 E2.98690
G1 X136.633 Y108.807 E3.01943
G1 X136.960 Y108.638 E3.04888
G1 X137.299 Y108.421 E3.08108
G1 X137.482 Y108.282 E3.09947
G1 X137.937 Y107.877 E3.14820
G1 X138.111 Y107.687 E3.16881
G1 X138.220 Y107.555 E3.18250
G1 X138.401 Y107.320 E3.20623
G1 X138.619 Y106.977 E3.23875
G1 X138.793 Y106.643 E3.26887
G1 X138.883 Y106.425 E3.28774
G1 X139.067 Y105.878 E3.33391
G1 X139.143 Y105.534 E3.36210
G1 X139.188 Y105.189 E3.38993
G1 X139.194 Y105.124 E3.39515
G1 X139.211 Y104.748 E3.42526
G1 X139.192 Y104.333 E3.45850
G1 X139.145 Y103.979 E3.48707
G1 X139.056 Y103.578 E3.51993
G1 X138.940 Y103.215 E3.55041
G1 X138.792 Y102.856 E3.58148
G1 X138.609 Y102.506 E3.61307
G1 X138.486 Y102.312 E3.63145
G1 X138.127 Y101.830 E3.67953
G1 X138.002 Y101.693 E3.69437
G1 X137.680 Y101.387 E3.72990
G1 X137.253 Y101.049 E3.77347
G1 X136.969 Y100.868 E3.80041
G1 X136.617 Y100.684 E3.83219
G1 X136.269 Y100.541 E3.86229
G1 X135.883 Y100.419 E3.89467
G1 X135.605 Y100.358 E3.91744
G1 X135.368 Y100.318 E3.93667
G1 X135.108 Y100.283 E3.95766
G1 X134.742 Y100.268 E3.98696
G1 X134.506 Y100.278 E4.00586
G1 X133.893 Y100.349 E4.05523
G1 X133.727 Y100.386 E4.06883
G1 X133.148 Y100.559 E4.11718
G1 X132.832 Y100.690 E4.14454
G1 X132.485 Y100.871 E4.17585
G1 X132.171 Y101.070 E4.20559
G1 X131.831 Y101.331 E4.23988
G1 X131.565 Y101.575 E4.26876
G1 X131.289 Y101.877 E4.30149
G0 F9000 X130.985 Y101.615
G1 F1200 X130.731 Y101.946 E4.33487
G1 X130.592 Y102.165 E4.35562
G1 X130.285 Y102.733 E4.40727
G1 X130.140 Y103.084 E4.43765
G1 X130.013 Y103.487 E4.47145
G1 X129.920 Y103.907 E4.50587
G1 X129.869 Y104.297 E4.53733
G1 X129.866 Y104.329 E4.53990
G1 X129.847 Y104.750 E4.57362
G1 X129.866 Y105.183 E4.60829
G1 X129.920 Y105.598 E4.64177
G1 X130.016 Y106.025 E4.67679
G1 X130.141 Y106.419 E4.70985
G1 X130.308 Y106.822 E4.74475
G1 X130.420 Y107.038 E4.76422
G1 X130.761 Y107.592 E4.81626
G1 X130.890 Y107.760 E4.83320
G1 X131.319 Y108.241 E4.88477
G1 X131.465 Y108.376 E4.90067
G1 X131.970 Y108.775 E4.95216
G1 X132.294 Y108.982 E4.98292
G1 X132.656 Y109.170 E5.01555
G1 X132.920 Y109.280 E5.03843
G1 X133.491 Y109.471 E5.08660
G1 X133.888 Y109.559 E5.11913
G1 X134.134 Y109.592 E5.13899
G1 X134.776 Y109.629 E5.19043
G1 X135.000 Y109.619 E5.20837
G1 X135.620 Y109.547 E5.25830
G1 X135.999 Y109.464 E5.28934
G1 X136.401 Y109.336 E5.32309
G1 X136.799 Y109.172 E5.35753
G1 X137.158 Y108.985 E5.38991
G1 X137.533 Y108.746 E5.42549
G1 X137.736 Y108.591 E5.44592
G1 X138.216 Y108.164 E5.49732
G1 X138.410 Y107.953 E5.52025
G1 X138.537 Y107.799 E5.53622
G1 X138.729 Y107.550 E5.56137
G1 X138.966 Y107.176 E5.59679
G1 X139.154 Y106.817 E5.62921
G1 X139.257 Y106.567 E5.65084
G1 X139.452 Y105.987 E5.69980
G1 X139.536 Y105.605 E5.73109
G1 X139.589 Y105.202 E5.76360
G1 X139.593 Y105.155 E5.76738
G1 X139.611 Y104.749 E5.79989
G1 X139.592 Y104.307 E5.83528
G1 X139.539 Y103.909 E5.86740
G1 X139.444 Y103.478 E5.90271
G1 X139.317 Y103.081 E5.93606
G1 X139.152 Y102.683 E5.97052
G1 X138.951 Y102.296 E6.00541
G1 X138.819 Y102.089 E6.02505
G1 X138.438 Y101.577 E6.07611
G1 X138.283 Y101.408 E6.09445
G1 X137.944 Y101.086 E6.13186
G1 X137.488 Y100.725 E6.17838
G1 X137.165 Y100.519 E6.20903
G1 X136.785 Y100.321 E6.24331
G1 X136.409 Y100.166 E6.27585
G1 X135.989 Y100.033 E6.31109
G1 X135.683 Y99.966 E6.33615
G1 X135.391 Y99.917 E6.35984
G1 X135.158 Y99.886 E6.37864
G1 X134.730 Y99.868 E6.41291
G1 X134.471 Y99.879 E6.43365
G1 X133.839 Y99.952 E6.48455
G1 X133.623 Y100.000 E6.50225
G1 X133.007 Y100.184 E6.55368
G1 X132.668 Y100.324 E6.58302
G1 X132.277 Y100.528 E6.61830
G1 X131.946 Y100.739 E6.64971
G1 X131.575 Y101.024 E6.68713
G1 X131.280 Y101.294 E6.71912
G1 X130.985 Y101.615 E6.75400
G0 F9000 X130.673 Y101.365
G1 F1200 X130.405 Y101.714 E6.78920
G1 X130.245 Y101.965 E6.81302
G1 X129.922 Y102.565 E6.86753
G1 X129.766 Y102.940 E6.90002
G1 X129.627 Y103.381 E6.93701
G1 X129.524 Y103.848 E6.97527
G1 X129.473 Y104.238 E7.00674
G1 X129.466 Y104.320 E7.01332
G1 X129.447 Y104.750 E7.04775
G1 X129.468 Y105.230 E7.08619
G1 X129.525 Y105.661 E7.12097
G1 X129.631 Y106.137 E7.15998
G1 X129.763 Y106.553 E7.19490
G1 X129.942 Y106.985 E7.23231
G1 X130.076 Y107.242 E7.25550
G1 X130.430 Y107.817 E7.30951
G1 X130.581 Y108.014 E7.32937
G1 X131.031 Y108.520 E7.38354
G1 X131.208 Y108.682 E7.40274
G1 X131.735 Y109.099 E7.45650
G1 X132.095 Y109.329 E7.49068
G1 X132.492 Y109.536 E7.52650
G1 X132.775 Y109.653 E7.55099
G1 X133.380 Y109.856 E7.60205
G1 X133.818 Y109.953 E7.63793
G1 X134.098 Y109.990 E7.66053
G1 X134.780 Y110.030 E7.71518
G1 X135.022 Y110.019 E7.73456
G1 X135.695 Y109.941 E7.78876
G1 X136.106 Y109.850 E7.82244
G1 X136.535 Y109.714 E7.85844
G1 X136.964 Y109.537 E7.89557
G1 X137.353 Y109.335 E7.93064
G1 X137.767 Y109.071 E7.96992
G1 X137.991 Y108.900 E7.99246
G1 X138.496 Y108.451 E8.04652
G1 X138.711 Y108.216 E8.07200
G1 X138.843 Y108.057 E8.08853
G1 X139.060 Y107.775 E8.11700
G1 X139.308 Y107.384 E8.15404
G1 X139.523 Y106.972 E8.19122
G1 X139.630 Y106.712 E8.21371
G1 X139.839 Y106.091 E8.26613
G1 X139.931 Y105.674 E8.30029
G1 X139.985 Y105.266 E8.33322
G1 X139.992 Y105.186 E8.33964
G1 X140.011 Y104.750 E8.37455
G1 X139.990 Y104.270 E8.41299
G1 X139.933 Y103.839 E8.44777
G1 X139.830 Y103.372 E8.48603
G1 X139.692 Y102.940 E8.52231
G1 X139.516 Y102.515 E8.55911
G1 X139.305 Y102.110 E8.59564
G1 X139.145 Y101.858 E8.61952
G1 X138.745 Y101.320 E8.67316
G1 X138.568 Y101.127 E8.69411
G1 X138.203 Y100.780 E8.73440
G1 X137.723 Y100.401 E8.78332
G1 X137.363 Y100.171 E8.81750
G1 X136.966 Y99.964 E8.85332
G1 X136.527 Y99.783 E8.89130
G1 X136.097 Y99.647 E8.92738
G1 X135.756 Y99.572 E8.95532
G1 X135.480 Y99.526 E8.97770
G1 X135.184 Y99.486 E9.00160
G1 X134.740 Y99.467 E9.03715
G1 X134.435 Y99.481 E9.06157
G1 X133.764 Y99.559 E9.11562
G1 X133.532 Y99.610 E9.13462
G1 X132.868 Y99.809 E9.19007
G1 X132.500 Y99.961 E9.22193
G1 X132.089 Y100.175 E9.25900
G1 X131.709 Y100.416 E9.29499
G1 X131.319 Y100.716 E9.33436
G1 X130.999 Y101.009 E9.36907
G1 X130.673 Y101.365 E9.40768
G0 F9000 X130.374 Y101.098
G1 F1200 X130.076 Y101.487 E9.44689
G1 X129.898 Y101.766 E9.47336
G1 X129.563 Y102.388 E9.52988
G1 X129.387 Y102.813 E9.56668
G1 X129.240 Y103.278 E9.60569
G1 X129.130 Y103.774 E9.64634
G1 X129.077 Y104.175 E9.67870
G1 X129.066 Y104.298 E9.68858
G1 X129.046 Y104.750 E9.72477
G1 X129.069 Y105.267 E9.76617
G1 X129.130 Y105.728 E9.80337
G1 X129.243 Y106.236 E9.84501
G1 X129.386 Y106.687 E9.88286
G1 X129.581 Y107.158 E9.92364
G1 X129.726 Y107.437 E9.94879
G1 X130.107 Y108.054 E10.00681
G1 X130.267 Y108.263 E10.02786
G1 X130.744 Y108.799 E10.08526
G1 X130.950 Y108.989 E10.10768
G1 X131.498 Y109.422 E10.16356
G1 X131.892 Y109.673 E10.20093
G1 X132.332 Y109.903 E10.24065
G1 X132.622 Y110.023 E10.26576
G1 X133.279 Y110.244 E10.32121
G1 X133.748 Y110.348 E10.35964
G1 X134.050 Y110.388 E10.38401
G1 X134.783 Y110.430 E10.44275
G1 X135.044 Y110.419 E10.46365
G1 X135.763 Y110.336 E10.52155
G1 X136.201 Y110.239 E10.55744
G1 X136.672 Y110.090 E10.59696
G1 X137.137 Y109.898 E10.63721
G1 X137.560 Y109.678 E10.67535
G1 X137.987 Y109.406 E10.71585
G1 X138.252 Y109.204 E10.74251
G1 X138.775 Y108.739 E10.79849
G1 X139.021 Y108.470 E10.82766
G1 X139.161 Y108.301 E10.84521
G1 X139.383 Y108.012 E10.87437
G1 X139.646 Y107.599 E10.91354
G1 X139.653 Y107.587 E10.91465
G1 X139.882 Y107.150 E10.95412
G1 X140.006 Y106.849 E10.98016
G1 X140.224 Y106.201 E11.03486
G1 X140.325 Y105.743 E11.07238
G1 X140.382 Y105.304 E11.10779
G1 X140.393 Y105.185 E11.11735
G1 X140.412 Y104.750 E11.15218
G1 X140.389 Y104.234 E11.19351
G1 X140.328 Y103.769 E11.23102
G1 X140.214 Y103.259 E11.27283
G1 X140.066 Y102.798 E11.31156
G1 X139.880 Y102.346 E11.35067
G1 X139.651 Y101.907 E11.39028
G1 X139.484 Y101.644 E11.41520
G1 X139.050 Y101.061 E11.47335
G1 X138.853 Y100.846 E11.49667
G1 X138.467 Y100.479 E11.53928
G1 X137.958 Y100.077 E11.59117
G1 X137.564 Y99.826 E11.62854
G1 X137.129 Y99.598 E11.66783
G1 X136.674 Y99.411 E11.70719
G1 X136.201 Y99.261 E11.74689
G1 X135.830 Y99.179 E11.77728
G1 X135.507 Y99.125 E11.80348
G1 X135.221 Y99.087 E11.82656
G1 X134.740 Y99.067 E11.86508
G1 X134.413 Y99.081 E11.89126
G1 X133.698 Y99.164 E11.94884
G1 X133.431 Y99.223 E11.97072
G1 X132.736 Y99.431 E12.02876
G1 X132.322 Y99.602 E12.06459
G1 X131.886 Y99.829 E12.10391
G1 X131.484 Y100.084 E12.14200
G1 X131.063 Y100.409 E12.18455
G1 X130.714 Y100.727 E12.22232
G1 X130.374 Y101.098 E12.26258
G0 F9000 X130.061 Y100.849
G1 F1200 X129.749 Y101.255 E12.30354
G1 X129.557 Y101.556 E12.33210
G1 X129.199 Y102.219 E12.39238
G1 X129.017 Y102.658 E12.43040
G1 X128.854 Y103.174 E12.47369
G1 X128.737 Y103.703 E12.51703
G1 X128.677 Y104.156 E12.55359
G1 X128.667 Y104.264 E12.56227
G1 X128.645 Y104.750 E12.60119
G1 X128.669 Y105.292 E12.64459
G1 X128.737 Y105.804 E12.68591
G1 X128.856 Y106.337 E12.72960
G1 X129.012 Y106.831 E12.77104
G1 X129.218 Y107.326 E12.81393
G1 X129.379 Y107.637 E12.84195
G1 X129.771 Y108.272 E12.90165
G1 X129.963 Y108.524 E12.92699
G1 X130.456 Y109.079 E12.98638
G1 X130.685 Y109.288 E13.01118
G1 X131.278 Y109.757 E13.07167
G1 X131.690 Y110.019 E13.11073
G1 X132.150 Y110.260 E13.15227
G1 X132.501 Y110.405 E13.18265
G1 X133.161 Y110.627 E13.23836
G1 X133.678 Y110.741 E13.28072
G1 X134.027 Y110.788 E13.30889
G1 X134.768 Y110.831 E13.36827
G1 X135.093 Y110.817 E13.39429
G1 X135.825 Y110.732 E13.45324
G1 X136.308 Y110.624 E13.49284
G1 X136.811 Y110.465 E13.53504
G1 X137.307 Y110.260 E13.57798
G1 X137.758 Y110.026 E13.61862
G1 X138.221 Y109.731 E13.66254
G1 X138.506 Y109.513 E13.69125
G1 X139.059 Y109.021 E13.75046
G1 X139.312 Y108.745 E13.78042
G1 X139.477 Y108.547 E13.80104
G1 X139.709 Y108.244 E13.83157
G1 X139.983 Y107.814 E13.87236
G1 X140.003 Y107.783 E13.87531
G1 X140.245 Y107.318 E13.91724
G1 X140.383 Y106.986 E13.94601
G1 X140.610 Y106.309 E14.00313
G1 X140.719 Y105.814 E14.04368
G1 X140.782 Y105.333 E14.08249
G1 X140.791 Y105.237 E14.09020
G1 X140.813 Y104.748 E14.12936
G1 X140.789 Y104.208 E14.17260
G1 X140.722 Y103.700 E14.21359
G1 X140.600 Y103.155 E14.25827
G1 X140.446 Y102.672 E14.29883
G1 X140.236 Y102.165 E14.34273
G1 X140.004 Y101.718 E14.38302
G1 X139.806 Y101.406 E14.41258
G1 X139.357 Y100.804 E14.47266
G1 X139.141 Y100.568 E14.49826
G1 X138.732 Y100.179 E14.54341
G1 X138.180 Y99.743 E14.59969
G1 X137.771 Y99.482 E14.63850
G1 X137.293 Y99.233 E14.68162
G1 X136.814 Y99.036 E14.72305
G1 X136.296 Y98.872 E14.76652
G1 X135.911 Y98.787 E14.79806
G1 X135.591 Y98.733 E14.82402
G1 X135.258 Y98.689 E14.85090
G1 X134.728 Y98.666 E14.89334
G1 X134.378 Y98.682 E14.92137
G1 X133.632 Y98.768 E14.98144
G1 X133.326 Y98.836 E15.00652
G1 X132.609 Y99.050 E15.06638
G1 X132.150 Y99.240 E15.10612
G1 X131.697 Y99.476 E15.14698
G1 X131.247 Y99.762 E15.18964
G1 X130.806 Y100.101 E15.23414
G1 X130.427 Y100.448 E15.27525
G1 X130.061 Y100.849 E15.31868
G0 F9000 X129.763 Y100.581
G1 F1200 X129.419 Y101.028 E15.36380
G1 X129.210 Y101.356 E15.39492
G1 X128.835 Y102.051 E15.45809
G1 X128.636 Y102.532 E15.49974
G1 X128.468 Y103.066 E15.54452
G1 X128.341 Y103.643 E15.59179
G1 X128.282 Y104.091 E15.62794
G1 X128.268 Y104.238 E15.63975
G1 X128.246 Y104.750 E15.68075
G1 X128.272 Y105.341 E15.72807
G1 X128.341 Y105.865 E15.77035
G1 X128.470 Y106.448 E15.81812
G1 X128.634 Y106.965 E15.86151
G1 X128.852 Y107.490 E15.90699
G1 X129.027 Y107.828 E15.93744
G1 X129.444 Y108.504 E16.00098
G1 X129.650 Y108.773 E16.02809
G1 X130.178 Y109.367 E16.09167
G1 X130.421 Y109.589 E16.11800
G1 X131.043 Y110.081 E16.18144
G1 X131.494 Y110.369 E16.22425
G1 X131.985 Y110.625 E16.26855
G1 X132.352 Y110.777 E16.30033
G1 X133.060 Y111.014 E16.36006
G1 X133.609 Y111.136 E16.40505
G1 X133.980 Y111.185 E16.43499
G1 X134.771 Y111.231 E16.49837
G1 X135.115 Y111.216 E16.52592
G1 X135.892 Y111.126 E16.58850
G1 X136.416 Y111.010 E16.63143
G1 X136.945 Y110.843 E16.67581
G1 X137.471 Y110.626 E16.72133
G1 X137.957 Y110.373 E16.76516
G1 X138.455 Y110.056 E16.81239
G1 X138.754 Y109.827 E16.84252
G1 X139.343 Y109.303 E16.90559
G1 X139.613 Y109.009 E16.93752
G1 X139.782 Y108.805 E16.95871
G1 X140.044 Y108.464 E16.99312
G1 X140.320 Y108.030 E17.03426
G1 X140.344 Y107.992 E17.03786
G1 X140.608 Y107.487 E17.08344
G1 X140.759 Y107.123 E17.11497
G1 X140.995 Y106.419 E17.17437
G1 X141.116 Y105.872 E17.21919
G1 X141.177 Y105.405 E17.25687
G1 X141.190 Y105.256 E17.26883
G1 X141.212 Y104.751 E17.30927
G1 X141.186 Y104.156 E17.35692
G1 X141.116 Y103.630 E17.39937
G1 X140.987 Y103.052 E17.44674
G1 X140.819 Y102.527 E17.49084
G1 X140.606 Y102.010 E17.53557
G1 X140.341 Y101.502 E17.58141
G1 X140.138 Y101.182 E17.61173
G1 X139.671 Y100.556 E17.67421
G1 X139.422 Y100.283 E17.70377
