;FLAVOR:UltiGCode
;TIME:12996
;MATERIAL:40234
;MATERIAL2:0
;NOZZLE_DIAMETER:0.400000
;NOZZLE_DIAMETER2:0.400000

;Layer count: 50
;LAYER:0
M107
G0 F9000 X99.098 Y70.139 Z0.200
;TYPE:SKIRT
G1 F1200 X99.098 Y154.109 E6.71760
G1 X114.979 Y154.109 E7.98808
G1 X114.979 Y70.139 E14.70568
G1 X99.098 Y70.139 E15.97616
G0 F9000 X98.698 Y69.739
G1 F1200 X98.698 Y154.509 E22.75776
G1 X115.379 Y154.509 E24.09224
G1 X115.379 Y69.739 E30.87384
G1 X98.698 Y69.739 E32.20832
G0 F9000 X98.298 Y69.339
G1 F1200 X98.298 Y154.909 E39.05392
G1 X115.779 Y154.909 E40.45240
G1 X115.779 Y69.339 E47.29800
G1 X98.298 Y69.339 E48.69648
G0 F9000 X97.898 Y68.939
G1 F1200 X97.898 Y155.309 E55.60608
G1 X116.179 Y155.309 E57.06856
G1 X116.179 Y68.939 E63.97816
G1 X97.898 Y68.939 E65.44064
G0 F9000 X97.498 Y68.539
G1 F1200 X97.498 Y155.709 E72.41424
G1 X116.579 Y155.709 E73.94072
G1 X116.579 Y68.539 E80.91432
G1 X97.498 Y68.539 E82.44080
G0 F9000 X97.098 Y68.139
G1 F1200 X97.098 Y156.109 E89.47840
G1 X116.979 Y156.109 E91.06888
G1 X116.979 Y68.139 E98.10648
G1 X97.098 Y68.139 E99.69696
G0 F9000 X96.698 Y67.739
G1 F1200 X96.698 Y156.509 E106.79856
G1 X117.379 Y156.509 E108.45304
G1 X117.379 Y67.739 E115.55464
G1 X96.698 Y67.739 E117.20912
G0 F9000 X96.298 Y67.339
G1 F1200 X96.298 Y156.909 E124.37472
G1 X117.779 Y156.909 E126.09320
G1 X117.779 Y67.339 E133.25880
G1 X96.298 Y67.339 E134.97728
G0 F9000 X95.898 Y66.939
G1 F1200 X95.898 Y157.309 E142.20688
G1 X118.179 Y157.309 E143.98936
G1 X118.179 Y66.939 E151.21896
G1 X95.898 Y66.939 E153.00144
G0 F9000 X95.498 Y66.539
G1 F1200 X95.498 Y157.709 E160.29504
G1 X118.579 Y157.709 E162.14152
G1 X118.579 Y66.539 E169.43512
G1 X95.498 Y66.539 E171.28160
G0 F9000 X95.098 Y66.139
G1 F1200 X95.098 Y158.109 E178.63920
G1 X118.979 Y158.109 E180.54968
G1 X118.979 Y66.139 E187.90728
G1 X95.098 Y66.139 E189.81776
G0 F9000 X94.698 Y65.739
G1 F1200 X94.698 Y158.509 E197.23936
G1 X119.379 Y158.509 E199.21384
G1 X119.379 Y65.739 E206.63544
G1 X94.698 Y65.739 E208.60992
G0 F9000 X94.298 Y65.339
G1 F1200 X94.298 Y158.909 E216.09552
G1 X119.779 Y158.909 E218.13400
G1 X119.779 Y65.339 E225.61960
G1 X94.298 Y65.339 E227.65808
G0 F9000 X93.898 Y64.939
G1 F1200 X93.898 Y159.309 E235.20768
G1 X120.179 Y159.309 E237.31016
G1 X120.179 Y64.939 E244.85976
G1 X93.898 Y64.939 E246.96224
G0 F9000 X93.498 Y64.539
G1 F1200 X93.498 Y171.538 E255.52216
G1 X84.887 Y171.538 E256.21104
G1 X58.598 Y145.249 E259.18530
G1 X58.598 Y73.428 E264.93098
G1 X84.887 Y47.139 E267.90524
G1 X120.497 Y47.139 E270.75404
G1 X120.497 Y64.539 E272.14604
G1 X93.498 Y64.539 E274.30596
G0 F9000 X93.098 Y64.139
G1 F1200 X93.098 Y171.138 E282.86588
G1 X85.052 Y171.138 E283.50956
G1 X58.998 Y145.084 E286.45724
G1 X58.998 Y73.593 E292.17652
G1 X85.052 Y47.539 E295.12419
G1 X120.097 Y47.539 E297.92779
G1 X120.097 Y64.139 E299.25579
G1 X93.098 Y64.139 E301.41571
G0 F9000 X92.698 Y63.739
G1 F1200 X92.698 Y170.738 E309.97563
G1 X85.218 Y170.738 E310.57403
G1 X59.398 Y144.918 E313.49523
G1 X59.398 Y73.759 E319.18795
G1 X85.218 Y47.939 E322.10915
G1 X119.697 Y47.939 E324.86747
G1 X119.697 Y63.739 E326.13147
G1 X92.698 Y63.739 E328.29139
G0 F9000 X92.298 Y63.339
G1 F1200 X92.298 Y170.338 E336.85131
G1 X85.384 Y170.338 E337.40443
G1 X59.798 Y144.752 E340.29915
G1 X59.798 Y73.925 E345.96531
G1 X85.384 Y48.339 E348.86004
G1 X119.297 Y48.339 E351.57308
G1 X119.297 Y63.339 E352.77308
G1 X92.298 Y63.339 E354.93300
G0 F9000 X91.898 Y62.939
G1 F1200 X91.898 Y169.938 E363.49292
G1 X85.549 Y169.938 E364.00084
G1 X60.198 Y144.587 E366.86898
G1 X60.198 Y74.090 E372.50874
G1 X85.549 Y48.739 E375.37688
G1 X118.897 Y48.739 E378.04472
G1 X118.897 Y62.939 E379.18072
G1 X91.898 Y62.939 E381.34064
G0 F9000 X91.498 Y62.539
G1 F1200 X91.498 Y169.538 E389.90056
G1 X85.715 Y169.538 E390.36320
G1 X60.598 Y144.421 E393.20486
G1 X60.598 Y74.256 E398.81806
G1 X85.715 Y49.139 E401.65972
G1 X118.497 Y49.139 E404.28228
G1 X118.497 Y62.539 E405.35428
G1 X91.498 Y62.539 E407.51420
G0 F9000 X84.721 Y46.739
G1 F1200 X120.897 Y46.739 E410.40828
G1 X120.897 Y52.310 E410.85396
G1 X129.356 Y52.310 E411.53068
G1 X155.879 Y78.833 E414.53142
G1 X155.879 Y150.986 E420.30366
G1 X129.356 Y177.509 E423.30439
G1 X93.180 Y177.509 E426.19847
G1 X93.180 Y171.938 E426.64415
G1 X84.721 Y171.938 E427.32087
G1 X58.198 Y145.415 E430.32161
G1 X58.198 Y73.262 E436.09385
G1 X84.721 Y46.739 E439.09458
G0 F9000 X84.555 Y46.339
G1 F1200 X121.297 Y46.339 E442.03394
G1 X121.297 Y51.910 E442.47962
G1 X129.522 Y51.910 E443.13762
G1 X156.279 Y78.667 E446.16483
G1 X156.279 Y151.152 E451.96363
G1 X129.522 Y177.909 E454.99084
G1 X92.780 Y177.909 E457.93020
G1 X92.780 Y172.338 E458.37588
G1 X84.555 Y172.338 E459.03388
G1 X57.798 Y145.581 E462.06109
G1 X57.798 Y73.096 E467.85989
G1 X84.555 Y46.339 E470.88710
G0 F9000 X84.390 Y45.939
G1 F1200 X121.697 Y45.939 E473.87166
G1 X121.697 Y51.510 E474.31734
G1 X129.687 Y51.510 E474.95654
G1 X156.679 Y78.502 E478.01034
G1 X156.679 Y151.317 E483.83554
G1 X129.687 Y178.309 E486.88933
G1 X92.380 Y178.309 E489.87389
G1 X92.380 Y172.738 E490.31957
G1 X84.390 Y172.738 E490.95877
G1 X57.398 Y145.746 E494.01257
G1 X57.398 Y72.931 E499.83777
G1 X84.390 Y45.939 E502.89156
G0 F9000 X84.224 Y45.539
G1 F1200 X122.097 Y45.539 E505.92140
G1 X122.097 Y51.110 E506.36708
G1 X129.853 Y51.110 E506.98756
G1 X157.079 Y78.336 E510.06783
G1 X157.079 Y151.483 E515.91959
G1 X129.853 Y178.709 E518.99986
G1 X91.980 Y178.709 E522.02970
G1 X91.980 Y173.138 E522.47538
G1 X84.224 Y173.138 E523.09586
G1 X56.998 Y145.912 E526.17613
G1 X56.998 Y72.765 E532.02789
G1 X84.224 Y45.539 E535.10817
G0 F9000 X84.058 Y45.139
G1 F1200 X122.497 Y45.139 E538.18329
G1 X122.497 Y50.710 E538.62897
G1 X130.019 Y50.710 E539.23073
G1 X157.479 Y78.170 E542.33747
G1 X157.479 Y151.649 E548.21579
G1 X130.019 Y179.109 E551.32253
G1 X91.580 Y179.109 E554.39765
G1 X91.580 Y173.538 E554.84333
G1 X84.058 Y173.538 E555.44509
G1 X56.598 Y146.078 E558.55184
G1 X56.598 Y72.599 E564.43016
G1 X84.058 Y45.139 E567.53690
G0 F9000 X83.893 Y44.739
G1 F1200 X122.897 Y44.739 E570.65722
G1 X122.897 Y50.310 E571.10290
G1 X130.184 Y50.310 E571.68586
G1 X157.879 Y78.005 E574.81919
G1 X157.879 Y151.814 E580.72391
G1 X130.184 Y179.509 E583.85725
G1 X91.180 Y179.509 E586.97757
G1 X91.180 Y173.938 E587.42325
G1 X83.893 Y173.938 E588.00621
G1 X56.198 Y146.243 E591.13954
G1 X56.198 Y72.434 E597.04426
G1 X83.893 Y44.739 E600.17759
G0 F9000 X83.727 Y44.339
G1 F1200 X123.297 Y44.339 E603.34319
G1 X123.297 Y49.910 E603.78887
G1 X130.350 Y49.910 E604.35311
G1 X158.279 Y77.839 E607.51291
G1 X158.279 Y151.980 E613.44419
G1 X130.350 Y179.909 E616.60400
G1 X90.780 Y179.909 E619.76960
G1 X90.780 Y174.338 E620.21528
G1 X83.727 Y174.338 E620.77952
G1 X55.798 Y146.409 E623.93933
G1 X55.798 Y72.268 E629.87061
G1 X83.727 Y44.339 E633.03041
G0 F9000 X83.561 Y43.939
G1 F1200 X123.697 Y43.939 E636.24129
G1 X123.697 Y49.510 E636.68697
G1 X130.516 Y49.510 E637.23249
G1 X158.679 Y77.673 E640.41877
G1 X158.679 Y152.146 E646.37661
G1 X130.516 Y180.309 E649.56289
G1 X90.380 Y180.309 E652.77377
G1 X90.380 Y174.738 E653.21945
G1 X83.561 Y174.738 E653.76497
G1 X55.398 Y146.575 E656.95125
G1 X55.398 Y72.102 E662.90909
G1 X83.561 Y43.939 E666.09537
G0 F9000 X83.396 Y43.539
G1 F1200 X124.097 Y43.539 E669.35145
G1 X124.097 Y49.110 E669.79713
G1 X130.681 Y49.110 E670.32385
G1 X159.079 Y77.508 E673.53672
G1 X159.079 Y152.311 E679.52096
G1 X130.681 Y180.709 E682.73382
G1 X89.980 Y180.709 E685.98990
G1 X89.980 Y175.138 E686.43558
G1 X83.396 Y175.138 E686.96230
G1 X54.998 Y146.740 E690.17517
G1 X54.998 Y71.937 E696.15941
G1 X83.396 Y43.539 E699.37228
G0 F9000 X83.230 Y43.139
G1 F1200 X124.497 Y43.139 E702.67364
G1 X124.497 Y48.710 E703.11932
G1 X130.847 Y48.710 E703.62732
G1 X159.479 Y77.342 E706.86666
G1 X159.479 Y152.477 E712.87746
G1 X130.847 Y181.109 E716.11680
G1 X89.580 Y181.109 E719.41816
G1 X89.580 Y175.538 E719.86384
G1 X83.230 Y175.538 E720.37184
G1 X54.598 Y146.906 E723.61118
G1 X54.598 Y71.771 E729.62198
G1 X83.230 Y43.139 E732.86132
G0 F9000 X83.064 Y42.739
G1 F1200 X124.897 Y42.739 E736.20796
G1 X124.897 Y48.310 E736.65364
G1 X131.013 Y48.310 E737.14292
G1 X159.879 Y77.176 E740.40874
G1 X159.879 Y152.643 E746.44610
G1 X131.013 Y181.509 E749.71191
G1 X89.180 Y181.509 E753.05855
G1 X89.180 Y175.938 E753.50423
G1 X83.064 Y175.938 E753.99351
G1 X54.198 Y147.072 E757.25933
G1 X54.198 Y71.605 E763.29669
G1 X83.064 Y42.739 E766.56250
G0 F9000 X82.899 Y42.339
G1 F1200 X125.297 Y42.339 E769.95434
G1 X125.297 Y47.910 E770.40002
G1 X131.178 Y47.910 E770.87050
G1 X160.279 Y77.011 E774.16290
G1 X160.279 Y152.808 E780.22666
G1 X131.178 Y181.909 E783.51907
G1 X88.780 Y181.909 E786.91091
G1 X88.780 Y176.338 E787.35659
G1 X82.899 Y176.338 E787.82707
G1 X53.798 Y147.237 E791.11947
G1 X53.798 Y71.440 E797.18323
G1 X82.899 Y42.339 E800.47563
G0 F9000 X82.733 Y41.939
G1 F1200 X125.697 Y41.939 E803.91275
G1 X125.697 Y47.510 E804.35843
G1 X131.344 Y47.510 E804.81019
G1 X160.679 Y76.845 E808.12907
G1 X160.679 Y152.974 E814.21939
G1 X131.344 Y182.309 E817.53826
G1 X88.380 Y182.309 E820.97538
G1 X88.380 Y176.738 E821.42106
G1 X82.733 Y176.738 E821.87282
G1 X53.398 Y147.403 E825.19170
G1 X53.398 Y71.274 E831.28202
G1 X82.733 Y41.939 E834.60090
G0 F9000 X82.567 Y41.539
G1 F1200 X126.097 Y41.539 E838.08330
G1 X126.097 Y47.110 E838.52898
G1 X131.510 Y47.110 E838.96202
G1 X161.079 Y76.679 E842.30737
G1 X161.079 Y153.140 E848.42425
G1 X131.510 Y182.709 E851.76960
G1 X87.980 Y182.709 E855.25200
G1 X87.980 Y177.138 E855.69768
G1 X82.567 Y177.138 E856.13072
G1 X52.998 Y147.569 E859.47607
G1 X52.998 Y71.108 E865.59295
G1 X82.567 Y41.539 E868.93830
G0 F9000 X120.579 Y52.710
G1 F1200 X129.190 Y52.710 E869.62718
G1 X155.479 Y78.999 E872.60144
G1 X155.479 Y150.820 E878.34712
G1 X129.190 Y177.109 E881.32138
G1 X93.580 Y177.109 E884.17018
G1 X93.580 Y159.709 E885.56218
G1 X120.579 Y159.709 E887.72210
G1 X120.579 Y52.710 E896.28202
G0 F9000 X120.979 Y53.110
G1 F1200 X129.025 Y53.110 E896.92570
G1 X155.079 Y79.164 E899.87337
G1 X155.079 Y150.655 E905.59265
G1 X129.025 Y176.709 E908.54033
G1 X93.980 Y176.709 E911.34393
G1 X93.980 Y160.109 E912.67193
G1 X120.979 Y160.109 E914.83185
G1 X120.979 Y53.110 E923.39177
G0 F9000 X121.379 Y53.510
G1 F1200 X128.859 Y53.510 E923.99017
G1 X154.679 Y79.330 E926.91137
G1 X154.679 Y150.489 E932.60409
G1 X128.859 Y176.309 E935.52529
G1 X94.380 Y176.309 E938.28361
G1 X94.380 Y160.509 E939.54761
G1 X121.379 Y160.509 E941.70753
G1 X121.379 Y53.510 E950.26745
G0 F9000 X121.779 Y53.910
G1 F1200 X128.693 Y53.910 E950.82057
G1 X154.279 Y79.496 E953.71529
G1 X154.279 Y150.323 E959.38145
G1 X128.693 Y175.909 E962.27618
G1 X94.780 Y175.909 E964.98922
G1 X94.780 Y160.909 E966.18922
G1 X121.779 Y160.909 E968.34914
G1 X121.779 Y53.910 E976.90906
G0 F9000 X122.179 Y54.310
G1 F1200 X128.528 Y54.310 E977.41698
G1 X153.879 Y79.661 E980.28512
G1 X153.879 Y150.158 E985.92488
G1 X128.528 Y175.509 E988.79301
G1 X95.180 Y175.509 E991.46085
G1 X95.180 Y161.309 E992.59685
G1 X122.179 Y161.309 E994.75677
G1 X122.179 Y54.310 E1003.31669
G0 F9000 X122.579 Y54.710
G1 F1200 X128.362 Y54.710 E1003.77933
G1 X153.479 Y79.827 E1006.62100
G1 X153.479 Y149.992 E1012.23420
G1 X128.362 Y175.109 E1015.07586
G1 X95.580 Y175.109 E1017.69842
G1 X95.580 Y161.709 E1018.77042
G1 X122.579 Y161.709 E1020.93034
G1 X122.579 Y54.710 E1029.49026
G10
G0 F9000 X117.297 Y50.339
;TYPE:WALL-INNER
G11
G1 F1200 X117.297 Y61.339 E1030.37026
G1 X90.298 Y61.339 E1032.53018
G1 X90.298 Y168.338 E1041.09010
G1 X86.212 Y168.338 E1041.41698
G1 X61.798 Y143.924 E1044.17911
G1 X61.798 Y74.753 E1049.71279
G1 X86.212 Y50.339 E1052.47492
G1 X117.297 Y50.339 E1054.96172
G0 F9000 X105.808 Y55.390
G1 F1200 X105.346 Y54.787 E1055.02249
G1 X104.737 Y54.326 E1055.08360
G1 X104.049 Y54.040 E1055.14320
G1 X103.298 Y53.940 E1055.20381
G1 X102.547 Y54.040 E1055.26442
G1 X101.849 Y54.330 E1055.32489
G1 X101.249 Y54.789 E1055.38533
G1 X100.787 Y55.390 E1055.44597
G1 X100.499 Y56.089 E1055.50645
G1 X100.399 Y56.842 E1055.56722
G1 X100.504 Y57.603 E1055.62868
G1 X100.787 Y58.288 E1055.68797
G1 X101.251 Y58.892 E1055.74890
G1 X101.861 Y59.354 E1055.81012
G1 X102.548 Y59.639 E1055.86962
G1 X103.301 Y59.738 E1055.93038
G1 X104.060 Y59.634 E1055.99166
G1 X104.747 Y59.350 E1056.05114
G1 X105.351 Y58.888 E1056.11197
G1 X105.813 Y58.276 E1056.17331
G1 X106.098 Y57.590 E1056.23274
G1 X106.197 Y56.839 E1056.29334
G1 X106.098 Y56.089 E1056.35386
G1 X105.808 Y55.390 E1056.41440
G0 F9000 X105.462 Y58.074
G0 X103.954 Y59.243
G0 X90.757 Y61.798
G0 X87.247 Y81.829
G1 F1200 X86.549 Y81.540 E1056.47484
G1 X85.798 Y81.440 E1056.53545
G1 X85.047 Y81.540 E1056.59606
G1 X84.349 Y81.830 E1056.65653
G1 X83.749 Y82.289 E1056.71696
G1 X83.287 Y82.890 E1056.77761
G1 X82.999 Y83.589 E1056.83809
G1 X82.899 Y84.339 E1056.89862
G1 X82.999 Y85.090 E1056.95923
G1 X83.287 Y85.788 E1057.01964
G1 X83.751 Y86.392 E1057.08057
G1 X84.361 Y86.854 E1057.14179
G1 X85.048 Y87.139 E1057.20129
G1 X85.801 Y87.238 E1057.26205
G1 X86.560 Y87.134 E1057.32333
G1 X87.247 Y86.850 E1057.38280
G1 X87.851 Y86.388 E1057.44364
G1 X88.313 Y85.776 E1057.50498
G1 X88.598 Y85.090 E1057.56441
G1 X88.697 Y84.339 E1057.62501
G1 X88.598 Y83.589 E1057.68553
G1 X88.308 Y82.890 E1057.74607
G1 X87.848 Y82.289 E1057.80662
G1 X87.247 Y81.829 E1057.86717
G0 F9000 X71.346 Y83.580
G1 F1200 X71.052 Y82.881 E1057.92783
G1 X70.592 Y82.284 E1057.98812
G1 X69.997 Y81.829 E1058.04805
G1 X69.299 Y81.540 E1058.10848
G1 X68.547 Y81.440 E1058.16917
G1 X67.788 Y81.543 E1058.23045
G1 X67.090 Y81.836 E1058.29101
G1 X66.494 Y82.296 E1058.35124
G1 X66.038 Y82.889 E1058.41108
G1 X65.748 Y83.589 E1058.47170
G1 X65.649 Y84.339 E1058.53222
G1 X65.748 Y85.090 E1058.59282
G1 X66.038 Y85.789 E1058.65336
G1 X66.499 Y86.389 E1058.71389
G1 X67.099 Y86.849 E1058.77438
G1 X67.798 Y87.139 E1058.83492
G1 X68.548 Y87.238 E1058.89544
G1 X69.298 Y87.139 E1058.95596
G1 X69.997 Y86.850 E1059.01647
G1 X70.599 Y86.389 E1059.07713
G1 X71.052 Y85.796 E1059.13683
G1 X71.348 Y85.092 E1059.19792
G1 X71.447 Y84.338 E1059.25876
G1 X71.346 Y83.580 E1059.31994
G0 F9000 X84.349 Y106.830
G1 F1200 X83.747 Y107.291 E1059.38060
G1 X83.284 Y107.900 E1059.44180
G1 X82.999 Y108.589 E1059.50145
G1 X82.899 Y109.339 E1059.56198
G1 X82.999 Y110.090 E1059.62259
G1 X83.287 Y110.788 E1059.68300
G1 X83.751 Y111.392 E1059.74393
G1 X84.361 Y111.854 E1059.80514
G1 X85.048 Y112.139 E1059.86465
G1 X85.801 Y112.238 E1059.92540
G1 X86.560 Y112.134 E1059.98669
G1 X87.247 Y111.850 E1060.04616
G1 X87.851 Y111.388 E1060.10700
G1 X88.313 Y110.776 E1060.16834
G1 X88.598 Y110.090 E1060.22777
G1 X88.697 Y109.339 E1060.28837
G1 X88.598 Y108.589 E1060.34889
G1 X88.308 Y107.890 E1060.40943
G1 X87.848 Y107.289 E1060.46998
G1 X87.247 Y106.829 E1060.53052
G1 X86.549 Y106.540 E1060.59096
G1 X85.798 Y106.440 E1060.65157
G1 X85.047 Y106.540 E1060.71218
G1 X84.349 Y106.830 E1060.77265
G0 F9000 X83.304 Y109.339
G0 X84.036 Y111.103
G0 X85.798 Y131.439
G1 F1200 X85.047 Y131.539 E1060.83326
G1 X84.349 Y131.829 E1060.89373
G1 X83.747 Y132.290 E1060.95439
G1 X83.284 Y132.899 E1061.01559
G1 X82.999 Y133.588 E1061.07524
G1 X82.899 Y134.338 E1061.13577
G1 X82.999 Y135.089 E1061.19638
G1 X83.287 Y135.787 E1061.25679
G1 X83.751 Y136.391 E1061.31772
G1 X84.361 Y136.853 E1061.37893
G1 X85.048 Y137.138 E1061.43844
G1 X85.801 Y137.237 E1061.49919
G1 X86.560 Y137.133 E1061.56048
G1 X87.247 Y136.849 E1061.61995
G1 X87.851 Y136.387 E1061.68079
G1 X88.313 Y135.775 E1061.74213
G1 X88.598 Y135.089 E1061.80156
G1 X88.697 Y134.338 E1061.86216
G1 X88.598 Y133.588 E1061.92268
G1 X88.308 Y132.889 E1061.98322
G1 X87.848 Y132.288 E1062.04377
G1 X87.247 Y131.828 E1062.10432
G1 X86.549 Y131.539 E1062.16475
G1 X85.798 Y131.439 E1062.22536
G0 F9000 X71.346 Y133.579
G1 F1200 X71.052 Y132.880 E1062.28603
G1 X70.592 Y132.283 E1062.34632
G1 X69.997 Y131.828 E1062.40624
G1 X69.299 Y131.539 E1062.46668
G1 X68.547 Y131.439 E1062.52737
G1 X67.788 Y131.542 E1062.58865
G1 X67.090 Y131.835 E1062.64921
G1 X66.494 Y132.295 E1062.70944
G1 X66.038 Y132.888 E1062.76928
