;FLAVOR:UltiGCode
;TIME:3436
;MATERIAL:9378
;MATERIAL2:0
;NOZZLE_DIAMETER:0.400000
;NOZZLE_DIAMETER2:0.400000

;Layer count: 15
;LAYER:0
M107
G0 F9000 X100.895 Y72.300 Z0.200
;TYPE:SKIRT
G1 F1200 X100.895 Y151.266 E6.31728
G1 X118.699 Y151.266 E7.74160
G1 X118.699 Y72.300 E14.05888
G1 X100.895 Y72.300 E15.48320
G0 F9000 X100.495 Y71.900
G1 F1200 X100.495 Y151.666 E21.86448
G1 X119.099 Y151.666 E23.35280
G1 X119.099 Y71.900 E29.73408
G1 X100.495 Y71.900 E31.22240
G0 F9000 X100.095 Y71.500
G1 F1200 X100.095 Y152.066 E37.66768
G1 X119.499 Y152.066 E39.22000
G1 X119.499 Y71.500 E45.66528
G1 X100.095 Y71.500 E47.21760
G0 F9000 X99.695 Y71.100
G1 F1200 X99.695 Y152.466 E53.72688
G1 X119.899 Y152.466 E55.34320
G1 X119.899 Y71.100 E61.85248
G1 X99.695 Y71.100 E63.46880
G0 F9000 X99.295 Y70.700
G1 F1200 X99.295 Y152.866 E70.04208
G1 X120.299 Y152.866 E71.72240
G1 X120.299 Y70.700 E78.29568
G1 X99.295 Y70.700 E79.97600
G0 F9000 X98.895 Y70.300
G1 F1200 X98.895 Y153.266 E86.61328
G1 X120.699 Y153.266 E88.35760
G1 X120.699 Y70.300 E94.99488
G1 X98.895 Y70.300 E96.73920
G0 F9000 X98.495 Y69.900
G1 F1200 X98.495 Y153.666 E103.44048
G1 X121.099 Y153.666 E105.24880
G1 X121.099 Y69.900 E111.95008
G1 X98.495 Y69.900 E113.75840
G0 F9000 X98.095 Y69.500
G1 F1200 X98.095 Y154.066 E120.52368
G1 X121.499 Y154.066 E122.39600
G1 X121.499 Y69.500 E129.16128
G1 X98.095 Y69.500 E131.03360
G0 F9000 X97.695 Y69.100
G1 F1200 X97.695 Y154.466 E137.86288
G1 X121.899 Y154.466 E139.79920
G1 X121.899 Y69.100 E146.62848
G1 X97.695 Y69.100 E148.56480
G0 F9000 X97.295 Y68.700
G1 F1200 X97.295 Y154.866 E155.45808
G1 X122.299 Y154.866 E157.45840
G1 X122.299 Y68.700 E164.35168
G1 X97.295 Y68.700 E166.35200
G0 F9000 X96.895 Y68.300
G1 F1200 X96.895 Y155.266 E173.30928
G1 X122.699 Y155.266 E175.37360
G1 X122.699 Y68.300 E182.33088
G1 X96.895 Y68.300 E184.39520
G0 F9000 X96.495 Y67.900
G1 F1200 X96.495 Y155.666 E191.41648
G1 X123.099 Y155.666 E193.54480
G1 X123.099 Y67.900 E200.56608
G1 X96.495 Y67.900 E202.69440
G0 F9000 X96.499 Y67.500
G1 F1200 X96.499 Y48.500 E204.21440
G1 X132.742 Y48.500 E207.11384
G1 X142.499 Y58.257 E208.21772
G1 X142.499 Y164.743 E216.73660
G1 X132.742 Y174.500 E217.84048
G1 X123.499 Y174.500 E218.57992
G1 X123.499 Y67.500 E227.13992
G1 X96.499 Y67.500 E229.29992
G0 F9000 X96.899 Y67.100
G1 F1200 X96.899 Y48.900 E230.75592
G1 X132.576 Y48.900 E233.61008
G1 X142.099 Y58.423 E234.68748
G1 X142.099 Y164.577 E243.17980
G1 X132.576 Y174.100 E244.25721
G1 X123.899 Y174.100 E244.95137
G1 X123.899 Y67.100 E253.51137
G1 X96.899 Y67.100 E255.67137
G0 F9000 X97.299 Y66.700
G1 F1200 X97.299 Y49.300 E257.06337
G1 X132.410 Y49.300 E259.87225
G1 X141.699 Y58.589 E260.92318
G1 X141.699 Y164.411 E269.38894
G1 X132.410 Y173.700 E270.43987
G1 X124.299 Y173.700 E271.08875
G1 X124.299 Y66.700 E279.64875
G1 X97.299 Y66.700 E281.80875
G0 F9000 X97.699 Y66.300
G1 F1200 X97.699 Y49.700 E283.13675
G1 X132.245 Y49.700 E285.90043
G1 X141.299 Y58.754 E286.92477
G1 X141.299 Y164.246 E295.36413
G1 X132.245 Y173.300 E296.38847
G1 X124.699 Y173.300 E296.99215
G1 X124.699 Y66.300 E305.55215
G1 X97.699 Y66.300 E307.71215
G0 F9000 X98.099 Y65.900
G1 F1200 X98.099 Y50.100 E308.97615
G1 X132.079 Y50.100 E311.69455
G1 X140.899 Y58.920 E312.69242
G1 X140.899 Y164.080 E321.10522
G1 X132.079 Y172.900 E322.10309
G1 X125.099 Y172.900 E322.66149
G1 X125.099 Y65.900 E331.22149
G1 X98.099 Y65.900 E333.38149
G0 F9000 X98.499 Y65.500
G1 F1200 X98.499 Y50.500 E334.58149
G1 X131.913 Y50.500 E337.25461
G1 X140.499 Y59.086 E338.22601
G1 X140.499 Y163.914 E346.61225
G1 X131.913 Y172.500 E347.58364
G1 X125.499 Y172.500 E348.09676
G1 X125.499 Y65.500 E356.65676
G1 X98.499 Y65.500 E358.81676
G0 F9000 X98.899 Y65.100
G1 F1200 X98.899 Y50.900 E359.95276
G1 X131.748 Y50.900 E362.58068
G1 X140.099 Y59.251 E363.52549
G1 X140.099 Y163.749 E371.88533
G1 X131.748 Y172.100 E372.83014
G1 X125.899 Y172.100 E373.29806
G1 X125.899 Y65.100 E381.85806
G1 X98.899 Y65.100 E384.01806
G0 F9000 X99.299 Y64.700
G1 F1200 X99.299 Y51.300 E385.09006
G1 X131.582 Y51.300 E387.67270
G1 X139.699 Y59.417 E388.59103
G1 X139.699 Y163.583 E396.92431
G1 X131.582 Y171.700 E397.84264
G1 X126.299 Y171.700 E398.26528
G1 X126.299 Y64.700 E406.82528
G1 X99.299 Y64.700 E408.98528
G0 F9000 X93.295 Y51.867
G1 F1200 X93.295 Y158.866 E417.54520
G1 X120.294 Y158.866 E419.70512
G1 X120.294 Y172.266 E420.77712
G1 X88.012 Y172.266 E423.35968
G1 X79.895 Y164.149 E424.27802
G1 X79.895 Y59.984 E432.61122
G1 X88.012 Y51.867 E433.52955
G1 X93.295 Y51.867 E433.95219
G0 F9000 X93.695 Y51.467
G1 F1200 X93.695 Y158.466 E442.51211
G1 X120.694 Y158.466 E444.67203
G1 X120.694 Y172.666 E445.80803
G1 X87.846 Y172.666 E448.43587
G1 X79.495 Y164.315 E449.38068
G1 X79.495 Y59.818 E457.74044
G1 X87.846 Y51.467 E458.68525
G1 X93.695 Y51.467 E459.15317
G0 F9000 X94.095 Y51.067
G1 F1200 X94.095 Y158.066 E467.71309
G1 X121.094 Y158.066 E469.87301
G1 X121.094 Y173.066 E471.07301
G1 X87.681 Y173.066 E473.74605
G1 X79.095 Y164.480 E474.71744
G1 X79.095 Y59.653 E483.10360
G1 X87.681 Y51.067 E484.07500
G1 X94.095 Y51.067 E484.58812
G0 F9000 X94.495 Y50.667
G1 F1200 X94.495 Y157.666 E493.14804
G1 X121.494 Y157.666 E495.30796
G1 X121.494 Y173.466 E496.57196
G1 X87.515 Y173.466 E499.29028
G1 X78.695 Y164.646 E500.28815
G1 X78.695 Y59.487 E508.70087
G1 X87.515 Y50.667 E509.69874
G1 X94.495 Y50.667 E510.25714
G0 F9000 X94.895 Y50.267
G1 F1200 X94.895 Y157.266 E518.81706
G1 X121.894 Y157.266 E520.97698
G1 X121.894 Y173.866 E522.30498
G1 X87.349 Y173.866 E525.06858
G1 X78.295 Y164.812 E526.09292
G1 X78.295 Y59.321 E534.53220
G1 X87.349 Y50.267 E535.55654
G1 X94.895 Y50.267 E536.16022
G0 F9000 X95.295 Y49.867
G1 F1200 X95.295 Y156.866 E544.72014
G1 X122.294 Y156.866 E546.88006
G1 X122.294 Y174.266 E548.27206
G1 X87.184 Y174.266 E551.08086
G1 X77.895 Y164.977 E552.13179
G1 X77.895 Y59.156 E560.59747
G1 X87.184 Y49.867 E561.64840
G1 X95.295 Y49.867 E562.29728
G0 F9000 X95.695 Y49.467
G1 F1200 X95.695 Y156.466 E570.85720
G1 X122.694 Y156.466 E573.01712
G1 X122.694 Y174.666 E574.47312
G1 X87.018 Y174.666 E577.32720
G1 X77.495 Y165.143 E578.40461
G1 X77.495 Y58.990 E586.89685
G1 X87.018 Y49.467 E587.97425
G1 X95.695 Y49.467 E588.66841
G0 F9000 X96.095 Y49.067
G1 F1200 X96.095 Y156.066 E597.22833
G1 X123.094 Y156.066 E599.38825
G1 X123.094 Y175.066 E600.90825
G1 X86.852 Y175.066 E603.80761
G1 X77.095 Y165.309 E604.91149
G1 X77.095 Y58.824 E613.43029
G1 X86.852 Y49.067 E614.53417
G1 X96.095 Y49.067 E615.27361
G0 F9000 X96.099 Y48.667
G1 F1200 X96.099 Y48.100 E615.31897
G1 X132.907 Y48.100 E618.26361
G1 X142.899 Y58.092 E619.39407
G1 X142.899 Y164.908 E627.93935
G1 X132.907 Y174.900 E629.06982
G1 X123.494 Y174.900 E629.82286
G1 X123.494 Y175.466 E629.86814
G1 X86.687 Y175.466 E632.81270
G1 X76.695 Y165.474 E633.94317
G1 X76.695 Y58.659 E642.48837
G1 X86.687 Y48.667 E643.61883
G1 X96.099 Y48.667 E644.37179
G0 F9000 X95.699 Y48.267
G1 F1200 X95.699 Y47.700 E644.41715
G1 X133.073 Y47.700 E647.40707
G1 X143.299 Y57.926 E648.56401
G1 X143.299 Y165.074 E657.13585
G1 X133.073 Y175.300 E658.29279
G1 X123.894 Y175.300 E659.02711
G1 X123.894 Y175.866 E659.07239
G1 X86.521 Y175.866 E662.06223
G1 X76.295 Y165.640 E663.21917
G1 X76.295 Y58.493 E671.79093
G1 X86.521 Y48.267 E672.94787
G1 X95.699 Y48.267 E673.68211
G0 F9000 X95.299 Y47.867
G1 F1200 X95.299 Y47.300 E673.72747
G1 X133.239 Y47.300 E676.76267
G1 X143.699 Y57.760 E677.94608
G1 X143.699 Y165.240 E686.54448
G1 X133.239 Y175.700 E687.72790
G1 X124.294 Y175.700 E688.44350
G1 X124.294 Y176.266 E688.48878
G1 X86.355 Y176.266 E691.52390
G1 X75.895 Y165.806 E692.70731
G1 X75.895 Y58.327 E701.30563
G1 X86.355 Y47.867 E702.48905
G1 X95.299 Y47.867 E703.20457
G0 F9000 X94.899 Y47.467
G1 F1200 X94.899 Y46.900 E703.24993
G1 X133.404 Y46.900 E706.33033
G1 X144.099 Y57.595 E707.54033
G1 X144.099 Y165.405 E716.16513
G1 X133.404 Y176.100 E717.37513
G1 X124.694 Y176.100 E718.07193
G1 X124.694 Y176.666 E718.11721
G1 X86.190 Y176.666 E721.19753
G1 X75.495 Y165.971 E722.40753
G1 X75.495 Y58.162 E731.03225
G1 X86.190 Y47.467 E732.24225
G1 X94.899 Y47.467 E732.93897
G0 F9000 X94.499 Y47.067
G1 F1200 X94.499 Y46.500 E732.98433
G1 X133.570 Y46.500 E736.11001
G1 X144.499 Y57.429 E737.34649
G1 X144.499 Y165.571 E745.99785
G1 X133.570 Y176.500 E747.23432
G1 X125.094 Y176.500 E747.91240
G1 X125.094 Y177.066 E747.95768
G1 X86.024 Y177.066 E751.08328
G1 X75.095 Y166.137 E752.31976
G1 X75.095 Y57.996 E760.97104
G1 X86.024 Y47.067 E762.20751
G1 X94.499 Y47.067 E762.88551
G0 F9000 X94.099 Y46.667
G1 F1200 X94.099 Y46.100 E762.93087
G1 X133.736 Y46.100 E766.10183
G1 X144.899 Y57.263 E767.36478
G1 X144.899 Y165.737 E776.04270
G1 X133.736 Y176.900 E777.30565
G1 X125.494 Y176.900 E777.96501
G1 X125.494 Y177.466 E778.01029
G1 X85.858 Y177.466 E781.18117
G1 X74.695 Y166.303 E782.44412
G1 X74.695 Y57.830 E791.12196
G1 X85.858 Y46.667 E792.38491
G1 X94.099 Y46.667 E793.04419
G0 F9000 X93.699 Y46.267
G1 F1200 X93.699 Y45.700 E793.08955
G1 X133.901 Y45.700 E796.30571
G1 X145.299 Y57.098 E797.59525
G1 X145.299 Y165.902 E806.29957
G1 X133.901 Y177.300 E807.58910
G1 X125.894 Y177.300 E808.22966
G1 X125.894 Y177.866 E808.27494
G1 X85.693 Y177.866 E811.49102
G1 X74.295 Y166.468 E812.78056
G1 X74.295 Y57.665 E821.48480
G1 X85.693 Y46.267 E822.77434
G1 X93.699 Y46.267 E823.41482
G0 F9000 X93.299 Y45.867
G1 F1200 X93.299 Y45.300 E823.46018
G1 X134.067 Y45.300 E826.72162
G1 X145.699 Y56.932 E828.03763
G1 X145.699 Y166.068 E836.76851
G1 X134.067 Y177.700 E838.08452
G1 X126.294 Y177.700 E838.70636
G1 X126.294 Y178.266 E838.75164
G1 X85.527 Y178.266 E842.01300
G1 X73.895 Y166.634 E843.32901
G1 X73.895 Y57.499 E852.05981
G1 X85.527 Y45.867 E853.37582
G1 X93.299 Y45.867 E853.99758
G0 F9000 X92.899 Y45.467
G1 F1200 X92.899 Y44.900 E854.04294
G1 X134.233 Y44.900 E857.34966
G1 X146.099 Y56.766 E858.69214
G1 X146.099 Y166.234 E867.44958
G1 X134.233 Y178.100 E868.79207
G1 X126.694 Y178.100 E869.39519
G1 X126.694 Y178.666 E869.44047
G1 X85.361 Y178.666 E872.74711
G1 X73.495 Y166.800 E874.08959
G1 X73.495 Y57.333 E882.84695
G1 X85.361 Y45.467 E884.18944
G1 X92.899 Y45.467 E884.79248
G0 F9000 X92.499 Y45.067
G1 F1200 X92.499 Y44.500 E884.83784
G1 X134.398 Y44.500 E888.18976
G1 X146.499 Y56.601 E889.55883
G1 X146.499 Y166.399 E898.34267
G1 X134.398 Y178.500 E899.71174
G1 X127.094 Y178.500 E900.29606
G1 X127.094 Y179.066 E900.34134
G1 X85.196 Y179.066 E903.69318
G1 X73.095 Y166.965 E905.06225
G1 X73.095 Y57.168 E913.84601
G1 X85.196 Y45.067 E915.21508
G1 X92.499 Y45.067 E915.79932
G0 F9000 X92.099 Y44.667
G1 F1200 X92.099 Y44.100 E915.84468
G1 X134.564 Y44.100 E919.24188
G1 X146.899 Y56.435 E920.63743
G1 X146.899 Y166.565 E929.44783
G1 X134.564 Y178.900 E930.84338
G1 X127.494 Y178.900 E931.40898
G1 X127.494 Y179.466 E931.45426
G1 X85.030 Y179.466 E934.85138
G1 X72.695 Y167.131 E936.24692
G1 X72.695 Y57.002 E945.05724
G1 X85.030 Y44.667 E946.45279
G1 X92.099 Y44.667 E947.01831
G0 F9000 X91.699 Y44.267
G1 F1200 X91.699 Y43.700 E947.06367
G1 X134.730 Y43.700 E950.50615
G1 X147.299 Y56.269 E951.92817
G1 X147.299 Y166.731 E960.76513
G1 X134.730 Y179.300 E962.18715
G1 X127.894 Y179.300 E962.73403
G1 X127.894 Y179.866 E962.77931
G1 X84.864 Y179.866 E966.22171
G1 X72.295 Y167.297 E967.64373
G1 X72.295 Y56.836 E976.48061
G1 X84.864 Y44.267 E977.90263
G1 X91.699 Y44.267 E978.44943
G10
G0 F9000 X92.095 Y53.067
;TYPE:WALL-INNER
G11
G1 F1200 X92.095 Y160.066 E987.00935
G1 X119.094 Y160.066 E989.16927
G1 X119.094 Y171.066 E990.04927
G1 X88.509 Y171.066 E992.49607
G1 X81.095 Y163.652 E993.33487
G1 X81.095 Y60.481 E1001.58855
G1 X88.509 Y53.067 E1002.42734
G1 X92.095 Y53.067 E1002.71422
G0 F9000 X88.345 Y84.267
G1 F1200 X87.595 Y84.168 E1002.77474
G1 X86.845 Y84.267 E1002.83526
G1 X86.145 Y84.557 E1002.89588
G1 X85.546 Y85.018 E1002.95635
G1 X85.085 Y85.617 E1003.01682
G1 X84.795 Y86.317 E1003.07743
G1 X84.696 Y87.067 E1003.13795
G1 X84.795 Y87.817 E1003.19847
G1 X85.085 Y88.517 E1003.25909
G1 X85.546 Y89.116 E1003.31956
G1 X86.145 Y89.577 E1003.38003
G1 X86.845 Y89.867 E1003.44064
G1 X87.595 Y89.966 E1003.50116
G1 X88.345 Y89.867 E1003.56168
G1 X89.045 Y89.577 E1003.62230
G1 X89.644 Y89.116 E1003.68277
G1 X90.105 Y88.517 E1003.74324
G1 X90.395 Y87.817 E1003.80385
G1 X90.494 Y87.067 E1003.86437
G1 X90.395 Y86.317 E1003.92489
G1 X90.105 Y85.617 E1003.98551
G1 X89.644 Y85.018 E1004.04598
G1 X89.045 Y84.557 E1004.10645
G1 X88.345 Y84.267 E1004.16706
G0 F9000 X90.004 Y86.423
G0 X89.754 Y88.314
G0 X87.595 Y109.168
G1 F1200 X86.845 Y109.267 E1004.22758
G1 X86.146 Y109.557 E1004.28812
G1 X85.546 Y110.017 E1004.34861
G1 X85.085 Y110.617 E1004.40914
G1 X84.795 Y111.316 E1004.46968
G1 X84.696 Y112.066 E1004.53020
G1 X84.795 Y112.816 E1004.59072
G1 X85.085 Y113.516 E1004.65134
G1 X85.546 Y114.115 E1004.71181
G1 X86.145 Y114.576 E1004.77227
G1 X86.845 Y114.866 E1004.83289
G1 X87.595 Y114.965 E1004.89341
G1 X88.345 Y114.866 E1004.95393
G1 X89.045 Y114.576 E1005.01455
G1 X89.644 Y114.115 E1005.07501
G1 X90.105 Y113.516 E1005.13548
G1 X90.395 Y112.816 E1005.19610
G1 X90.494 Y112.066 E1005.25662
G1 X90.395 Y111.316 E1005.31714
G1 X90.105 Y110.617 E1005.37768
G1 X89.644 Y110.017 E1005.43821
G1 X89.044 Y109.557 E1005.49870
G1 X88.345 Y109.267 E1005.55924
G1 X87.595 Y109.168 E1005.61976
G0 F9000 X87.595 Y134.167
G1 F1200 X86.845 Y134.266 E1005.68028
G1 X86.145 Y134.556 E1005.74089
G1 X85.546 Y135.017 E1005.80136
G1 X85.085 Y135.616 E1005.86183
G1 X84.795 Y136.316 E1005.92245
G1 X84.696 Y137.066 E1005.98297
G1 X84.795 Y137.816 E1006.04349
G1 X85.085 Y138.516 E1006.10410
G1 X85.546 Y139.115 E1006.16457
G1 X86.145 Y139.576 E1006.22504
G1 X86.845 Y139.866 E1006.28566
G1 X87.595 Y139.965 E1006.34618
G1 X88.345 Y139.866 E1006.40670
G1 X89.045 Y139.576 E1006.46731
G1 X89.644 Y139.115 E1006.52778
G1 X90.105 Y138.516 E1006.58825
G1 X90.395 Y137.816 E1006.64887
G1 X90.494 Y137.066 E1006.70939
G1 X90.395 Y136.316 E1006.76991
G1 X90.105 Y135.616 E1006.83052
G1 X89.644 Y135.017 E1006.89099
G1 X89.045 Y134.556 E1006.95146
G1 X88.345 Y134.266 E1007.01208
G1 X87.595 Y134.167 E1007.07260
G0 F9000 X89.754 Y135.819
G0 X90.004 Y137.710
G0 X92.554 Y159.607
G0 X103.645 Y162.056
G1 F1200 X103.046 Y162.517 E1007.13306
G1 X102.585 Y163.116 E1007.19353
G1 X102.295 Y163.816 E1007.25415
G1 X102.196 Y164.566 E1007.31467
G1 X102.295 Y165.316 E1007.37519
G1 X102.585 Y166.016 E1007.43581
G1 X103.046 Y166.615 E1007.49627
G1 X103.645 Y167.076 E1007.55674
G1 X104.345 Y167.366 E1007.61736
G1 X105.095 Y167.465 E1007.67788
G1 X105.845 Y167.366 E1007.73840
G1 X106.545 Y167.076 E1007.79901
G1 X107.144 Y166.615 E1007.85948
G1 X107.605 Y166.016 E1007.91995
G1 X107.895 Y165.316 E1007.98057
G1 X107.994 Y164.566 E1008.04109
G1 X107.895 Y163.816 E1008.10161
G1 X107.605 Y163.116 E1008.16222
G1 X107.144 Y162.517 E1008.22269
G1 X106.545 Y162.056 E1008.28316
G1 X105.845 Y161.766 E1008.34378
G1 X105.095 Y161.667 E1008.40430
G1 X104.345 Y161.766 E1008.46482
G1 X103.645 Y162.056 E1008.52543
G0 F9000 X103.847 Y162.405
G1 F1200 X103.331 Y162.802 E1008.57752
G1 X102.934 Y163.318 E1008.62960
G1 X102.684 Y163.921 E1008.68182
G1 X102.600 Y164.566 E1008.73386
G1 X102.684 Y165.211 E1008.78589
G1 X102.934 Y165.814 E1008.83812
G1 X103.331 Y166.330 E1008.89020
G1 X103.847 Y166.727 E1008.94228
G1 X104.450 Y166.977 E1008.99451
G1 X105.095 Y167.061 E1009.04654
G1 X105.740 Y166.977 E1009.09858
G1 X106.343 Y166.727 E1009.15080
G1 X106.859 Y166.330 E1009.20288
G1 X107.256 Y165.814 E1009.25497
G1 X107.506 Y165.211 E1009.30719
G1 X107.590 Y164.566 E1009.35922
G1 X107.506 Y163.921 E1009.41126
G1 X107.256 Y163.318 E1009.46348
G1 X106.859 Y162.802 E1009.51557
G1 X106.343 Y162.405 E1009.56765
G1 X105.740 Y162.155 E1009.61987
G1 X105.095 Y162.071 E1009.67191
G1 X104.450 Y162.155 E1009.72394
G1 X103.847 Y162.405 E1009.77616
G0 F9000 X92.495 Y159.666
G1 F1200 X119.494 Y159.666 E1011.93608
G1 X119.494 Y171.466 E1012.88008
G1 X88.343 Y171.466 E1015.37216
G1 X80.695 Y163.818 E1016.23744
G1 X80.695 Y60.315 E1024.51768
G1 X88.343 Y52.667 E1025.38295
G1 X92.495 Y52.667 E1025.71511
