;FLAVOR:UltiGCode
;TIME:8721
;MATERIAL:24038
;MATERIAL2:0
;NOZZLE_DIAMETER:0.400000
;NOZZLE_DIAMETER2:0.400000

;Layer count: 112
;LAYER:0
M107
G0 F9000 X110.699 Y105.016 Z0.200
;TYPE:SKIRT
G1 F1200 X110.699 Y117.984 E1.03744
G1 X112.301 Y117.984 E1.16560
G1 X112.301 Y105.016 E2.20304
G1 X110.699 Y105.016 E2.33120
G0 F9000 X110.299 Y104.616
G1 F1200 X110.299 Y118.384 E3.43264
G1 X112.701 Y118.384 E3.62480
G1 X112.701 Y104.616 E4.72624
G1 X110.299 Y104.616 E4.91840
G0 F9000 X109.899 Y104.216
G1 F1200 X109.899 Y118.784 E6.08384
G1 X113.101 Y118.784 E6.34000
G1 X113.101 Y104.216 E7.50544
G1 X109.899 Y104.216 E7.76160
G0 F9000 X109.499 Y103.816
G1 F1200 X109.499 Y119.184 E8.99104
G1 X113.501 Y119.184 E9.31120
G1 X113.501 Y103.816 E10.54064
G1 X109.499 Y103.816 E10.86080
G0 F9000 X109.099 Y103.416
G1 F1200 X109.099 Y119.584 E12.15424
G1 X113.901 Y119.584 E12.53840
G1 X113.901 Y103.416 E13.83184
G1 X109.099 Y103.416 E14.21600
G0 F9000 X108.699 Y103.016
G1 F1200 X108.699 Y119.984 E15.57344
G1 X114.301 Y119.984 E16.02160
G1 X114.301 Y103.016 E17.37904
G1 X108.699 Y103.016 E17.82720
G0 F9000 X108.299 Y102.616
G1 F1200 X108.299 Y120.384 E19.24864
G1 X114.701 Y120.384 E19.76080
G1 X114.701 Y102.616 E21.18224
G1 X108.299 Y102.616 E21.69440
G0 F9000 X108.074 Y102.216
G1 F1200 X108.059 Y87.379 E22.88136
G1 X108.088 Y82.216 E23.29441
G1 X159.892 Y82.216 E27.43873
G1 X159.894 Y97.055 E28.62585
G1 X159.865 Y102.216 E29.03873
G1 X152.851 Y102.216 E29.59985
G1 X152.851 Y141.465 E32.73977
G1 X129.790 Y141.465 E34.58465
G1 X128.422 Y141.443 E34.69411
G1 X126.692 Y141.224 E34.83361
G1 X124.961 Y140.781 E34.97656
G1 X123.296 Y140.125 E35.11972
G1 X121.726 Y139.264 E35.26297
G1 X120.276 Y138.213 E35.40624
G1 X118.967 Y136.988 E35.54966
G1 X117.815 Y135.597 E35.69415
G1 X116.856 Y134.084 E35.83745
G1 X116.093 Y132.466 E35.98056
G1 X115.540 Y130.763 E36.12381
G1 X115.204 Y129.004 E36.26707
G1 X115.101 Y127.372 E36.39789
G1 X115.101 Y102.216 E38.41037
G1 X108.074 Y102.216 E38.97253
G0 F9000 X108.474 Y101.816
G1 F1200 X108.459 Y87.380 E40.12741
G1 X108.486 Y82.616 E40.50854
G1 X159.493 Y82.616 E44.58910
G1 X159.494 Y97.054 E45.74414
G1 X159.467 Y101.816 E46.12510
G1 X152.451 Y101.816 E46.68638
G1 X152.451 Y141.065 E49.82630
G1 X129.793 Y141.065 E51.63894
G1 X128.451 Y141.043 E51.74632
G1 X126.767 Y140.831 E51.88210
G1 X125.085 Y140.400 E52.02101
G1 X123.466 Y139.762 E52.16022
G1 X121.940 Y138.926 E52.29942
G1 X120.531 Y137.904 E52.43867
G1 X119.259 Y136.714 E52.57802
G1 X118.139 Y135.362 E52.71847
G1 X117.207 Y133.891 E52.85778
G1 X116.466 Y132.318 E52.99689
G1 X115.928 Y130.663 E53.13611
G1 X115.601 Y128.953 E53.27539
G1 X115.501 Y127.360 E53.40308
G1 X115.501 Y101.816 E55.44660
G1 X108.474 Y101.816 E56.00876
G0 F9000 X108.873 Y101.416
G1 F1200 X108.859 Y87.381 E57.13156
G1 X108.884 Y83.016 E57.48076
G1 X159.093 Y83.016 E61.49748
G1 X159.094 Y97.053 E62.62044
G1 X159.069 Y101.416 E62.96949
G1 X152.051 Y101.416 E63.53093
G1 X152.051 Y140.665 E66.67085
G1 X129.796 Y140.665 E68.45125
G1 X128.479 Y140.644 E68.55662
G1 X126.842 Y140.437 E68.68863
G1 X125.208 Y140.019 E68.82355
G1 X123.637 Y139.399 E68.95867
G1 X122.154 Y138.587 E69.09393
G1 X120.786 Y137.595 E69.22911
G1 X119.551 Y136.439 E69.36444
G1 X118.464 Y135.126 E69.50081
G1 X117.558 Y133.698 E69.63610
G1 X116.839 Y132.170 E69.77120
G1 X116.316 Y130.564 E69.90632
G1 X115.999 Y128.903 E70.04160
G1 X115.901 Y127.347 E70.16632
G1 X115.901 Y101.416 E72.24080
G1 X108.873 Y101.416 E72.80304
G0 F9000 X109.273 Y101.016
G1 F1200 X109.259 Y87.382 E73.89376
G1 X109.282 Y83.416 E74.21105
G1 X158.693 Y83.416 E78.16393
G1 X158.694 Y97.052 E79.25481
G1 X158.671 Y101.016 E79.57193
G1 X151.651 Y101.016 E80.13353
G1 X151.651 Y140.265 E83.27345
G1 X129.799 Y140.265 E85.02161
G1 X128.507 Y140.244 E85.12499
G1 X126.917 Y140.043 E85.25320
G1 X125.332 Y139.637 E85.38409
G1 X123.807 Y139.036 E85.51523
G1 X122.369 Y138.248 E85.64641
G1 X121.041 Y137.286 E85.77759
G1 X119.843 Y136.164 E85.90890
G1 X118.788 Y134.890 E86.04123
G1 X117.909 Y133.505 E86.17246
G1 X117.211 Y132.023 E86.30351
G1 X116.704 Y130.464 E86.43466
G1 X116.397 Y128.853 E86.56586
G1 X116.301 Y127.334 E86.68763
G1 X116.301 Y101.016 E88.79307
G1 X109.273 Y101.016 E89.35531
G0 F9000 X109.672 Y100.616
G1 F1200 X109.659 Y87.383 E90.41395
G1 X109.679 Y83.816 E90.69931
G1 X158.293 Y83.816 E94.58843
G1 X158.294 Y97.051 E95.64723
G1 X158.274 Y100.616 E95.93244
G1 X151.251 Y100.616 E96.49428
G1 X151.251 Y139.865 E99.63420
G1 X129.803 Y139.865 E101.35004
G1 X128.536 Y139.845 E101.45141
G1 X126.992 Y139.650 E101.57591
G1 X125.455 Y139.256 E101.70284
G1 X123.977 Y138.674 E101.82992
G1 X122.583 Y137.910 E101.95709
G1 X121.296 Y136.977 E102.08426
G1 X120.135 Y135.890 E102.21150
G1 X119.112 Y134.655 E102.33979
G1 X118.261 Y133.312 E102.46698
G1 X117.584 Y131.875 E102.59406
G1 X117.093 Y130.364 E102.72116
G1 X116.794 Y128.802 E102.84839
G1 X116.701 Y127.322 E102.96703
G1 X116.701 Y100.616 E105.10351
G1 X109.672 Y100.616 E105.66583
G0 F9000 X110.072 Y100.216
G1 F1200 X110.059 Y87.384 E106.69239
G1 X110.077 Y84.216 E106.94583
G1 X157.893 Y84.216 E110.77111
G1 X157.894 Y97.049 E111.79775
G1 X157.876 Y100.216 E112.05112
G1 X150.851 Y100.216 E112.61312
G1 X150.851 Y139.465 E115.75304
G1 X129.806 Y139.465 E117.43664
G1 X128.564 Y139.445 E117.53601
G1 X127.067 Y139.256 E117.65672
G1 X125.578 Y138.875 E117.77968
G1 X124.147 Y138.311 E117.90273
G1 X122.797 Y137.571 E118.02589
G1 X121.551 Y136.668 E118.14899
G1 X120.427 Y135.615 E118.27221
G1 X119.436 Y134.419 E118.39647
G1 X118.612 Y133.119 E118.51960
G1 X117.956 Y131.727 E118.64270
G1 X117.481 Y130.264 E118.76576
G1 X117.192 Y128.752 E118.88891
G1 X117.101 Y127.309 E119.00458
G1 X117.101 Y100.216 E121.17202
G1 X110.072 Y100.216 E121.73434
G0 F9000 X110.472 Y99.816
G1 F1200 X110.459 Y87.385 E122.72882
G1 X110.475 Y84.616 E122.95034
G1 X157.493 Y84.616 E126.71178
G1 X157.494 Y97.048 E127.70634
G1 X157.478 Y99.816 E127.92779
G1 X150.451 Y99.816 E128.48995
G1 X150.451 Y139.065 E131.62987
G1 X129.809 Y139.065 E133.28123
G1 X128.593 Y139.045 E133.37852
G1 X127.142 Y138.862 E133.49552
G1 X125.702 Y138.493 E133.61444
G1 X124.317 Y137.948 E133.73351
G1 X123.012 Y137.232 E133.85259
G1 X121.806 Y136.358 E133.97174
G1 X120.719 Y135.340 E134.09088
G1 X119.761 Y134.184 E134.21099
G1 X118.963 Y132.926 E134.33017
G1 X118.329 Y131.580 E134.44920
G1 X117.869 Y130.165 E134.56823
G1 X117.589 Y128.702 E134.68740
G1 X117.501 Y127.297 E134.80002
G1 X117.501 Y99.816 E136.99850
G1 X110.472 Y99.816 E137.56082
G0 F9000 X110.871 Y99.416
G1 F1200 X110.859 Y87.386 E138.52322
G1 X110.873 Y85.016 E138.71282
G1 X157.093 Y85.016 E142.41042
G1 X157.094 Y97.047 E143.37290
G1 X157.080 Y99.416 E143.56242
G1 X150.051 Y99.416 E144.12474
G1 X150.051 Y138.665 E147.26466
G1 X129.812 Y138.665 E148.88378
G1 X128.621 Y138.646 E148.97908
G1 X127.217 Y138.468 E149.09230
G1 X125.825 Y138.112 E149.20724
G1 X124.487 Y137.585 E149.32228
G1 X123.226 Y136.894 E149.43732
G1 X122.061 Y136.049 E149.55245
G1 X121.011 Y135.066 E149.66752
G1 X120.085 Y133.948 E149.78365
G1 X119.314 Y132.733 E149.89877
G1 X118.702 Y131.432 E150.01379
G1 X118.257 Y130.065 E150.12880
G1 X117.987 Y128.652 E150.24389
G1 X117.901 Y127.284 E150.35354
G1 X117.901 Y99.416 E152.58298
G1 X110.871 Y99.416 E153.14538
G0 F9000 X111.271 Y99.016
G1 F1200 X111.259 Y87.387 E154.07570
G1 X111.270 Y85.416 E154.23338
G1 X156.693 Y85.416 E157.86722
G1 X156.694 Y97.046 E158.79762
G1 X156.683 Y99.016 E158.95523
G1 X149.651 Y99.016 E159.51779
G1 X149.651 Y138.265 E162.65771
G1 X129.815 Y138.265 E164.24459
G1 X128.649 Y138.246 E164.33788
G1 X127.292 Y138.075 E164.44730
G1 X125.949 Y137.731 E164.55821
G1 X124.657 Y137.222 E164.66930
G1 X123.440 Y136.555 E164.78032
G1 X122.316 Y135.740 E164.89139
G1 X121.303 Y134.791 E165.00244
G1 X120.409 Y133.712 E165.11454
G1 X119.666 Y132.540 E165.22555
G1 X119.074 Y131.284 E165.33663
G1 X118.645 Y129.965 E165.44759
G1 X118.385 Y128.601 E165.55868
G1 X118.301 Y127.272 E165.66521
G1 X118.301 Y99.016 E167.92569
G1 X111.271 Y99.016 E168.48809
G0 F9000 X111.670 Y98.616
G1 F1200 X111.659 Y87.388 E169.38633
G1 X111.668 Y85.816 E169.51209
G1 X156.293 Y85.816 E173.08209
G1 X156.294 Y97.045 E173.98041
G1 X156.285 Y98.616 E174.10610
G1 X149.251 Y98.616 E174.66882
G1 X149.251 Y127.115 E176.94874
G1 X132.422 Y127.115 E178.29506
G1 X131.841 Y125.835 E178.40751
G1 X131.656 Y125.542 E178.43523
G1 X131.429 Y125.269 E178.46364
G1 X131.167 Y125.023 E178.49239
G1 X130.884 Y124.816 E178.52044
G1 X130.562 Y124.639 E178.54983
G1 X130.237 Y124.509 E178.57784
G1 X129.889 Y124.420 E178.60657
G1 X129.533 Y124.375 E178.63528
G1 X129.177 Y124.374 E178.66376
G1 X128.812 Y124.419 E178.69318
G1 X128.480 Y124.504 E178.72060
G1 X128.143 Y124.638 E178.74961
G1 X127.828 Y124.810 E178.77832
G1 X127.541 Y125.018 E178.80668
G1 X127.277 Y125.265 E178.83560
G1 X127.048 Y125.542 E178.86435
G1 X126.856 Y125.844 E178.89298
G1 X126.704 Y126.168 E178.92161
G1 X126.594 Y126.506 E178.95005
G1 X126.526 Y126.859 E178.97881
G1 X126.504 Y127.215 E179.00734
G1 X126.526 Y127.572 E179.03595
G1 X126.593 Y127.919 E179.06423
G1 X126.706 Y128.268 E179.09357
G1 X126.854 Y128.583 E179.12142
G1 X127.050 Y128.891 E179.15062
G1 X127.276 Y129.165 E179.17904
G1 X127.534 Y129.407 E179.20734
G1 X127.824 Y129.618 E179.23603
G1 X128.134 Y129.789 E179.26435
G1 X128.466 Y129.921 E179.29293
G1 X128.813 Y130.010 E179.32159
G1 X129.174 Y130.056 E179.35070
G1 X129.530 Y130.057 E179.37918
G1 X129.885 Y130.012 E179.40781
G1 X130.223 Y129.926 E179.43571
G1 X130.563 Y129.792 E179.46495
G1 X130.876 Y129.621 E179.49348
G1 X131.164 Y129.411 E179.52200
G1 X131.422 Y129.170 E179.55024
G1 X131.653 Y128.891 E179.57922
G1 X131.849 Y128.583 E179.60843
G1 X131.998 Y128.265 E179.63652
G1 X132.305 Y127.315 E179.71639
G1 X149.251 Y127.315 E181.07207
G1 X149.251 Y137.865 E181.91607
G1 X129.819 Y137.865 E183.47063
G1 X128.678 Y137.847 E183.56192
G1 X127.367 Y137.681 E183.66764
G1 X126.072 Y137.350 E183.77457
G1 X124.828 Y136.859 E183.88156
G1 X123.655 Y136.216 E183.98857
G1 X122.571 Y135.431 E184.09565
G1 X121.594 Y134.516 E184.20273
G1 X120.733 Y133.477 E184.31068
G1 X120.017 Y132.347 E184.41770
G1 X119.447 Y131.137 E184.52470
G1 X119.033 Y129.865 E184.63172
G1 X118.782 Y128.551 E184.73874
G1 X118.701 Y127.259 E184.84230
G1 X118.701 Y98.616 E187.13374
G1 X111.670 Y98.616 E187.69622
G0 F9000 X112.070 Y98.216
G1 F1200 X112.059 Y87.389 E188.56238
G1 X112.066 Y86.216 E188.65622
G1 X155.893 Y86.216 E192.16238
G1 X155.894 Y97.044 E193.02862
G1 X155.887 Y98.216 E193.12238
G1 X148.851 Y98.216 E193.68526
G1 X148.851 Y126.715 E195.96518
G1 X132.679 Y126.715 E197.25894
G1 X132.195 Y125.647 E197.35275
G1 X131.976 Y125.302 E197.38544
G1 X131.718 Y124.990 E197.41783
G1 X131.425 Y124.716 E197.44992
G1 X131.096 Y124.476 E197.48250
G1 X130.741 Y124.281 E197.51490
G1 X130.353 Y124.125 E197.54836
G1 X129.968 Y124.026 E197.58016
G1 X129.560 Y123.975 E197.61305
G1 X129.154 Y123.974 E197.64553
G1 X128.742 Y124.025 E197.67874
G1 X128.350 Y124.125 E197.71111
G1 X127.974 Y124.274 E197.74347
G1 X127.618 Y124.468 E197.77590
G1 X127.280 Y124.714 E197.80934
G1 X126.988 Y124.987 E197.84132
G1 X126.727 Y125.302 E197.87405
G1 X126.502 Y125.656 E197.90760
G1 X126.332 Y126.019 E197.93967
G1 X126.205 Y126.409 E197.97248
G1 X126.129 Y126.806 E198.00482
G1 X126.103 Y127.215 E198.03761
G1 X126.129 Y127.625 E198.07047
G1 X126.205 Y128.021 E198.10273
G1 X126.332 Y128.412 E198.13562
G1 X126.505 Y128.780 E198.16815
G1 X126.725 Y129.127 E198.20102
G1 X126.982 Y129.438 E198.23330
G1 X127.272 Y129.710 E198.26510
G1 X127.616 Y129.961 E198.29917
G1 X127.962 Y130.151 E198.33075
G1 X128.344 Y130.303 E198.36364
G1 X128.734 Y130.403 E198.39585
G1 X129.146 Y130.456 E198.42908
G1 X129.556 Y130.457 E198.46188
G1 X129.955 Y130.407 E198.49405
G1 X130.350 Y130.306 E198.52667
G1 X130.734 Y130.155 E198.55968
G1 X131.086 Y129.962 E198.59179
G1 X131.421 Y129.718 E198.62495
G1 X131.715 Y129.444 E198.65710
G1 X131.981 Y129.122 E198.69051
G1 X132.198 Y128.780 E198.72291
G1 X132.370 Y128.415 E198.75519
G1 X132.596 Y127.715 E198.81404
G1 X148.851 Y127.715 E200.11444
G1 X148.851 Y137.465 E200.89444
G1 X129.822 Y137.465 E202.41676
G1 X128.706 Y137.447 E202.50605
G1 X127.442 Y137.287 E202.60798
G1 X126.195 Y136.968 E202.71095
G1 X124.998 Y136.496 E202.81389
G1 X123.869 Y135.878 E202.91685
G1 X122.826 Y135.122 E203.01991
G1 X121.886 Y134.242 E203.12292
G1 X121.057 Y133.241 E203.22689
G1 X120.368 Y132.154 E203.32985
G1 X119.819 Y130.989 E203.43288
G1 X119.422 Y129.765 E203.53582
G1 X119.180 Y128.501 E203.63878
G1 X119.101 Y127.246 E203.73938
G1 X119.101 Y98.216 E206.06178
G1 X112.070 Y98.216 E206.62426
G0 F9000 X112.470 Y97.816
G1 F1200 X112.459 Y87.390 E207.45834
G1 X112.463 Y86.616 E207.52026
G1 X155.493 Y86.616 E210.96266
G1 X155.494 Y97.043 E211.79682
G1 X155.490 Y97.816 E211.85866
G1 X148.451 Y97.816 E212.42178
G1 X148.451 Y126.315 E214.70170
G1 X132.937 Y126.315 E215.94282
G1 X132.548 Y125.456 E216.01826
G1 X132.301 Y125.066 E216.05519
G1 X132.015 Y124.721 E216.09104
G1 X131.679 Y124.406 E216.12788
G1 X131.314 Y124.139 E216.16406
G1 X130.905 Y123.914 E216.20141
G1 X130.485 Y123.747 E216.23757
G1 X130.040 Y123.632 E216.27434
G1 X129.587 Y123.575 E216.31086
G1 X129.130 Y123.574 E216.34742
G1 X128.664 Y123.631 E216.38498
G1 X128.233 Y123.741 E216.42056
G1 X127.799 Y123.914 E216.45794
G1 X127.403 Y124.130 E216.49403
G1 X127.028 Y124.402 E216.53109
G1 X126.696 Y124.713 E216.56748
G1 X126.399 Y125.071 E216.60469
G1 X126.153 Y125.459 E216.64145
G1 X125.961 Y125.868 E216.67759
G1 X125.815 Y126.315 E216.71521
G1 X125.732 Y126.753 E216.75088
G1 X125.702 Y127.215 E216.78791
G1 X125.732 Y127.678 E216.82503
G1 X125.815 Y128.115 E216.86062
G1 X125.960 Y128.561 E216.89813
G1 X126.154 Y128.974 E216.93464
G1 X126.397 Y129.357 E216.97093
G1 X126.691 Y129.713 E217.00786
G1 X127.019 Y130.020 E217.04380
G1 X127.396 Y130.296 E217.08118
G1 X127.793 Y130.514 E217.11741
G1 X128.222 Y130.684 E217.15433
G1 X128.663 Y130.798 E217.19077
G1 X129.118 Y130.856 E217.22746
G1 X129.582 Y130.857 E217.26458
G1 X130.031 Y130.801 E217.30078
G1 X130.470 Y130.689 E217.33703
G1 X130.904 Y130.517 E217.37438
G1 X131.301 Y130.300 E217.41057
G1 X131.673 Y130.030 E217.44734
G1 X132.012 Y129.713 E217.48447
G1 X132.303 Y129.362 E217.52095
G1 X132.549 Y128.974 E217.55770
G1 X132.744 Y128.560 E217.59431
G1 X132.887 Y128.115 E217.63170
G1 X148.451 Y128.115 E218.87682
G1 X148.451 Y137.065 E219.59282
G1 X129.825 Y137.065 E221.08290
G1 X128.734 Y137.047 E221.17020
G1 X127.517 Y136.894 E221.26832
G1 X126.319 Y136.587 E221.36726
G1 X125.168 Y136.133 E221.46624
G1 X124.083 Y135.539 E221.56520
G1 X123.081 Y134.813 E221.66419
G1 X122.178 Y133.967 E221.76318
G1 X121.382 Y133.005 E221.86307
G1 X120.719 Y131.961 E221.96201
G1 X120.192 Y130.841 E222.06103
G1 X119.810 Y129.666 E222.15987
G1 X119.578 Y128.450 E222.25891
G1 X119.501 Y127.234 E222.35638
G1 X119.501 Y97.816 E224.70982
G1 X112.470 Y97.816 E225.27230
G0 F9000 X112.869 Y97.416
G1 F1200 X112.859 Y87.391 E226.07430
G1 X112.861 Y87.016 E226.10430
G1 X155.093 Y87.016 E229.48286
G1 X155.094 Y97.042 E230.28494
G1 X155.092 Y97.416 E230.31487
G1 X148.051 Y97.416 E230.87815
G1 X148.051 Y125.915 E233.15807
G1 X133.195 Y125.915 E234.34655
G1 X132.900 Y125.263 E234.40380
G1 X132.626 Y124.832 E234.44465
G1 X132.307 Y124.447 E234.48465
G1 X131.932 Y124.096 E234.52574
G1 X131.525 Y123.799 E234.56605
G1 X131.085 Y123.556 E234.60626
G1 X130.609 Y123.366 E234.64726
G1 X130.109 Y123.238 E234.68855
G1 X129.614 Y123.175 E234.72847
G1 X129.106 Y123.174 E234.76911
G1 X128.594 Y123.237 E234.81038
G1 X128.106 Y123.362 E234.85068
G1 X127.628 Y123.551 E234.89180
G1 X127.188 Y123.792 E234.93194
G1 X126.776 Y124.091 E234.97266
G1 X126.403 Y124.439 E235.01347
G1 X126.074 Y124.836 E235.05472
G1 X125.802 Y125.265 E235.09536
G1 X125.586 Y125.726 E235.13609
G1 X125.428 Y126.211 E235.17689
G1 X125.335 Y126.701 E235.21679
G1 X125.302 Y127.215 E235.25800
G1 X125.335 Y127.730 E235.29928
G1 X125.428 Y128.219 E235.33910
G1 X125.586 Y128.706 E235.38006
