;FLAVOR:UltiGCode
;TIME:3716
;MATERIAL:8796
;MATERIAL2:0
;NOZZLE_DIAMETER:0.400000
;NOZZLE_DIAMETER2:0.400000

;Layer count: 41
;LAYER:0
M107
G0 F9000 X81.510 Y87.069 Z0.200
;TYPE:SKIRT
G1 F1200 X82.859 Y86.057 E0.13491
G1 X84.341 Y85.249 E0.26995
G1 X85.919 Y84.659 E0.40472
G1 X87.567 Y84.301 E0.53964
G1 X88.969 Y84.200 E0.65209
G1 X106.277 Y84.200 E2.03673
G1 X107.666 Y84.299 E2.14813
G1 X109.312 Y84.653 E2.28282
G1 X110.892 Y85.241 E2.41769
G1 X111.499 Y85.571 E2.47296
G1 X112.090 Y85.249 E2.52681
G1 X113.668 Y84.659 E2.66158
G1 X115.317 Y84.301 E2.79657
G1 X116.720 Y84.200 E2.90910
G1 X134.027 Y84.200 E4.29366
G1 X135.416 Y84.299 E4.40507
G1 X137.061 Y84.653 E4.53968
G1 X138.641 Y85.241 E4.67455
G1 X140.121 Y86.045 E4.80929
G1 X141.477 Y87.057 E4.94465
G1 X142.668 Y88.245 E5.07923
G1 X143.681 Y89.592 E5.21406
G1 X144.491 Y91.070 E5.34889
G1 X145.084 Y92.650 E5.48390
G1 X145.445 Y94.297 E5.61879
G1 X145.549 Y95.704 E5.73166
G1 X145.550 Y98.962 E5.99230
G1 X145.550 Y99.277 E6.01750
G1 X145.451 Y100.666 E6.12890
G1 X145.097 Y102.312 E6.26359
G1 X144.509 Y103.892 E6.39846
G1 X144.179 Y104.500 E6.45380
G1 X144.491 Y105.070 E6.50579
G1 X145.084 Y106.650 E6.64080
G1 X145.445 Y108.297 E6.77568
G1 X145.549 Y109.704 E6.88855
G1 X145.550 Y112.962 E7.14919
G1 X145.550 Y113.277 E7.17439
G1 X145.451 Y114.666 E7.28579
G1 X145.097 Y116.311 E7.42040
G1 X144.509 Y117.891 E7.55527
G1 X144.179 Y118.499 E7.61062
G1 X144.491 Y119.069 E7.66260
G1 X145.084 Y120.649 E7.79761
G1 X145.445 Y122.296 E7.93250
G1 X145.549 Y123.705 E8.04552
G1 X145.550 Y126.962 E8.30608
G1 X145.550 Y127.277 E8.33128
G1 X145.451 Y128.666 E8.44269
G1 X145.097 Y130.311 E8.57730
G1 X144.509 Y131.891 E8.71217
G1 X143.705 Y133.371 E8.84691
G1 X142.693 Y134.727 E8.98227
G1 X141.505 Y135.918 E9.11685
G1 X140.158 Y136.931 E9.25168
G1 X138.675 Y137.744 E9.38698
G1 X137.101 Y138.332 E9.52140
G1 X135.460 Y138.695 E9.65585
G1 X134.045 Y138.799 E9.76936
G1 X129.557 Y138.800 E10.12840
G1 X116.720 Y138.800 E11.15536
G1 X115.310 Y138.699 E11.26845
G1 X113.668 Y138.339 E11.40293
G1 X112.096 Y137.754 E11.53711
G1 X111.500 Y137.429 E11.59142
G1 X110.926 Y137.744 E11.64380
G1 X109.352 Y138.332 E11.77822
G1 X107.710 Y138.695 E11.91275
G1 X106.295 Y138.799 E12.02626
G1 X101.808 Y138.800 E12.38522
G1 X88.969 Y138.800 E13.41234
G1 X87.560 Y138.698 E13.52535
G1 X85.919 Y138.339 E13.65974
G1 X84.347 Y137.754 E13.79392
G1 X82.859 Y136.943 E13.92950
G1 X81.510 Y135.931 E14.06441
G1 X80.316 Y134.740 E14.19932
G1 X79.306 Y133.387 E14.33440
G1 X78.498 Y131.909 E14.46915
G1 X77.911 Y130.331 E14.60384
G1 X77.552 Y128.690 E14.73823
G1 X77.450 Y127.281 E14.85124
G1 X77.450 Y123.720 E15.13612
G1 X77.551 Y122.310 E15.24921
G1 X77.911 Y120.668 E15.38369
G1 X78.498 Y119.090 E15.51838
G1 X78.821 Y118.499 E15.57226
G1 X78.498 Y117.909 E15.62607
G1 X77.911 Y116.331 E15.76077
G1 X77.552 Y114.690 E15.89515
G1 X77.450 Y113.281 E16.00817
G1 X77.450 Y109.719 E16.29313
G1 X77.552 Y108.310 E16.40614
G1 X77.911 Y106.669 E16.54052
G1 X78.498 Y105.091 E16.67522
G1 X78.821 Y104.500 E16.72910
G1 X78.498 Y103.910 E16.78291
G1 X77.911 Y102.332 E16.91760
G1 X77.551 Y100.690 E17.05208
G1 X77.450 Y99.280 E17.16517
G1 X77.450 Y95.719 E17.45005
G1 X77.552 Y94.310 E17.56306
G1 X77.911 Y92.669 E17.69745
G1 X78.498 Y91.091 E17.83214
G1 X79.306 Y89.613 E17.96689
G1 X80.316 Y88.260 E18.10197
G1 X81.510 Y87.069 E18.23688
G0 F9000 X81.773 Y87.372
G1 F1200 X83.076 Y86.394 E18.36722
G1 X84.508 Y85.614 E18.49767
G1 X86.032 Y85.044 E18.62784
G1 X87.624 Y84.698 E18.75817
G1 X88.984 Y84.600 E18.86725
G1 X106.263 Y84.600 E20.24957
G1 X107.610 Y84.696 E20.35761
G1 X109.200 Y85.038 E20.48772
G1 X110.726 Y85.606 E20.61798
G1 X111.500 Y86.026 E20.68843
G1 X112.257 Y85.614 E20.75738
G1 X113.781 Y85.044 E20.88755
G1 X115.374 Y84.698 E21.01796
G1 X116.734 Y84.600 E21.12704
G1 X134.013 Y84.600 E22.50936
G1 X135.359 Y84.696 E22.61731
G1 X136.949 Y85.038 E22.74742
G1 X138.475 Y85.606 E22.87768
G1 X139.905 Y86.382 E23.00784
G1 X141.215 Y87.360 E23.13863
G1 X142.365 Y88.508 E23.26862
G1 X143.344 Y89.809 E23.39888
G1 X144.126 Y91.237 E23.52913
G1 X144.700 Y92.763 E23.65956
G1 X145.048 Y94.355 E23.78992
G1 X145.149 Y95.719 E23.89934
G1 X145.150 Y98.962 E24.15878
G1 X145.150 Y99.263 E24.18286
G1 X145.054 Y100.610 E24.29090
G1 X144.712 Y102.200 E24.42101
G1 X144.144 Y103.726 E24.55127
G1 X143.723 Y104.501 E24.62183
G1 X144.126 Y105.237 E24.68895
G1 X144.700 Y106.763 E24.81938
G1 X145.048 Y108.355 E24.94975
G1 X145.149 Y109.719 E25.05917
G1 X145.150 Y112.962 E25.31861
G1 X145.150 Y113.263 E25.34269
G1 X145.054 Y114.609 E25.45064
G1 X144.712 Y116.199 E25.58075
G1 X144.144 Y117.725 E25.71102
G1 X143.723 Y118.500 E25.78157
G1 X144.126 Y119.236 E25.84870
G1 X144.700 Y120.762 E25.97913
G1 X145.048 Y122.354 E26.10950
G1 X145.149 Y123.719 E26.21900
G1 X145.150 Y126.962 E26.47844
G1 X145.150 Y127.263 E26.50252
G1 X145.054 Y128.609 E26.61047
G1 X144.712 Y130.199 E26.74058
G1 X144.144 Y131.725 E26.87084
G1 X143.368 Y133.155 E27.00100
G1 X142.390 Y134.465 E27.13179
G1 X141.242 Y135.615 E27.26178
G1 X139.941 Y136.594 E27.39204
G1 X138.508 Y137.379 E27.52275
G1 X136.987 Y137.948 E27.65267
G1 X135.402 Y138.298 E27.78252
G1 X134.031 Y138.399 E27.89250
G1 X129.557 Y138.400 E28.25042
G1 X116.734 Y138.400 E29.27626
G1 X115.367 Y138.302 E29.38590
G1 X113.781 Y137.954 E29.51580
G1 X112.262 Y137.389 E29.64545
G1 X111.499 Y136.973 E29.71498
G1 X110.759 Y137.379 E29.78250
G1 X109.238 Y137.948 E29.91242
G1 X107.652 Y138.298 E30.04235
G1 X106.280 Y138.399 E30.15241
G1 X101.808 Y138.400 E30.51017
G1 X88.984 Y138.400 E31.53609
G1 X87.618 Y138.302 E31.64565
G1 X86.032 Y137.954 E31.77554
G1 X84.513 Y137.389 E31.90520
G1 X83.076 Y136.606 E32.03612
G1 X81.773 Y135.628 E32.16645
G1 X80.619 Y134.477 E32.29684
G1 X79.644 Y133.170 E32.42729
G1 X78.863 Y131.742 E32.55750
G1 X78.296 Y130.218 E32.68759
G1 X77.948 Y128.632 E32.81748
G1 X77.850 Y127.266 E32.92705
G1 X77.850 Y123.734 E33.20961
G1 X77.948 Y122.367 E33.31925
G1 X78.296 Y120.781 E33.44914
G1 X78.863 Y119.257 E33.57923
G1 X79.277 Y118.500 E33.64825
G1 X78.863 Y117.742 E33.71735
G1 X78.296 Y116.218 E33.84743
G1 X77.948 Y114.632 E33.97733
G1 X77.850 Y113.266 E34.08689
G1 X77.850 Y109.734 E34.36945
G1 X77.948 Y108.368 E34.47901
G1 X78.296 Y106.782 E34.60891
G1 X78.863 Y105.258 E34.73900
G1 X79.277 Y104.500 E34.80809
G1 X78.863 Y103.743 E34.87712
G1 X78.296 Y102.219 E35.00720
G1 X77.948 Y100.633 E35.13710
G1 X77.850 Y99.266 E35.24674
G1 X77.850 Y95.734 E35.52930
G1 X77.948 Y94.368 E35.63886
G1 X78.296 Y92.782 E35.76876
G1 X78.863 Y91.258 E35.89885
G1 X79.644 Y89.830 E36.02905
G1 X80.619 Y88.523 E36.15950
G1 X81.773 Y87.372 E36.28989
G0 F9000 X82.036 Y87.675
G1 F1200 X83.292 Y86.731 E36.41559
G1 X84.674 Y85.978 E36.54150
G1 X86.145 Y85.429 E36.66710
G1 X87.681 Y85.095 E36.79286
G1 X88.998 Y85.000 E36.89849
G1 X106.248 Y85.000 E38.27849
G1 X107.553 Y85.093 E38.38315
G1 X109.087 Y85.423 E38.50868
G1 X110.560 Y85.971 E38.63441
G1 X111.500 Y86.481 E38.71997
G1 X112.423 Y85.978 E38.80406
G1 X113.894 Y85.429 E38.92967
G1 X115.431 Y85.095 E39.05550
G1 X116.749 Y85.000 E39.16121
G1 X133.999 Y85.000 E40.54121
G1 X135.303 Y85.093 E40.64580
G1 X136.836 Y85.423 E40.77125
G1 X138.309 Y85.971 E40.89698
G1 X139.689 Y86.720 E41.02259
G1 X140.952 Y87.664 E41.14873
G1 X142.062 Y88.771 E41.27415
G1 X143.007 Y90.026 E41.39983
G1 X143.762 Y91.404 E41.52553
G1 X144.315 Y92.877 E41.65140
G1 X144.651 Y94.412 E41.77711
G1 X144.749 Y95.734 E41.88316
G1 X144.750 Y98.962 E42.14140
G1 X144.750 Y99.248 E42.16428
G1 X144.657 Y100.553 E42.26894
G1 X144.327 Y102.087 E42.39447
G1 X143.779 Y103.560 E42.52020
G1 X143.268 Y104.502 E42.60594
G1 X143.762 Y105.404 E42.68821
G1 X144.315 Y106.877 E42.81408
G1 X144.651 Y108.412 E42.93979
G1 X144.749 Y109.734 E43.04584
G1 X144.750 Y112.962 E43.30408
G1 X144.750 Y113.249 E43.32704
G1 X144.657 Y114.553 E43.43162
G1 X144.327 Y116.086 E43.55707
G1 X143.779 Y117.559 E43.68280
G1 X143.268 Y118.501 E43.76854
G1 X143.762 Y119.403 E43.85081
G1 X144.315 Y120.876 E43.97668
G1 X144.651 Y122.412 E44.10247
G1 X144.749 Y123.734 E44.20852
G1 X144.750 Y126.962 E44.46676
G1 X144.750 Y127.249 E44.48972
G1 X144.657 Y128.553 E44.59430
G1 X144.327 Y130.086 E44.71975
G1 X143.779 Y131.559 E44.84548
G1 X143.030 Y132.939 E44.97109
G1 X142.086 Y134.202 E45.09724
G1 X140.979 Y135.312 E45.22265
G1 X139.724 Y136.257 E45.34833
G1 X138.341 Y137.015 E45.47450
G1 X136.873 Y137.563 E45.59985
G1 X135.344 Y137.901 E45.72513
G1 X134.016 Y137.999 E45.83166
G1 X129.557 Y138.000 E46.18838
G1 X116.749 Y138.000 E47.21302
G1 X115.425 Y137.905 E47.31921
G1 X113.894 Y137.570 E47.44459
G1 X112.428 Y137.024 E47.56974
G1 X111.499 Y136.518 E47.65437
G1 X110.592 Y137.015 E47.73711
G1 X109.124 Y137.563 E47.86246
G1 X107.594 Y137.901 E47.98781
G1 X106.265 Y137.999 E48.09442
G1 X101.808 Y138.000 E48.45098
G1 X88.998 Y138.000 E49.47578
G1 X87.675 Y137.905 E49.58189
G1 X86.145 Y137.570 E49.70719
G1 X84.679 Y137.024 E49.83234
G1 X83.292 Y136.269 E49.95868
G1 X82.036 Y135.325 E50.08437
G1 X80.922 Y134.214 E50.21024
G1 X79.981 Y132.953 E50.33611
G1 X79.228 Y131.576 E50.46167
G1 X78.680 Y130.105 E50.58725
G1 X78.345 Y128.575 E50.71255
G1 X78.250 Y127.252 E50.81866
G1 X78.250 Y123.749 E51.09890
G1 X78.345 Y122.425 E51.20509
G1 X78.680 Y120.894 E51.33047
G1 X79.228 Y119.423 E51.45605
G1 X79.733 Y118.500 E51.54022
G1 X79.228 Y117.576 E51.62446
G1 X78.680 Y116.105 E51.75004
G1 X78.345 Y114.575 E51.87534
G1 X78.250 Y113.252 E51.98145
G1 X78.250 Y109.748 E52.26177
G1 X78.345 Y108.425 E52.36788
G1 X78.680 Y106.895 E52.49318
G1 X79.228 Y105.424 E52.61876
G1 X79.733 Y104.501 E52.70293
G1 X79.228 Y103.577 E52.78717
G1 X78.680 Y102.106 E52.91275
G1 X78.345 Y100.575 E53.03813
G1 X78.250 Y99.251 E53.14432
G1 X78.250 Y95.748 E53.42456
G1 X78.345 Y94.425 E53.53068
G1 X78.680 Y92.895 E53.65598
G1 X79.228 Y91.424 E53.78156
G1 X79.981 Y90.047 E53.90711
G1 X80.922 Y88.786 E54.03299
G1 X82.036 Y87.675 E54.15885
G0 F9000 X82.298 Y87.978
G1 F1200 X83.509 Y87.069 E54.27999
G1 X84.841 Y86.343 E54.40135
G1 X86.258 Y85.813 E54.52238
G1 X87.739 Y85.492 E54.64361
G1 X89.013 Y85.400 E54.74579
G1 X106.234 Y85.400 E56.12347
G1 X107.497 Y85.490 E56.22477
G1 X108.975 Y85.808 E56.34572
G1 X110.394 Y86.336 E56.46684
G1 X111.500 Y86.937 E56.56754
G1 X112.590 Y86.343 E56.66685
G1 X114.007 Y85.813 E56.78788
G1 X115.488 Y85.492 E56.90911
G1 X116.763 Y85.400 E57.01137
G1 X133.985 Y85.400 E58.38913
G1 X135.246 Y85.490 E58.49027
G1 X136.724 Y85.808 E58.61121
G1 X138.143 Y86.336 E58.73234
G1 X139.472 Y87.058 E58.85334
G1 X140.690 Y87.967 E58.97492
G1 X141.760 Y89.034 E59.09581
G1 X142.670 Y90.244 E59.21693
G1 X143.397 Y91.572 E59.33804
G1 X143.930 Y92.991 E59.45931
G1 X144.255 Y94.470 E59.58045
G1 X144.349 Y95.749 E59.68305
G1 X144.350 Y98.962 E59.94009
G1 X144.350 Y99.234 E59.96185
G1 X144.260 Y100.497 E60.06314
G1 X143.942 Y101.975 E60.18409
G1 X143.414 Y103.394 E60.30521
G1 X142.812 Y104.503 E60.40616
G1 X143.397 Y105.572 E60.50365
G1 X143.930 Y106.991 E60.62491
G1 X144.255 Y108.470 E60.74606
G1 X144.349 Y109.749 E60.84865
G1 X144.350 Y112.962 E61.10569
G1 X144.350 Y113.235 E61.12753
G1 X144.260 Y114.496 E61.22867
G1 X143.942 Y115.974 E61.34962
G1 X143.414 Y117.393 E61.47074
G1 X142.812 Y118.502 E61.57169
G1 X143.397 Y119.571 E61.66918
G1 X143.930 Y120.990 E61.79044
G1 X144.255 Y122.470 E61.91166
G1 X144.349 Y123.749 E62.01426
G1 X144.350 Y126.962 E62.27130
G1 X144.350 Y127.235 E62.29314
G1 X144.260 Y128.496 E62.39427
G1 X143.942 Y129.974 E62.51522
G1 X143.414 Y131.393 E62.63634
G1 X142.692 Y132.722 E62.75734
G1 X141.783 Y133.940 E62.87892
G1 X140.716 Y135.010 E62.99981
G1 X139.506 Y135.920 E63.12093
G1 X138.174 Y136.650 E63.24245
G1 X136.759 Y137.179 E63.36330
G1 X135.285 Y137.504 E63.48405
G1 X134.001 Y137.599 E63.58705
G1 X129.557 Y137.600 E63.94257
G1 X116.763 Y137.600 E64.96609
G1 X115.482 Y137.508 E65.06883
G1 X114.007 Y137.185 E65.18963
G1 X112.595 Y136.659 E65.31017
G1 X111.498 Y136.062 E65.41009
G1 X110.425 Y136.650 E65.50797
G1 X109.010 Y137.179 E65.62882
G1 X107.536 Y137.504 E65.74958
G1 X106.251 Y137.599 E65.85266
G1 X101.808 Y137.600 E66.20810
G1 X89.013 Y137.600 E67.23170
G1 X87.733 Y137.508 E67.33436
G1 X86.258 Y137.185 E67.45516
G1 X84.846 Y136.659 E67.57570
G1 X83.509 Y135.931 E67.69749
G1 X82.298 Y135.022 E67.81862
G1 X81.225 Y133.952 E67.93985
G1 X80.318 Y132.737 E68.06115
G1 X79.592 Y131.409 E68.18223
G1 X79.065 Y129.992 E68.30317
G1 X78.742 Y128.517 E68.42397
G1 X78.650 Y127.237 E68.52663
G1 X78.650 Y123.763 E68.80455
G1 X78.742 Y122.482 E68.90730
G1 X79.065 Y121.007 E69.02809
G1 X79.592 Y119.590 E69.14904
G1 X80.188 Y118.500 E69.24842
G1 X79.592 Y117.409 E69.34788
G1 X79.065 Y115.992 E69.46882
G1 X78.742 Y114.517 E69.58962
G1 X78.650 Y113.237 E69.69228
G1 X78.650 Y109.763 E69.97020
G1 X78.742 Y108.483 E70.07287
G1 X79.065 Y107.008 E70.19366
G1 X79.592 Y105.591 E70.31461
G1 X80.188 Y104.500 E70.41407
G1 X79.592 Y103.410 E70.51345
G1 X79.065 Y101.993 E70.63440
G1 X78.742 Y100.518 E70.75519
G1 X78.650 Y99.237 E70.85794
G1 X78.650 Y95.763 E71.13586
G1 X78.742 Y94.483 E71.23852
G1 X79.065 Y93.008 E71.35932
G1 X79.592 Y91.591 E71.48026
G1 X80.318 Y90.263 E71.60134
G1 X81.225 Y89.048 E71.72264
G1 X82.298 Y87.978 E71.84386
G0 F9000 X82.561 Y88.281
G1 F1200 X83.726 Y87.406 E71.96042
G1 X85.007 Y86.708 E72.07713
G1 X86.371 Y86.198 E72.19363
G1 X87.796 Y85.889 E72.31028
G1 X89.027 Y85.800 E72.40901
G1 X106.220 Y85.800 E73.78445
G1 X107.440 Y85.887 E73.88230
G1 X108.863 Y86.193 E73.99874
G1 X110.228 Y86.701 E74.11526
G1 X111.500 Y87.392 E74.23107
G1 X112.756 Y86.708 E74.34548
G1 X114.120 Y86.198 E74.46198
G1 X115.545 Y85.889 E74.57863
G1 X116.777 Y85.800 E74.67745
G1 X133.970 Y85.800 E76.05289
G1 X135.189 Y85.887 E76.15065
G1 X136.612 Y86.193 E76.26710
G1 X137.977 Y86.701 E76.38361
G1 X139.256 Y87.396 E76.50006
G1 X140.428 Y88.270 E76.61702
G1 X141.457 Y89.297 E76.73333
G1 X142.333 Y90.461 E76.84987
G1 X143.033 Y91.739 E76.96645
G1 X143.546 Y93.104 E77.08310
G1 X143.858 Y94.528 E77.19973
G1 X143.949 Y95.763 E77.29879
G1 X143.950 Y98.962 E77.55471
G1 X143.950 Y99.220 E77.57535
G1 X143.863 Y100.440 E77.67320
G1 X143.557 Y101.863 E77.78964
G1 X143.049 Y103.228 E77.90616
G1 X142.356 Y104.503 E78.02225
G1 X143.033 Y105.739 E78.13499
G1 X143.546 Y107.104 E78.25165
G1 X143.858 Y108.528 E78.36827
G1 X143.949 Y109.763 E78.46734
G1 X143.950 Y112.962 E78.72326
G1 X143.950 Y113.220 E78.74390
G1 X143.863 Y114.439 E78.84167
G1 X143.557 Y115.862 E78.95811
G1 X143.049 Y117.227 E79.07463
G1 X142.356 Y118.502 E79.19072
G1 X143.033 Y119.738 E79.30346
G1 X143.546 Y121.103 E79.42012
G1 X143.858 Y122.527 E79.53674
G1 X143.949 Y123.764 E79.63597
G1 X143.950 Y126.962 E79.89181
G1 X143.950 Y127.220 E79.91245
G1 X143.863 Y128.439 E80.01022
G1 X143.557 Y129.862 E80.12666
G1 X143.049 Y131.227 E80.24318
G1 X142.354 Y132.506 E80.35963
G1 X141.480 Y133.678 E80.47659
G1 X140.453 Y134.707 E80.59289
G1 X139.289 Y135.583 E80.70944
G1 X138.007 Y136.285 E80.82637
G1 X136.646 Y136.794 E80.94261
G1 X135.227 Y137.107 E81.05886
G1 X133.986 Y137.199 E81.15841
G1 X129.557 Y137.200 E81.51273
G1 X116.777 Y137.200 E82.53513
G1 X115.540 Y137.111 E82.63435
G1 X114.120 Y136.800 E82.75064
G1 X112.761 Y136.294 E82.86665
G1 X111.498 Y135.606 E82.98171
G1 X110.258 Y136.285 E83.09481
G1 X108.897 Y136.794 E83.21106
G1 X107.478 Y137.107 E83.32731
G1 X106.236 Y137.199 E83.42694
G1 X101.808 Y137.200 E83.78118
G1 X89.027 Y137.200 E84.80366
G1 X87.790 Y137.111 E84.90287
G1 X86.371 Y136.800 E85.01909
G1 X85.012 Y136.294 E85.13510
G1 X83.726 Y135.594 E85.25223
G1 X82.561 Y134.719 E85.36879
G1 X81.528 Y133.689 E85.48549
G1 X80.656 Y132.520 E85.60217
G1 X79.957 Y131.243 E85.71863
G1 X79.450 Y129.879 E85.83504
G1 X79.139 Y128.460 E85.95126
G1 X79.050 Y127.223 E86.05047
G1 X79.050 Y123.777 E86.32615
G1 X79.139 Y122.540 E86.42537
G1 X79.450 Y121.120 E86.54166
G1 X79.957 Y119.756 E86.65808
G1 X80.645 Y118.500 E86.77264
G1 X79.957 Y117.243 E86.88728
G1 X79.450 Y115.879 E87.00370
G1 X79.139 Y114.460 E87.11991
G1 X79.050 Y113.223 E87.21913
