;FLAVOR:UltiGCode
;TIME:4470
;MATERIAL:12327
;MATERIAL2:0
;NOZZLE_DIAMETER:0.400000
;NOZZLE_DIAMETER2:0.400000

;Layer count: 138
;LAYER:0
M107
G0 F9000 X109.223 Y102.847 Z0.200
;TYPE:SKIRT
G1 F1200 X109.063 Y103.022 E0.01897
G1 X108.919 Y103.208 E0.03779
G1 X108.791 Y103.410 E0.05692
G1 X108.689 Y103.605 E0.07452
G1 X108.594 Y103.835 E0.09443
G1 X108.526 Y104.050 E0.11247
G1 X108.476 Y104.277 E0.13107
G1 X108.444 Y104.515 E0.15028
G1 X108.434 Y104.750 E0.16910
G1 X108.443 Y104.973 E0.18695
G1 X108.476 Y105.221 E0.20696
G1 X108.525 Y105.445 E0.22531
G1 X108.596 Y105.672 E0.24434
G1 X108.685 Y105.885 E0.26280
G1 X108.790 Y106.087 E0.28102
G1 X108.923 Y106.296 E0.30083
G1 X109.060 Y106.476 E0.31893
G1 X109.215 Y106.645 E0.33728
G1 X109.401 Y106.816 E0.35749
G1 X109.580 Y106.953 E0.37552
G1 X109.780 Y107.081 E0.39452
G1 X109.981 Y107.186 E0.41266
G1 X110.206 Y107.280 E0.43217
G1 X110.431 Y107.351 E0.45104
G1 X110.659 Y107.401 E0.46972
G1 X110.883 Y107.431 E0.48780
G1 X111.135 Y107.442 E0.50798
G1 X111.355 Y107.433 E0.52559
G1 X111.589 Y107.402 E0.54447
G1 X111.808 Y107.354 E0.56241
G1 X112.046 Y107.279 E0.58237
G1 X112.270 Y107.187 E0.60175
G1 X112.462 Y107.086 E0.61910
G1 X112.671 Y106.953 E0.63892
G1 X112.851 Y106.816 E0.65702
G1 X113.031 Y106.650 E0.67660
G1 X113.177 Y106.492 E0.69381
G1 X113.337 Y106.285 E0.71474
G1 X113.456 Y106.098 E0.73248
G1 X113.564 Y105.891 E0.75116
G1 X113.655 Y105.673 E0.77005
G1 X113.723 Y105.458 E0.78809
G1 X113.775 Y105.223 E0.80735
G1 X113.806 Y104.987 E0.82639
G1 X113.818 Y104.736 E0.84649
G1 X113.808 Y104.522 E0.86363
G1 X113.777 Y104.286 E0.88267
G1 X113.724 Y104.046 E0.90234
G1 X113.657 Y103.835 E0.92005
G1 X113.562 Y103.605 E0.93996
G1 X113.458 Y103.405 E0.95799
G1 X113.334 Y103.211 E0.97641
G1 X113.186 Y103.018 E0.99587
G1 X113.029 Y102.847 E1.01444
G1 X112.858 Y102.690 E1.03301
G1 X112.085 Y102.097 E1.11095
G1 X111.132 Y102.057 E1.18726
G1 X110.898 Y102.068 E1.20600
G1 X110.649 Y102.100 E1.22608
G1 X110.436 Y102.148 E1.24355
G1 X110.210 Y102.219 E1.26250
G1 X109.976 Y102.316 E1.28276
G1 X109.786 Y102.415 E1.29990
G1 X109.584 Y102.543 E1.31904
G1 X109.398 Y102.687 E1.33785
G1 X109.223 Y102.847 E1.35682
G0 F9000 X108.939 Y102.563
G1 F1200 X108.758 Y102.761 E1.37828
G1 X108.589 Y102.982 E1.40054
G1 X108.453 Y103.194 E1.42069
G1 X108.320 Y103.450 E1.44377
G1 X108.220 Y103.691 E1.46464
G1 X108.139 Y103.948 E1.48620
G1 X108.080 Y104.216 E1.50815
G1 X108.045 Y104.480 E1.52946
G1 X108.033 Y104.750 E1.55108
G1 X108.044 Y105.008 E1.57174
G1 X108.081 Y105.293 E1.59473
G1 X108.137 Y105.543 E1.61523
G1 X108.218 Y105.803 E1.63701
G1 X108.327 Y106.065 E1.65971
G1 X108.441 Y106.284 E1.67946
G1 X108.599 Y106.533 E1.70306
G1 X108.743 Y106.721 E1.72200
G1 X108.937 Y106.933 E1.74499
G1 X109.138 Y107.118 E1.76685
G1 X109.347 Y107.279 E1.78795
G1 X109.585 Y107.431 E1.81054
G1 X109.810 Y107.548 E1.83083
G1 X110.076 Y107.659 E1.85389
G1 X110.315 Y107.734 E1.87393
G1 X110.589 Y107.795 E1.89639
G1 X110.851 Y107.830 E1.91753
G1 X111.137 Y107.843 E1.94044
G1 X111.388 Y107.832 E1.96053
G1 X111.650 Y107.798 E1.98167
G1 X111.923 Y107.737 E2.00405
G1 X112.179 Y107.657 E2.02551
G1 X112.438 Y107.550 E2.04792
G1 X112.659 Y107.435 E2.06785
G1 X112.908 Y107.277 E2.09145
G1 X113.100 Y107.130 E2.11079
G1 X113.308 Y106.940 E2.13333
G1 X113.488 Y106.744 E2.15462
G1 X113.663 Y106.517 E2.17755
G1 X113.806 Y106.293 E2.19881
G1 X113.923 Y106.069 E2.21903
G1 X114.030 Y105.810 E2.24144
G1 X114.113 Y105.549 E2.26335
G1 X114.170 Y105.295 E2.28418
G1 X114.204 Y105.034 E2.30524
G1 X114.217 Y104.736 E2.32910
G1 X114.206 Y104.476 E2.34992
G1 X114.172 Y104.215 E2.37097
G1 X114.114 Y103.955 E2.39228
G1 X114.031 Y103.691 E2.41442
G1 X113.927 Y103.441 E2.43609
G1 X113.805 Y103.206 E2.45727
G1 X113.659 Y102.977 E2.47899
G1 X113.491 Y102.757 E2.50114
G1 X113.313 Y102.563 E2.52220
G1 X113.114 Y102.381 E2.54378
G1 X112.230 Y101.703 E2.63290
G1 X111.119 Y101.657 E2.72186
G1 X110.863 Y101.669 E2.74236
G1 X110.589 Y101.705 E2.76447
G1 X110.330 Y101.762 E2.78568
G1 X110.066 Y101.845 E2.80782
G1 X109.822 Y101.946 E2.82895
G1 X109.570 Y102.077 E2.85167
G1 X109.358 Y102.213 E2.87182
G1 X109.137 Y102.382 E2.89408
G1 X108.939 Y102.563 E2.91554
G0 F9000 X108.656 Y102.280
G1 F1200 X108.451 Y102.504 E2.93983
G1 X108.263 Y102.749 E2.96454
G1 X108.103 Y102.999 E2.98828
G1 X107.961 Y103.272 E3.01290
G1 X107.840 Y103.564 E3.03819
G1 X107.754 Y103.837 E3.06108
G1 X107.688 Y104.134 E3.08542
G1 X107.645 Y104.455 E3.11133
G1 X107.632 Y104.750 E3.13496
G1 X107.645 Y105.043 E3.15842
G1 X107.685 Y105.350 E3.18319
G1 X107.752 Y105.653 E3.20801
G1 X107.840 Y105.934 E3.23157
G1 X107.962 Y106.231 E3.25725
G1 X108.095 Y106.486 E3.28026
G1 X108.271 Y106.762 E3.30645
G1 X108.439 Y106.981 E3.32853
G1 X108.653 Y107.215 E3.35390
G1 X108.882 Y107.425 E3.37876
G1 X109.114 Y107.605 E3.40225
G1 X109.390 Y107.781 E3.42843
G1 X109.634 Y107.908 E3.45044
G1 X109.936 Y108.033 E3.47659
G1 X110.212 Y108.121 E3.49976
G1 X110.528 Y108.191 E3.52566
G1 X110.814 Y108.229 E3.54874
G1 X111.141 Y108.243 E3.57492
G1 X111.412 Y108.232 E3.59662
G1 X111.730 Y108.190 E3.62228
G1 X112.017 Y108.127 E3.64579
G1 X112.322 Y108.031 E3.67137
G1 X112.605 Y107.914 E3.69587
G1 X112.861 Y107.781 E3.71894
G1 X113.137 Y107.605 E3.74513
G1 X113.363 Y107.432 E3.76790
G1 X113.591 Y107.224 E3.79259
G1 X113.785 Y107.012 E3.81558
G1 X113.997 Y106.738 E3.84329
G1 X114.148 Y106.502 E3.86571
G1 X114.287 Y106.234 E3.88986
G1 X114.409 Y105.942 E3.91518
G1 X114.499 Y105.654 E3.93932
G1 X114.564 Y105.361 E3.96333
G1 X114.604 Y105.056 E3.98794
G1 X114.618 Y104.736 E4.01356
G1 X114.606 Y104.452 E4.03630
G1 X114.565 Y104.141 E4.06140
G1 X114.497 Y103.837 E4.08632
G1 X114.411 Y103.564 E4.10921
G1 X114.285 Y103.262 E4.13539
G1 X114.153 Y103.007 E4.15836
G1 X113.984 Y102.744 E4.18337
G1 X113.794 Y102.496 E4.20837
G1 X113.596 Y102.280 E4.23181
G1 X113.375 Y102.078 E4.25576
G1 X112.372 Y101.309 E4.35687
G1 X111.129 Y101.257 E4.45640
G1 X110.828 Y101.270 E4.48050
G1 X110.509 Y101.312 E4.50624
G1 X110.226 Y101.375 E4.52943
G1 X109.929 Y101.469 E4.55436
G1 X109.654 Y101.583 E4.57817
G1 X109.375 Y101.727 E4.60329
G1 X109.125 Y101.887 E4.62703
G1 X108.880 Y102.075 E4.65174
G1 X108.656 Y102.280 E4.67603
G0 F9000 X108.373 Y101.997
G1 F1200 X108.148 Y102.243 E4.70270
G1 X107.933 Y102.523 E4.73094
G1 X107.753 Y102.805 E4.75771
G1 X107.596 Y103.108 E4.78501
G1 X107.469 Y103.413 E4.81144
G1 X107.365 Y103.742 E4.83904
G1 X107.291 Y104.077 E4.86649
G1 X107.248 Y104.409 E4.89327
G1 X107.232 Y104.753 E4.92082
G1 X107.246 Y105.078 E4.94684
G1 X107.293 Y105.433 E4.97549
G1 X107.363 Y105.749 E5.00139
G1 X107.467 Y106.080 E5.02914
G1 X107.595 Y106.390 E5.05597
G1 X107.755 Y106.698 E5.08374
G1 X107.935 Y106.981 E5.11057
G1 X108.136 Y107.243 E5.13699
G1 X108.375 Y107.504 E5.16530
G1 X108.619 Y107.728 E5.19180
G1 X108.887 Y107.934 E5.21884
G1 X109.185 Y108.125 E5.24716
G1 X109.472 Y108.275 E5.27306
G1 X109.801 Y108.411 E5.30154
G1 X110.107 Y108.507 E5.32720
G1 X110.456 Y108.585 E5.35581
G1 X110.777 Y108.627 E5.38171
G1 X111.135 Y108.643 E5.41038
G1 X111.458 Y108.629 E5.43624
G1 X111.799 Y108.585 E5.46375
G1 X112.121 Y108.514 E5.49013
G1 X112.454 Y108.409 E5.51806
G1 X112.768 Y108.279 E5.54525
G1 X113.073 Y108.121 E5.57273
G1 X113.356 Y107.941 E5.59956
G1 X113.624 Y107.735 E5.62660
G1 X113.867 Y107.513 E5.65293
G1 X114.100 Y107.259 E5.68050
G1 X114.319 Y106.977 E5.70907
G1 X114.495 Y106.701 E5.73526
G1 X114.650 Y106.403 E5.76213
G1 X114.783 Y106.083 E5.78985
G1 X114.884 Y105.762 E5.81677
G1 X114.959 Y105.429 E5.84408
G1 X115.003 Y105.094 E5.87111
G1 X115.018 Y104.748 E5.89882
G1 X115.003 Y104.406 E5.92620
G1 X114.960 Y104.071 E5.95322
G1 X114.887 Y103.747 E5.97979
G1 X114.782 Y103.413 E6.00780
G1 X114.656 Y103.108 E6.03420
G1 X114.497 Y102.803 E6.06172
G1 X114.313 Y102.515 E6.08906
G1 X114.107 Y102.246 E6.11616
G1 X113.879 Y101.997 E6.14317
G1 X113.625 Y101.765 E6.17069
G1 X112.516 Y100.914 E6.28252
G1 X111.127 Y100.856 E6.39374
G1 X110.793 Y100.871 E6.42049
G1 X110.449 Y100.916 E6.44824
G1 X110.121 Y100.989 E6.47512
G1 X109.795 Y101.092 E6.50248
G1 X109.476 Y101.224 E6.53009
G1 X109.181 Y101.377 E6.55668
G1 X108.899 Y101.557 E6.58344
G1 X108.619 Y101.772 E6.61168
G1 X108.373 Y101.997 E6.63836
G0 F9000 X108.090 Y101.714
G1 F1200 X107.834 Y101.994 E6.66871
G1 X107.606 Y102.291 E6.69866
G1 X107.411 Y102.597 E6.72769
G1 X107.235 Y102.934 E6.75810
G1 X107.089 Y103.286 E6.78859
G1 X106.978 Y103.638 E6.81812
G1 X106.899 Y103.998 E6.84760
G1 X106.848 Y104.383 E6.87867
G1 X106.832 Y104.750 E6.90806
G1 X106.847 Y105.113 E6.93712
G1 X106.898 Y105.502 E6.96851
G1 X106.975 Y105.850 E6.99702
G1 X107.088 Y106.208 E7.02706
G1 X107.238 Y106.571 E7.05848
G1 X107.407 Y106.895 E7.08771
G1 X107.607 Y107.211 E7.11763
G1 X107.828 Y107.499 E7.14667
G1 X108.091 Y107.786 E7.17781
G1 X108.361 Y108.034 E7.20714
G1 X108.663 Y108.267 E7.23766
G1 X108.982 Y108.470 E7.26791
G1 X109.295 Y108.634 E7.29618
G1 X109.661 Y108.786 E7.32788
G1 X110.004 Y108.894 E7.35665
G1 X110.386 Y108.979 E7.38796
G1 X110.744 Y109.026 E7.41684
G1 X111.136 Y109.044 E7.44823
G1 X111.482 Y109.029 E7.47594
G1 X111.867 Y108.978 E7.50701
G1 X112.225 Y108.900 E7.53632
G1 X112.596 Y108.783 E7.56744
G1 X112.940 Y108.641 E7.59722
G1 X113.270 Y108.469 E7.62699
G1 X113.586 Y108.269 E7.65690
G1 X113.880 Y108.043 E7.68657
G1 X114.156 Y107.791 E7.71647
G1 X114.401 Y107.524 E7.74546
G1 X114.645 Y107.208 E7.77740
G1 X114.845 Y106.896 E7.80705
G1 X115.013 Y106.572 E7.83624
G1 X115.161 Y106.217 E7.86701
G1 X115.271 Y105.868 E7.89629
G1 X115.351 Y105.510 E7.92563
G1 X115.401 Y105.131 E7.95622
G1 X115.419 Y104.736 E7.98785
G1 X115.403 Y104.371 E8.01708
G1 X115.355 Y104.011 E8.04613
G1 X115.272 Y103.638 E8.07670
G1 X115.162 Y103.286 E8.10620
G1 X115.014 Y102.930 E8.13705
G1 X114.843 Y102.600 E8.16678
G1 X114.649 Y102.296 E8.19563
G1 X114.411 Y101.986 E8.22690
G1 X114.162 Y101.714 E8.25640
G1 X113.886 Y101.462 E8.28630
G1 X112.658 Y100.520 E8.41011
G1 X111.126 Y100.456 E8.53278
G1 X110.747 Y100.473 E8.56313
G1 X110.380 Y100.522 E8.59275
G1 X110.016 Y100.602 E8.62257
G1 X109.658 Y100.715 E8.65260
G1 X109.312 Y100.858 E8.68255
G1 X108.973 Y101.035 E8.71314
G1 X108.667 Y101.230 E8.74217
G1 X108.370 Y101.458 E8.77212
G1 X108.090 Y101.714 E8.80248
G0 F9000 X107.807 Y101.431
G1 F1200 X107.526 Y101.738 E8.83577
G1 X107.280 Y102.058 E8.86806
G1 X107.061 Y102.403 E8.90075
G1 X106.872 Y102.766 E8.93349
G1 X106.717 Y103.139 E8.96581
G1 X106.592 Y103.536 E8.99910
G1 X106.503 Y103.938 E9.03204
G1 X106.449 Y104.348 E9.06513
G1 X106.431 Y104.742 E9.09668
G1 X106.449 Y105.148 E9.12919
G1 X106.505 Y105.573 E9.16348
G1 X106.591 Y105.962 E9.19536
G1 X106.711 Y106.345 E9.22746
G1 X106.874 Y106.740 E9.26165
G1 X107.054 Y107.084 E9.29271
G1 X107.284 Y107.447 E9.32709
G1 X107.521 Y107.755 E9.35818
G1 X107.802 Y108.062 E9.39147
G1 X108.111 Y108.346 E9.42505
G1 X108.430 Y108.593 E9.45732
G1 X108.779 Y108.815 E9.49041
G1 X109.134 Y109.000 E9.52244
G1 X109.524 Y109.162 E9.55622
G1 X109.910 Y109.283 E9.58858
G1 X110.314 Y109.373 E9.62170
G1 X110.706 Y109.425 E9.65333
G1 X111.129 Y109.444 E9.68721
G1 X111.528 Y109.427 E9.71915
G1 X111.936 Y109.373 E9.75208
G1 X112.329 Y109.287 E9.78426
G1 X112.722 Y109.163 E9.81723
G1 X113.118 Y109.000 E9.85149
G1 X113.459 Y108.822 E9.88226
G1 X113.822 Y108.592 E9.91664
G1 X114.137 Y108.350 E9.94842
G1 X114.438 Y108.074 E9.98109
G1 X114.707 Y107.782 E10.01285
G1 X114.975 Y107.435 E10.04793
G1 X115.189 Y107.100 E10.07973
G1 X115.376 Y106.741 E10.11211
G1 X115.540 Y106.348 E10.14618
G1 X115.656 Y105.979 E10.17712
G1 X115.746 Y105.574 E10.21031
G1 X115.800 Y105.166 E10.24324
G1 X115.820 Y104.737 E10.27760
G1 X115.802 Y104.347 E10.30883
G1 X115.747 Y103.928 E10.34264
G1 X115.662 Y103.547 E10.37387
G1 X115.534 Y103.139 E10.40807
G1 X115.380 Y102.767 E10.44028
G1 X115.190 Y102.401 E10.47327
G1 X114.970 Y102.056 E10.50601
G1 X114.724 Y101.736 E10.53830
G1 X114.445 Y101.431 E10.57137
G1 X114.136 Y101.148 E10.60489
G1 X112.802 Y100.126 E10.73933
G1 X111.124 Y100.055 E10.87369
G1 X110.723 Y100.074 E10.90580
G1 X110.308 Y100.128 E10.93928
G1 X109.914 Y100.215 E10.97156
G1 X109.511 Y100.343 E11.00539
G1 X109.144 Y100.495 E11.03717
G1 X108.779 Y100.685 E11.07009
G1 X108.434 Y100.904 E11.10278
G1 X108.114 Y101.150 E11.13507
G1 X107.807 Y101.431 E11.16836
G0 F9000 X107.524 Y101.148
G1 F1200 X107.223 Y101.476 E11.20398
G1 X106.950 Y101.832 E11.23987
G1 X106.711 Y102.208 E11.27551
G1 X106.511 Y102.592 E11.31015
G1 X106.338 Y103.008 E11.34619
G1 X106.205 Y103.432 E11.38174
G1 X106.108 Y103.869 E11.41755
G1 X106.051 Y104.301 E11.45241
G1 X106.031 Y104.750 E11.48837
G1 X106.050 Y105.185 E11.52320
G1 X106.110 Y105.641 E11.55999
G1 X106.201 Y106.055 E11.59390
G1 X106.338 Y106.491 E11.63047
G1 X106.507 Y106.899 E11.66580
G1 X106.711 Y107.290 E11.70108
G1 X106.957 Y107.678 E11.73783
G1 X107.212 Y108.010 E11.77132
G1 X107.524 Y108.351 E11.80830
G1 X107.848 Y108.649 E11.84351
G1 X108.203 Y108.922 E11.87934
G1 X108.574 Y109.159 E11.91456
G1 X108.967 Y109.364 E11.95002
G1 X109.386 Y109.538 E11.98631
G1 X109.796 Y109.667 E12.02070
G1 X110.243 Y109.767 E12.05734
G1 X110.672 Y109.823 E12.09195
G1 X111.138 Y109.844 E12.12927
G1 X111.563 Y109.826 E12.16330
G1 X112.005 Y109.768 E12.19896
G1 X112.426 Y109.675 E12.23346
G1 X112.861 Y109.538 E12.26994
G1 X113.281 Y109.366 E12.30625
G1 X113.665 Y109.165 E12.34092
G1 X114.053 Y108.919 E12.37768
G1 X114.385 Y108.664 E12.41117
G1 X114.726 Y108.353 E12.44809
G1 X115.019 Y108.033 E12.48280
G1 X115.297 Y107.674 E12.51912
G1 X115.539 Y107.295 E12.55510
G1 X115.736 Y106.916 E12.58927
G1 X115.914 Y106.489 E12.62628
G1 X116.042 Y106.081 E12.66049
G1 X116.142 Y105.635 E12.69705
G1 X116.198 Y105.212 E12.73119
G1 X116.219 Y104.737 E12.76922
G1 X116.200 Y104.301 E12.80414
G1 X116.143 Y103.868 E12.83908
G1 X116.047 Y103.434 E12.87464
G1 X115.913 Y103.008 E12.91036
G1 X115.743 Y102.598 E12.94587
G1 X115.534 Y102.197 E12.98205
G1 X115.303 Y101.835 E13.01640
G1 X115.027 Y101.475 E13.05269
G1 X114.728 Y101.148 E13.08814
G1 X114.397 Y100.845 E13.12404
G1 X112.944 Y99.731 E13.27051
G1 X111.123 Y99.655 E13.41632
G1 X110.688 Y99.674 E13.45115
G1 X110.240 Y99.733 E13.48730
G1 X109.806 Y99.829 E13.52286
G1 X109.388 Y99.961 E13.55793
G1 X108.966 Y100.136 E13.59447
G1 X108.584 Y100.335 E13.62893
G1 X108.208 Y100.574 E13.66457
G1 X107.852 Y100.847 E13.70046
G1 X107.524 Y101.148 E13.73608
G0 F9000 X107.241 Y100.865
G1 F1200 X106.914 Y101.220 E13.77469
G1 X106.629 Y101.592 E13.81218
G1 X106.369 Y102.001 E13.85095
G1 X106.142 Y102.437 E13.89028
G1 X105.962 Y102.871 E13.92786
G1 X105.820 Y103.320 E13.96554
G1 X105.714 Y103.799 E14.00478
G1 X105.651 Y104.276 E14.04328
G1 X105.630 Y104.752 E14.08139
G1 X105.651 Y105.220 E14.11887
G1 X105.714 Y105.699 E14.15752
G1 X105.817 Y106.167 E14.19586
G1 X105.959 Y106.621 E14.23391
G1 X106.144 Y107.068 E14.27261
G1 X106.365 Y107.493 E14.31094
G1 X106.625 Y107.903 E14.34977
G1 X106.909 Y108.272 E14.38703
G1 X107.234 Y108.628 E14.42559
G1 X107.592 Y108.956 E14.46443
G1 X107.970 Y109.248 E14.50264
G1 X108.379 Y109.509 E14.54146
G1 X108.796 Y109.726 E14.57906
G1 X109.249 Y109.914 E14.61830
G1 X109.702 Y110.057 E14.65630
G1 X110.171 Y110.161 E14.69474
G1 X110.638 Y110.223 E14.73242
G1 X111.135 Y110.245 E14.77222
G1 X111.586 Y110.226 E14.80833
G1 X112.074 Y110.162 E14.84771
G1 X112.541 Y110.059 E14.88597
G1 X112.994 Y109.916 E14.92397
G1 X113.453 Y109.727 E14.96368
G1 X113.868 Y109.511 E15.00111
G1 X114.278 Y109.251 E15.03995
G1 X114.648 Y108.967 E15.07726
G1 X115.003 Y108.642 E15.11577
G1 X115.324 Y108.292 E15.15376
G1 X115.627 Y107.901 E15.19333
G1 X115.883 Y107.500 E15.23139
G1 X116.102 Y107.080 E15.26929
G1 X116.291 Y106.626 E15.30863
G1 X116.430 Y106.183 E15.34577
G1 X116.535 Y105.716 E15.38406
G1 X116.598 Y105.238 E15.42263
G1 X116.620 Y104.737 E15.46275
G1 X116.600 Y104.278 E15.49951
G1 X116.537 Y103.796 E15.53840
G1 X116.431 Y103.321 E15.57733
G1 X116.289 Y102.871 E15.61508
G1 X116.106 Y102.429 E15.65335
G1 X115.884 Y102.002 E15.69185
G1 X115.628 Y101.601 E15.72991
