;FLAVOR:UltiGCode
;TIME:4146
;MATERIAL:11747
;MATERIAL2:0
;NOZZLE_DIAMETER:0.400000
;NOZZLE_DIAMETER2:0.400000

;Layer count: 171
;LAYER:0
M107
G0 F9000 X94.582 Y91.068 Z0.200
;TYPE:SKIRT
G1 F1200 X95.568 Y90.082 E0.11155
G1 X96.689 Y89.241 E0.22367
G1 X97.929 Y88.564 E0.33669
G1 X99.237 Y88.079 E0.44829
G1 X100.869 Y87.722 E0.58194
G1 X121.142 Y87.700 E2.20378
G1 X122.349 Y87.770 E2.30050
G1 X123.763 Y88.079 E2.41629
G1 X125.071 Y88.564 E2.52789
G1 X126.311 Y89.241 E2.64091
G1 X127.432 Y90.082 E2.75302
G1 X128.418 Y91.068 E2.86458
G1 X129.259 Y92.189 E2.97669
G1 X129.936 Y93.429 E3.08971
G1 X130.421 Y94.737 E3.20131
G1 X130.778 Y96.370 E3.33504
G1 X130.800 Y125.785 E5.68824
G1 X130.717 Y126.910 E5.77848
G1 X130.421 Y128.263 E5.88928
G1 X129.936 Y129.571 E6.00089
G1 X129.259 Y130.811 E6.11391
G1 X128.418 Y131.932 E6.22602
G1 X127.432 Y132.918 E6.33757
G1 X126.311 Y133.759 E6.44969
G1 X125.071 Y134.436 E6.56271
G1 X123.763 Y134.921 E6.67431
G1 X122.131 Y135.278 E6.80796
G1 X101.823 Y135.300 E8.43260
G1 X100.638 Y135.227 E8.52758
G1 X99.237 Y134.921 E8.64230
G1 X97.929 Y134.436 E8.75390
G1 X96.689 Y133.759 E8.86692
G1 X95.568 Y132.918 E8.97903
G1 X94.582 Y131.932 E9.09059
G1 X93.741 Y130.811 E9.20270
G1 X93.064 Y129.571 E9.31572
G1 X92.579 Y128.263 E9.42732
G1 X92.222 Y126.630 E9.56105
G1 X92.200 Y97.361 E11.90257
G1 X92.269 Y96.153 E11.99937
G1 X92.579 Y94.737 E12.11533
G1 X93.064 Y93.429 E12.22693
G1 X93.741 Y92.189 E12.33995
G1 X94.582 Y91.068 E12.45207
G0 F9000 X94.885 Y91.330
G1 F1200 X95.830 Y90.385 E12.55898
G1 X96.906 Y89.578 E12.66658
G1 X98.095 Y88.929 E12.77495
G1 X99.350 Y88.463 E12.88205
G1 X100.912 Y88.122 E13.00995
G1 X121.131 Y88.100 E14.62747
G1 X122.294 Y88.167 E14.72066
G1 X123.650 Y88.463 E14.83170
G1 X124.905 Y88.929 E14.93880
G1 X126.094 Y89.578 E15.04716
G1 X127.170 Y90.385 E15.15476
G1 X128.115 Y91.330 E15.26168
G1 X128.922 Y92.406 E15.36928
G1 X129.571 Y93.595 E15.47765
G1 X130.037 Y94.850 E15.58474
G1 X130.378 Y96.414 E15.71280
G1 X130.400 Y125.770 E18.06128
G1 X130.320 Y126.852 E18.14808
G1 X130.037 Y128.150 E18.25436
G1 X129.571 Y129.405 E18.36146
G1 X128.922 Y130.594 E18.46982
G1 X128.115 Y131.670 E18.57742
G1 X127.170 Y132.615 E18.68434
G1 X126.094 Y133.422 E18.79194
G1 X124.905 Y134.071 E18.90031
G1 X123.650 Y134.537 E19.00740
G1 X122.088 Y134.878 E19.13531
G1 X101.835 Y134.900 E20.75555
G1 X100.693 Y134.830 E20.84708
G1 X99.350 Y134.537 E20.95705
G1 X98.095 Y134.071 E21.06415
G1 X96.906 Y133.422 E21.17251
G1 X95.830 Y132.615 E21.28011
G1 X94.885 Y131.670 E21.38703
G1 X94.078 Y130.594 E21.49463
G1 X93.429 Y129.405 E21.60299
G1 X92.963 Y128.150 E21.71009
G1 X92.622 Y126.586 E21.83815
G1 X92.600 Y97.373 E24.17519
G1 X92.667 Y96.207 E24.26863
G1 X92.963 Y94.850 E24.37974
G1 X93.429 Y93.595 E24.48684
G1 X94.078 Y92.406 E24.59520
G1 X94.885 Y91.330 E24.70280
G0 F9000 X95.187 Y91.593
G1 F1200 X96.093 Y90.687 E24.80531
G1 X97.123 Y89.915 E24.90828
G1 X98.261 Y89.294 E25.01200
G1 X99.463 Y88.848 E25.11456
G1 X100.956 Y88.522 E25.23682
G1 X121.119 Y88.500 E26.84986
G1 X122.240 Y88.565 E26.93969
G1 X123.537 Y88.848 E27.04589
G1 X124.739 Y89.294 E27.14845
G1 X125.877 Y89.915 E27.25217
G1 X126.907 Y90.687 E27.35514
G1 X127.813 Y91.593 E27.45765
G1 X128.585 Y92.623 E27.56062
G1 X129.206 Y93.761 E27.66433
G1 X129.652 Y94.963 E27.76690
G1 X129.978 Y96.457 E27.88923
G1 X130.000 Y125.756 E30.23315
G1 X129.923 Y126.795 E30.31650
G1 X129.652 Y128.037 E30.41820
G1 X129.206 Y129.239 E30.52077
G1 X128.585 Y130.377 E30.62448
G1 X127.813 Y131.407 E30.72745
G1 X126.907 Y132.313 E30.82996
G1 X125.877 Y133.085 E30.93293
G1 X124.739 Y133.706 E31.03665
G1 X123.537 Y134.152 E31.13921
G1 X122.044 Y134.478 E31.26147
G1 X101.847 Y134.500 E32.87723
G1 X100.748 Y134.433 E32.96531
G1 X99.463 Y134.152 E33.07054
G1 X98.261 Y133.706 E33.17311
G1 X97.123 Y133.085 E33.27682
G1 X96.093 Y132.313 E33.37979
G1 X95.187 Y131.407 E33.48230
G1 X94.415 Y130.377 E33.58527
G1 X93.794 Y129.239 E33.68899
G1 X93.348 Y128.037 E33.79155
G1 X93.022 Y126.543 E33.91388
G1 X93.000 Y97.384 E36.24661
G1 X93.064 Y96.262 E36.33651
G1 X93.348 Y94.963 E36.44289
G1 X93.794 Y93.761 E36.54545
G1 X94.415 Y92.623 E36.64916
G1 X95.187 Y91.593 E36.75214
G0 F9000 X95.490 Y91.856
G1 F1200 X96.356 Y90.990 E36.85012
G1 X97.339 Y90.253 E36.94841
G1 X98.427 Y89.659 E37.04757
G1 X99.576 Y89.233 E37.14561
G1 X100.999 Y88.922 E37.26213
G1 X121.108 Y88.900 E38.87086
G1 X122.185 Y88.962 E38.95716
G1 X123.424 Y89.233 E39.05862
G1 X124.573 Y89.659 E39.15666
G1 X125.661 Y90.253 E39.25582
G1 X126.644 Y90.990 E39.35411
G1 X127.510 Y91.856 E39.45209
G1 X128.247 Y92.839 E39.55038
G1 X128.841 Y93.927 E39.64954
G1 X129.267 Y95.076 E39.74758
G1 X129.578 Y96.500 E39.86418
G1 X129.600 Y125.741 E42.20346
G1 X129.527 Y126.737 E42.28336
G1 X129.267 Y127.924 E42.38057
G1 X128.841 Y129.073 E42.47860
G1 X128.247 Y130.161 E42.57777
G1 X127.510 Y131.144 E42.67606
G1 X126.644 Y132.010 E42.77403
G1 X125.661 Y132.747 E42.87232
G1 X124.573 Y133.341 E42.97149
G1 X123.424 Y133.767 E43.06952
G1 X122.001 Y134.078 E43.18605
G1 X101.859 Y134.100 E44.79741
G1 X100.804 Y134.035 E44.88197
G1 X99.576 Y133.767 E44.98252
G1 X98.427 Y133.341 E45.08056
G1 X97.339 Y132.747 E45.17972
G1 X96.356 Y132.010 E45.27801
G1 X95.490 Y131.144 E45.37599
G1 X94.753 Y130.161 E45.47428
G1 X94.159 Y129.073 E45.57344
G1 X93.733 Y127.924 E45.67148
G1 X93.422 Y126.500 E45.78808
G1 X93.400 Y97.395 E48.11648
G1 X93.462 Y96.317 E48.20287
G1 X93.733 Y95.076 E48.30449
G1 X94.159 Y93.927 E48.40252
G1 X94.753 Y92.839 E48.50169
G1 X95.490 Y91.856 E48.59998
G0 F9000 X95.793 Y92.119
G1 F1200 X96.619 Y91.293 E48.69343
G1 X97.556 Y90.590 E48.78714
G1 X98.594 Y90.024 E48.88172
G1 X99.689 Y89.618 E48.97515
G1 X101.043 Y89.322 E49.08603
G1 X121.097 Y89.300 E50.69035
G1 X122.130 Y89.360 E50.77313
G1 X123.311 Y89.618 E50.86984
G1 X124.406 Y90.024 E50.96326
G1 X125.444 Y90.590 E51.05785
G1 X126.381 Y91.293 E51.15156
G1 X127.207 Y92.119 E51.24501
G1 X127.910 Y93.056 E51.33872
G1 X128.476 Y94.094 E51.43331
G1 X128.882 Y95.189 E51.52673
G1 X129.179 Y96.544 E51.63771
G1 X129.200 Y125.727 E53.97235
G1 X129.130 Y126.679 E54.04871
G1 X128.882 Y127.811 E54.14142
G1 X128.476 Y128.906 E54.23485
G1 X127.910 Y129.944 E54.32943
G1 X127.207 Y130.881 E54.42314
G1 X126.381 Y131.707 E54.51659
G1 X125.444 Y132.410 E54.61031
G1 X124.406 Y132.976 E54.70489
G1 X123.311 Y133.382 E54.79832
G1 X121.957 Y133.678 E54.90919
G1 X101.871 Y133.700 E56.51608
G1 X100.859 Y133.638 E56.59719
G1 X99.689 Y133.382 E56.69300
G1 X98.594 Y132.976 E56.78643
G1 X97.556 Y132.410 E56.88101
G1 X96.619 Y131.707 E56.97472
G1 X95.793 Y130.881 E57.06818
G1 X95.090 Y129.944 E57.16189
G1 X94.524 Y128.906 E57.25647
G1 X94.118 Y127.811 E57.34990
G1 X93.821 Y126.456 E57.46087
G1 X93.800 Y97.407 E59.78479
G1 X93.859 Y96.371 E59.86781
G1 X94.118 Y95.189 E59.96461
G1 X94.524 Y94.094 E60.05804
G1 X95.090 Y93.056 E60.15262
G1 X95.793 Y92.119 E60.24633
G0 F9000 X96.096 Y92.381
G1 F1200 X96.881 Y91.596 E60.33514
G1 X97.773 Y90.927 E60.42434
G1 X98.760 Y90.389 E60.51427
G1 X99.801 Y90.003 E60.60309
G1 X101.086 Y89.722 E60.70832
G1 X121.085 Y89.700 E62.30824
G1 X122.076 Y89.757 E62.38766
G1 X123.199 Y90.003 E62.47963
G1 X124.240 Y90.389 E62.56845
G1 X125.227 Y90.927 E62.65837
G1 X126.119 Y91.596 E62.74757
G1 X126.904 Y92.381 E62.83639
G1 X127.573 Y93.273 E62.92559
G1 X128.111 Y94.260 E63.01552
G1 X128.497 Y95.301 E63.10434
G1 X128.779 Y96.587 E63.20966
G1 X128.800 Y125.712 E65.53966
G1 X128.733 Y126.621 E65.61258
G1 X128.497 Y127.699 E65.70086
G1 X128.111 Y128.740 E65.78968
G1 X127.573 Y129.727 E65.87961
G1 X126.904 Y130.619 E65.96881
G1 X126.119 Y131.404 E66.05762
G1 X125.227 Y132.073 E66.14682
G1 X124.240 Y132.611 E66.23675
G1 X123.199 Y132.997 E66.32557
G1 X121.914 Y133.278 E66.43080
G1 X101.883 Y133.300 E68.03328
G1 X100.914 Y133.241 E68.11095
G1 X99.801 Y132.997 E68.20210
G1 X98.760 Y132.611 E68.29092
G1 X97.773 Y132.073 E68.38085
G1 X96.881 Y131.404 E68.47005
G1 X96.096 Y130.619 E68.55886
G1 X95.427 Y129.727 E68.64806
G1 X94.889 Y128.740 E68.73799
G1 X94.503 Y127.699 E68.82681
G1 X94.221 Y126.413 E68.93214
G1 X94.200 Y97.418 E71.25174
G1 X94.257 Y96.426 E71.33123
G1 X94.503 Y95.301 E71.42335
G1 X94.889 Y94.260 E71.51218
G1 X95.427 Y93.273 E71.60210
G1 X96.096 Y92.381 E71.69130
G0 F9000 X96.399 Y92.644
G1 F1200 X97.144 Y91.899 E71.77559
G1 X97.990 Y91.265 E71.86017
G1 X98.926 Y90.754 E71.94548
G1 X99.914 Y90.387 E72.02980
G1 X101.130 Y90.122 E72.12936
G1 X121.074 Y90.100 E73.72488
G1 X122.021 Y90.155 E73.80077
G1 X123.086 Y90.387 E73.88797
G1 X124.074 Y90.754 E73.97228
G1 X125.010 Y91.265 E74.05759
G1 X125.856 Y91.899 E74.14217
G1 X126.601 Y92.644 E74.22646
G1 X127.235 Y93.490 E74.31103
G1 X127.746 Y94.426 E74.39635
G1 X128.113 Y95.414 E74.48066
G1 X128.379 Y96.631 E74.58032
G1 X128.400 Y125.697 E76.90560
G1 X128.336 Y126.564 E76.97515
G1 X128.113 Y127.586 E77.05883
G1 X127.746 Y128.574 E77.14315
G1 X127.235 Y129.510 E77.22846
G1 X126.601 Y130.356 E77.31304
G1 X125.856 Y131.101 E77.39733
G1 X125.010 Y131.735 E77.48190
G1 X124.074 Y132.246 E77.56722
G1 X123.086 Y132.613 E77.65153
G1 X121.870 Y132.878 E77.75110
G1 X101.895 Y132.900 E79.34910
G1 X100.969 Y132.843 E79.42332
G1 X99.914 Y132.613 E79.50970
G1 X98.926 Y132.246 E79.59402
G1 X97.990 Y131.735 E79.67933
G1 X97.144 Y131.101 E79.76390
G1 X96.399 Y130.356 E79.84819
G1 X95.765 Y129.510 E79.93277
G1 X95.254 Y128.574 E80.01808
G1 X94.887 Y127.586 E80.10240
G1 X94.621 Y126.369 E80.20205
G1 X94.600 Y97.429 E82.51726
G1 X94.654 Y96.480 E82.59330
G1 X94.887 Y95.414 E82.68059
G1 X95.254 Y94.426 E82.76491
G1 X95.765 Y93.490 E82.85022
G1 X96.399 Y92.644 E82.93480
G0 F9000 X96.702 Y92.907
G1 F1200 X97.407 Y92.202 E83.01456
G1 X98.207 Y91.602 E83.09456
G1 X99.092 Y91.119 E83.17522
G1 X100.027 Y90.772 E83.25500
G1 X101.173 Y90.522 E83.34884
G1 X121.063 Y90.500 E84.94004
G1 X121.967 Y90.552 E85.01248
G1 X122.973 Y90.772 E85.09486
G1 X123.908 Y91.119 E85.17465
G1 X124.793 Y91.602 E85.25530
G1 X125.593 Y92.202 E85.33530
G1 X126.298 Y92.907 E85.41506
G1 X126.898 Y93.707 E85.49506
G1 X127.381 Y94.592 E85.57572
G1 X127.728 Y95.527 E85.65551
G1 X127.979 Y96.674 E85.74944
G1 X128.000 Y125.683 E88.07016
G1 X127.939 Y126.506 E88.13618
G1 X127.728 Y127.473 E88.21536
G1 X127.381 Y128.408 E88.29515
G1 X126.898 Y129.293 E88.37580
G1 X126.298 Y130.093 E88.45580
G1 X125.593 Y130.798 E88.53556
G1 X124.793 Y131.398 E88.61556
G1 X123.908 Y131.881 E88.69622
G1 X122.973 Y132.228 E88.77601
G1 X121.827 Y132.478 E88.86984
G1 X101.907 Y132.500 E90.46344
G1 X101.025 Y132.446 E90.53414
G1 X100.027 Y132.228 E90.61586
G1 X99.092 Y131.881 E90.69564
G1 X98.207 Y131.398 E90.77630
G1 X97.407 Y130.798 E90.85630
G1 X96.702 Y130.093 E90.93606
G1 X96.102 Y129.293 E91.01606
G1 X95.619 Y128.408 E91.09672
G1 X95.272 Y127.473 E91.17651
G1 X95.021 Y126.326 E91.27044
G1 X95.000 Y97.441 E93.58124
G1 X95.052 Y96.535 E93.65384
G1 X95.272 Y95.527 E93.73638
G1 X95.619 Y94.592 E93.81616
G1 X96.102 Y93.707 E93.89682
G1 X96.702 Y92.907 E93.97682
G0 F9000 X97.005 Y93.169
G1 F1200 X97.669 Y92.505 E94.05194
G1 X98.424 Y91.939 E94.12743
G1 X99.258 Y91.484 E94.20343
G1 X100.140 Y91.157 E94.27869
G1 X101.217 Y90.922 E94.36687
G1 X121.051 Y90.900 E95.95360
G1 X121.912 Y90.950 E96.02259
G1 X122.860 Y91.157 E96.10022
G1 X123.742 Y91.484 E96.17547
G1 X124.576 Y91.939 E96.25148
G1 X125.331 Y92.505 E96.32696
G1 X125.995 Y93.169 E96.40209
G1 X126.561 Y93.924 E96.47757
G1 X127.016 Y94.758 E96.55358
G1 X127.343 Y95.640 E96.62883
G1 X127.579 Y96.717 E96.71704
G1 X127.600 Y125.668 E99.03312
G1 X127.542 Y126.448 E99.09569
G1 X127.343 Y127.360 E99.17036
G1 X127.016 Y128.242 E99.24562
G1 X126.561 Y129.076 E99.32162
G1 X125.995 Y129.831 E99.39711
G1 X125.331 Y130.495 E99.47223
G1 X124.576 Y131.061 E99.54772
G1 X123.742 Y131.516 E99.62372
G1 X122.860 Y131.843 E99.69898
G1 X121.783 Y132.078 E99.78716
G1 X101.919 Y132.100 E101.37629
G1 X101.080 Y132.049 E101.44353
G1 X100.140 Y131.843 E101.52051
G1 X99.258 Y131.516 E101.59577
G1 X98.424 Y131.061 E101.67177
G1 X97.669 Y130.495 E101.74726
G1 X97.005 Y129.831 E101.82238
G1 X96.439 Y129.076 E101.89787
G1 X95.984 Y128.242 E101.97387
G1 X95.657 Y127.360 E102.04913
G1 X95.421 Y126.283 E102.13733
G1 X95.400 Y97.452 E104.44381
G1 X95.449 Y96.589 E104.51296
G1 X95.657 Y95.640 E104.59068
G1 X95.984 Y94.758 E104.66594
G1 X96.439 Y93.924 E104.74194
G1 X97.005 Y93.169 E104.81743
G0 F9000 X97.308 Y93.432
G1 F1200 X97.932 Y92.808 E104.88803
G1 X98.641 Y92.276 E104.95894
G1 X99.425 Y91.849 E105.03036
G1 X100.253 Y91.542 E105.10100
G1 X101.260 Y91.321 E105.18348
G1 X121.040 Y91.300 E106.76588
G1 X121.857 Y91.347 E106.83135
G1 X122.747 Y91.542 E106.90424
G1 X123.575 Y91.849 E106.97489
G1 X124.359 Y92.276 E107.04631
G1 X125.068 Y92.808 E107.11722
G1 X125.692 Y93.432 E107.18782
G1 X126.224 Y94.141 E107.25873
G1 X126.651 Y94.925 E107.33015
G1 X126.958 Y95.753 E107.40079
G1 X127.179 Y96.761 E107.48335
G1 X127.200 Y125.654 E109.79479
G1 X127.146 Y126.390 E109.85383
G1 X126.958 Y127.247 E109.92402
G1 X126.651 Y128.075 E109.99466
G1 X126.224 Y128.859 E110.06608
G1 X125.692 Y129.568 E110.13700
G1 X125.068 Y130.192 E110.20759
G1 X124.359 Y130.724 E110.27850
G1 X123.575 Y131.151 E110.34992
G1 X122.747 Y131.458 E110.42057
G1 X121.740 Y131.679 E110.50305
G1 X101.931 Y131.700 E112.08777
G1 X101.135 Y131.651 E112.15157
G1 X100.253 Y131.458 E112.22380
G1 X99.425 Y131.151 E112.29445
G1 X98.641 Y130.724 E112.36586
G1 X97.932 Y130.192 E112.43678
G1 X97.308 Y129.568 E112.50737
G1 X96.776 Y128.859 E112.57829
G1 X96.349 Y128.075 E112.64971
G1 X96.042 Y127.247 E112.72035
G1 X95.821 Y126.239 E112.80291
G1 X95.800 Y97.463 E115.10499
G1 X95.847 Y96.644 E115.17062
G1 X96.042 Y95.753 E115.24358
G1 X96.349 Y94.925 E115.31423
G1 X96.776 Y94.141 E115.38565
G1 X97.308 Y93.432 E115.45656
G0 F9000 X97.611 Y93.695
G1 F1200 X98.195 Y93.111 E115.52263
G1 X98.858 Y92.614 E115.58892
G1 X99.591 Y92.214 E115.65572
G1 X100.365 Y91.927 E115.72176
G1 X101.303 Y91.721 E115.79859
G1 X121.029 Y91.700 E117.37667
G1 X121.803 Y91.745 E117.43870
G1 X122.635 Y91.927 E117.50683
G1 X123.409 Y92.214 E117.57287
G1 X124.142 Y92.614 E117.63967
G1 X124.805 Y93.111 E117.70596
G1 X125.389 Y93.695 E117.77203
G1 X125.886 Y94.358 E117.83832
G1 X126.286 Y95.091 E117.90512
G1 X126.573 Y95.865 E117.97116
G1 X126.779 Y96.804 E118.04807
G1 X126.800 Y125.639 E120.35487
G1 X126.749 Y126.333 E120.41054
G1 X126.573 Y127.135 E120.47623
G1 X126.286 Y127.909 E120.54227
G1 X125.886 Y128.642 E120.60907
G1 X125.389 Y129.305 E120.67536
G1 X124.805 Y129.889 E120.74143
G1 X124.142 Y130.386 E120.80772
G1 X123.409 Y130.786 E120.87452
G1 X122.635 Y131.073 E120.94056
G1 X121.697 Y131.279 E121.01739
G1 X101.944 Y131.300 E122.59763
G1 X101.191 Y131.254 E122.65798
G1 X100.365 Y131.073 E122.72563
G1 X99.591 Y130.786 E122.79167
G1 X98.858 Y130.386 E122.85847
G1 X98.195 Y129.889 E122.92476
G1 X97.611 Y129.305 E122.99083
G1 X97.114 Y128.642 E123.05712
G1 X96.714 Y127.909 E123.12393
G1 X96.427 Y127.135 E123.18996
G1 X96.221 Y126.196 E123.26687
G1 X96.200 Y97.474 E125.56463
G1 X96.244 Y96.698 E125.62681
G1 X96.427 Y95.865 E125.69504
G1 X96.714 Y95.091 E125.76108
G1 X97.114 Y94.358 E125.82788
G1 X97.611 Y93.695 E125.89417
G0 F9000 X97.914 Y93.958
G1 F1200 X98.458 Y93.414 E125.95572
G1 X99.075 Y92.951 E126.01743
G1 X99.757 Y92.579 E126.07958
G1 X100.478 Y92.311 E126.14111
G1 X101.347 Y92.121 E126.21228
G1 X121.017 Y92.100 E127.78588
G1 X121.748 Y92.142 E127.84445
G1 X122.522 Y92.311 E127.90783
G1 X123.243 Y92.579 E127.96937
G1 X123.925 Y92.951 E128.03152
G1 X124.542 Y93.414 E128.09323
G1 X125.086 Y93.958 E128.15478
G1 X125.549 Y94.575 E128.21649
G1 X125.921 Y95.257 E128.27864
G1 X126.189 Y95.978 E128.34017
G1 X126.379 Y96.847 E128.41133
G1 X126.400 Y125.624 E130.71350
G1 X126.352 Y126.275 E130.76572
G1 X126.189 Y127.022 E130.82688
G1 X125.921 Y127.743 E130.88842
G1 X125.549 Y128.425 E130.95057
G1 X125.086 Y129.042 E131.01228
G1 X124.542 Y129.586 E131.07383
G1 X123.925 Y130.049 E131.13554
G1 X123.243 Y130.421 E131.19769
G1 X122.522 Y130.689 E131.25922
