;FLAVOR:UltiGCode
;TIME:2263
;MATERIAL:6209
;MATERIAL2:0
;NOZZLE_DIAMETER:0.4
;Generated with Cura_SteamEngine 2.3.0

;LAYER_COUNT:79
;LAYER:0
M107
G10
G0 F3600 X84.477 Y101.304 Z.3
;TYPE:SKIRT
G11
G1 F1800 X85.246 Y100.703 E0.11712
G1 X85.687 Y100.405 E0.18099
G1 X86.533 Y99.917 E0.29819
G1 X87.009 Y99.686 E0.36168
G1 X87.915 Y99.32 E0.47893
G1 X88.548 Y99.126 E0.55838
G1 X89.979 Y98.822 E0.73393
G1 X90.768 Y98.739 E0.82914
G1 X132.109 Y98.727 E5.79006
G1 X132.835 Y98.797 E5.87758
G1 X134.271 Y99.076 E6.05312
G1 X134.909 Y99.259 E6.13277
G1 X135.82 Y99.609 E6.24988
G1 X136.468 Y99.932 E6.33677
G1 X137.916 Y100.835 E6.54154
G1 X138.499 Y101.282 E6.6297
G1 X139.213 Y101.949 E6.74695
G1 X139.573 Y102.336 E6.81038
G1 X140.187 Y103.095 E6.92753
G1 X140.488 Y103.525 E6.99051
G1 X140.992 Y104.362 E7.10776
G1 X141.208 Y104.776 E7.16379
G1 X141.506 Y105.445 E7.25168
G1 X141.687 Y105.942 E7.31515
G1 X142.024 Y107.115 E7.4616
G1 X142.144 Y107.705 E7.53385
G1 X142.262 Y108.675 E7.65111
G1 X142.29 Y109.134 E7.70629
G1 X142.29 Y109.866 E7.79413
G1 X142.243 Y110.461 E7.86576
G1 X142.014 Y111.906 E8.04132
G1 X141.853 Y112.55 E8.12098
G1 X141.534 Y113.475 E8.23839
G1 X141.328 Y113.96 E8.30163
G1 X140.886 Y114.828 E8.41851
G1 X140.616 Y115.279 E8.48159
G1 X140.057 Y116.08 E8.5988
G1 X139.718 Y116.499 E8.66348
G1 X139.051 Y117.213 E8.78073
G1 X138.664 Y117.573 E8.84415
G1 X137.905 Y118.187 E8.9613
G1 X137.475 Y118.488 E9.02429
G1 X136.638 Y118.992 E9.14153
G1 X136.224 Y119.208 E9.19757
G1 X135.555 Y119.506 E9.28545
G1 X135.11 Y119.668 E9.34228
G1 X134.945 Y120.102 E9.398
G1 X134.677 Y120.583 E9.46407
G1 X134.343 Y121.021 E9.53017
G1 X133.948 Y121.405 E9.59628
G1 X133.502 Y121.729 E9.66243
G1 X133.014 Y121.984 E9.7285
G1 X132.494 Y122.167 E9.79465
G1 X131.953 Y122.272 E9.86079
G1 X131.5 Y122.299 E9.91524
G1 X91.5 Y122.299 E14.71524
G1 X90.95 Y122.259 E14.78142
G1 X90.412 Y122.14 E14.84754
G1 X89.897 Y121.944 E14.91366
G1 X89.416 Y121.676 E14.97974
G1 X88.978 Y121.342 E15.04583
G1 X88.594 Y120.947 E15.11194
G1 X88.27 Y120.501 E15.17809
G1 X88.015 Y120.013 E15.24417
G1 X87.89 Y119.656 E15.28956
G1 X87.441 Y119.493 E15.34688
G1 X86.125 Y118.851 E15.52259
G1 X85.557 Y118.51 E15.60209
G1 X84.766 Y117.935 E15.71943
G1 X84.36 Y117.594 E15.78306
G1 X83.657 Y116.915 E15.90034
G1 X83.303 Y116.522 E15.96382
G1 X82.702 Y115.753 E16.08093
G1 X82.404 Y115.31 E16.145
G1 X81.917 Y114.465 E16.26204
G1 X81.686 Y113.991 E16.32531
G1 X81.32 Y113.085 E16.44257
G1 X81.126 Y112.452 E16.52202
G1 X80.822 Y111.022 E16.69745
G1 X80.744 Y110.435 E16.76851
G1 X80.705 Y109.705 E16.85624
G1 X80.709 Y109.234 E16.91276
G1 X80.778 Y108.258 E17.03017
G1 X80.881 Y107.609 E17.10902
G1 X81.234 Y106.19 E17.28449
G1 X81.507 Y105.441 E17.38016
G1 X82.149 Y104.125 E17.55587
G1 X82.49 Y103.557 E17.63537
G1 X83.064 Y102.767 E17.75255
G1 X83.405 Y102.361 E17.81617
G1 X84.084 Y101.658 E17.93346
G1 X84.477 Y101.304 E17.99693
G0 F3600 X84.723 Y101.619
G1 F1800 X85.492 Y101.018 E18.11405
G1 X85.887 Y100.752 E18.17119
G1 X86.733 Y100.264 E18.28839
G1 X87.158 Y100.057 E18.34512
G1 X88.064 Y99.691 E18.46238
G1 X88.631 Y99.517 E18.53355
G1 X90.062 Y99.213 E18.7091
G1 X90.768 Y99.139 E18.79429
G1 X132.109 Y99.127 E23.75521
G1 X132.758 Y99.189 E23.83344
G1 X134.194 Y99.468 E24.00898
G1 X134.765 Y99.632 E24.08027
G1 X135.676 Y99.982 E24.19738
G1 X136.256 Y100.271 E24.27514
G1 X137.704 Y101.174 E24.47992
G1 X138.226 Y101.574 E24.55884
G1 X138.94 Y102.241 E24.67609
G1 X139.262 Y102.588 E24.7329
G1 X139.876 Y103.347 E24.85005
G1 X140.146 Y103.731 E24.90638
G1 X140.65 Y104.568 E25.02362
G1 X140.843 Y104.939 E25.0738
G1 X141.141 Y105.608 E25.16169
G1 X141.303 Y106.052 E25.2184
G1 X141.64 Y107.225 E25.36486
G1 X141.747 Y107.753 E25.42951
G1 X141.865 Y108.723 E25.54676
G1 X141.89 Y109.134 E25.59618
G1 X141.89 Y109.866 E25.68402
G1 X141.848 Y110.398 E25.74805
G1 X141.619 Y111.843 E25.92362
G1 X141.475 Y112.419 E25.99486
G1 X141.156 Y113.344 E26.11228
G1 X140.972 Y113.779 E26.16896
G1 X140.53 Y114.647 E26.28584
G1 X140.288 Y115.05 E26.34225
G1 X139.729 Y115.851 E26.45947
G1 X139.426 Y116.226 E26.51732
G1 X138.759 Y116.94 E26.63457
G1 X138.412 Y117.262 E26.69138
G1 X137.653 Y117.876 E26.80853
G1 X137.269 Y118.146 E26.86486
G1 X136.432 Y118.65 E26.9821
G1 X136.061 Y118.843 E27.03228
G1 X135.392 Y119.141 E27.12017
G1 X134.948 Y119.303 E27.17688
G1 X134.782 Y119.351 E27.19762
G1 X134.741 Y119.526 E27.21919
G1 X134.546 Y120.009 E27.28169
G1 X134.28 Y120.457 E27.34422
G1 X133.948 Y120.859 E27.40678
G1 X133.558 Y121.205 E27.46934
G1 X133.12 Y121.488 E27.53192
G1 X132.645 Y121.701 E27.59439
G1 X132.142 Y121.838 E27.65695
G1 X131.5 Y121.899 E27.73434
G1 X91.5 Y121.899 E32.53434
G1 X90.98 Y121.859 E32.59692
G1 X90.473 Y121.74 E32.65941
G1 X89.99 Y121.545 E32.72192
G1 X89.542 Y121.279 E32.78444
G1 X89.14 Y120.947 E32.84701
G1 X88.794 Y120.557 E32.90957
G1 X88.511 Y120.119 E32.97215
G1 X88.298 Y119.644 E33.03461
G1 X88.219 Y119.353 E33.0708
G1 X87.616 Y119.134 E33.14778
G1 X86.3 Y118.492 E33.32349
G1 X85.792 Y118.186 E33.39466
G1 X85.001 Y117.611 E33.51201
G1 X84.638 Y117.307 E33.56882
G1 X83.935 Y116.628 E33.68611
G1 X83.618 Y116.276 E33.74295
G1 X83.017 Y115.507 E33.86007
G1 X82.75 Y115.111 E33.91738
G1 X82.263 Y114.266 E34.03442
G1 X82.057 Y113.842 E34.09099
G1 X81.691 Y112.936 E34.20824
G1 X81.517 Y112.369 E34.27941
G1 X81.213 Y110.939 E34.45485
G1 X81.144 Y110.413 E34.51851
G1 X81.105 Y109.683 E34.60623
G1 X81.108 Y109.262 E34.65676
G1 X81.177 Y108.286 E34.77417
G1 X81.27 Y107.705 E34.84478
G1 X81.623 Y106.286 E35.02025
G1 X81.866 Y105.616 E35.10577
G1 X82.508 Y104.3 E35.28148
G1 X82.813 Y103.792 E35.35258
G1 X83.387 Y103.002 E35.46976
G1 X83.692 Y102.639 E35.52666
G1 X84.371 Y101.936 E35.64394
G1 X84.723 Y101.619 E35.70079
G0 F3600 X84.97 Y101.934
G1 F1800 X85.739 Y101.333 E35.81791
G1 X86.087 Y101.098 E35.8683
G1 X86.933 Y100.61 E35.9855
G1 X87.308 Y100.427 E36.03557
G1 X88.214 Y100.061 E36.15282
G1 X88.715 Y99.908 E36.21569
G1 X90.146 Y99.604 E36.39124
G1 X90.768 Y99.539 E36.46628
G1 X132.109 Y99.527 E41.4272
G1 X132.682 Y99.582 E41.49628
G1 X134.118 Y99.861 E41.67182
G1 X134.622 Y100.006 E41.73476
G1 X135.533 Y100.356 E41.85187
G1 X136.044 Y100.61 E41.92034
G1 X137.492 Y101.513 E42.12512
G1 X137.953 Y101.867 E42.19487
G1 X138.667 Y102.534 E42.31212
G1 X138.951 Y102.839 E42.36213
G1 X139.565 Y103.598 E42.47928
G1 X139.803 Y103.937 E42.52899
G1 X140.307 Y104.774 E42.64623
G1 X140.477 Y105.101 E42.69046
G1 X140.775 Y105.77 E42.77834
G1 X140.918 Y106.163 E42.82852
G1 X141.255 Y107.336 E42.97498
G1 X141.35 Y107.802 E43.03205
G1 X141.468 Y108.772 E43.14931
G1 X141.49 Y109.134 E43.19283
G1 X141.49 Y109.866 E43.28067
G1 X141.453 Y110.336 E43.33724
G1 X141.224 Y111.781 E43.51281
G1 X141.097 Y112.289 E43.57564
G1 X140.778 Y113.214 E43.69306
G1 X140.615 Y113.597 E43.74301
G1 X140.173 Y114.465 E43.85989
G1 X139.96 Y114.821 E43.90968
G1 X139.401 Y115.622 E44.02689
G1 X139.133 Y115.953 E44.078
G1 X138.466 Y116.667 E44.19525
G1 X138.161 Y116.951 E44.24526
G1 X137.402 Y117.565 E44.36241
G1 X137.063 Y117.803 E44.41211
G1 X136.226 Y118.307 E44.52935
G1 X135.899 Y118.477 E44.57358
G1 X135.23 Y118.775 E44.66146
G1 X134.837 Y118.918 E44.71165
G1 X134.449 Y119.029 E44.76008
G1 X134.341 Y119.462 E44.81363
G1 X134.147 Y119.911 E44.87232
G1 X133.882 Y120.323 E44.93111
G1 X133.554 Y120.686 E44.98982
G1 X133.171 Y120.991 E45.04857
G1 X132.743 Y121.229 E45.10733
G1 X132.283 Y121.395 E45.16602
G1 X131.802 Y121.484 E45.22472
G1 X131.5 Y121.499 E45.261
G1 X91.5 Y121.499 E50.061
G1 X91.012 Y121.459 E50.11976
G1 X90.537 Y121.34 E50.17852
G1 X90.088 Y121.146 E50.23722
G1 X89.676 Y120.881 E50.296
G1 X89.313 Y120.553 E50.35471
G1 X89.008 Y120.17 E50.41346
G1 X88.77 Y119.742 E50.47223
G1 X88.604 Y119.282 E50.53091
G1 X88.558 Y119.032 E50.56142
G1 X88.383 Y118.989 E50.58304
G1 X87.792 Y118.774 E50.65851
G1 X86.476 Y118.132 E50.83422
G1 X86.027 Y117.863 E50.89703
G1 X85.236 Y117.288 E51.01438
G1 X84.916 Y117.019 E51.06454
G1 X84.213 Y116.34 E51.18183
G1 X83.933 Y116.029 E51.23204
G1 X83.332 Y115.26 E51.34916
G1 X83.097 Y114.911 E51.39965
G1 X82.61 Y114.066 E51.51669
G1 X82.427 Y113.692 E51.56665
G1 X82.061 Y112.786 E51.68391
G1 X81.909 Y112.286 E51.74662
G1 X81.605 Y110.856 E51.92205
G1 X81.543 Y110.392 E51.97823
G1 X81.504 Y109.662 E52.06595
G1 X81.507 Y109.29 E52.11059
G1 X81.576 Y108.314 E52.22801
G1 X81.658 Y107.802 E52.29023
G1 X82.011 Y106.383 E52.4657
G1 X82.226 Y105.792 E52.54117
G1 X82.868 Y104.476 E52.71688
G1 X83.137 Y104.028 E52.77958
G1 X83.711 Y103.238 E52.89676
G1 X83.98 Y102.917 E52.94702
G1 X84.659 Y102.214 E53.06431
G1 X84.97 Y101.934 E53.11452
G0 F3600 X85.216 Y102.249
G1 F1800 X85.985 Y101.648 E53.23164
G1 X86.287 Y101.445 E53.27531
G1 X87.133 Y100.957 E53.39251
G1 X87.458 Y100.798 E53.43592
G1 X88.364 Y100.432 E53.55318
G1 X88.798 Y100.3 E53.60762
G1 X90.229 Y99.996 E53.78317
G1 X90.768 Y99.939 E53.84821
G1 X132.109 Y99.927 E58.80913
G1 X132.606 Y99.975 E58.86905
G1 X134.042 Y100.254 E59.04459
G1 X134.478 Y100.379 E59.09902
G1 X135.389 Y100.729 E59.21613
G1 X135.833 Y100.95 E59.27564
G1 X137.281 Y101.853 E59.48042
G1 X137.68 Y102.159 E59.54076
G1 X138.394 Y102.826 E59.65801
G1 X138.64 Y103.091 E59.7014
G1 X139.254 Y103.85 E59.81855
G1 X139.46 Y104.144 E59.86163
G1 X139.964 Y104.981 E59.97887
G1 X140.112 Y105.264 E60.0172
G1 X140.41 Y105.933 E60.10508
G1 X140.534 Y106.273 E60.14851
G1 X140.871 Y107.446 E60.29496
G1 X140.953 Y107.85 E60.34443
G1 X141.071 Y108.82 E60.46169
G1 X141.09 Y109.134 E60.49944
G1 X141.09 Y109.866 E60.58728
G1 X141.058 Y110.273 E60.63627
G1 X140.829 Y111.718 E60.81183
G1 X140.719 Y112.159 E60.86637
G1 X140.4 Y113.084 E60.98379
G1 X140.259 Y113.416 E61.02707
G1 X139.817 Y114.284 E61.14396
G1 X139.632 Y114.592 E61.18708
G1 X139.073 Y115.393 E61.30429
G1 X138.841 Y115.68 E61.34857
G1 X138.174 Y116.394 E61.46582
G1 X137.909 Y116.64 E61.50921
G1 X137.15 Y117.254 E61.62636
G1 X136.856 Y117.46 E61.66944
G1 X136.019 Y117.964 E61.78669
G1 X135.736 Y118.112 E61.82501
G1 X135.067 Y118.41 E61.91289
G1 X134.727 Y118.534 E61.95632
G1 X134.081 Y118.72 E62.03699
G1 X134.06 Y118.953 E62.06506
G1 X133.942 Y119.393 E62.11973
G1 X133.748 Y119.805 E62.17438
G1 X133.485 Y120.178 E62.22914
G1 X133.162 Y120.499 E62.28379
G1 X132.787 Y120.758 E62.33848
G1 X132.373 Y120.948 E62.39314
G1 X131.932 Y121.063 E62.44783
G1 X131.5 Y121.099 E62.49985
G1 X91.5 Y121.099 E67.29985
G1 X91.046 Y121.059 E67.35454
G1 X90.606 Y120.941 E67.40921
G1 X90.194 Y120.747 E67.46386
G1 X89.821 Y120.484 E67.51862
G1 X89.5 Y120.161 E67.57327
G1 X89.241 Y119.786 E67.62796
G1 X89.051 Y119.372 E67.68262
G1 X88.936 Y118.931 E67.73731
G1 X88.918 Y118.71 E67.76392
G1 X88.479 Y118.601 E67.8182
G1 X87.967 Y118.415 E67.88357
G1 X86.651 Y117.773 E68.05928
G1 X86.262 Y117.539 E68.11375
G1 X85.471 Y116.964 E68.2311
G1 X85.194 Y116.731 E68.27454
G1 X84.491 Y116.052 E68.39182
G1 X84.248 Y115.783 E68.43532
G1 X83.647 Y115.014 E68.55244
G1 X83.443 Y114.711 E68.59627
G1 X82.956 Y113.866 E68.71331
G1 X82.798 Y113.542 E68.75656
G1 X82.432 Y112.636 E68.87382
G1 X82.3 Y112.203 E68.92814
G1 X81.996 Y110.773 E69.10358
G1 X81.943 Y110.371 E69.15223
G1 X81.904 Y109.641 E69.23996
G1 X81.906 Y109.319 E69.2786
G1 X81.975 Y108.343 E69.39601
G1 X82.046 Y107.898 E69.45009
G1 X82.399 Y106.479 E69.62556
G1 X82.585 Y105.967 E69.69092
G1 X83.227 Y104.651 E69.86663
G1 X83.461 Y104.263 E69.92101
G1 X84.035 Y103.473 E70.03819
G1 X84.268 Y103.195 E70.08172
G1 X84.947 Y102.492 E70.199
G1 X85.216 Y102.249 E70.2425
G0 F3600 X85.462 Y102.565
G1 F1800 X86.231 Y101.964 E70.35962
G1 X86.487 Y101.791 E70.3967
G1 X87.333 Y101.303 E70.5139
G1 X87.608 Y101.169 E70.5506
G1 X88.514 Y100.803 E70.66786
G1 X88.881 Y100.691 E70.71391
G1 X90.312 Y100.387 E70.88946
G1 X90.768 Y100.339 E70.94448
G1 X132.109 Y100.327 E75.9054
G1 X132.53 Y100.367 E75.95615
G1 X133.966 Y100.646 E76.13169
G1 X134.335 Y100.752 E76.17776
G1 X135.246 Y101.102 E76.29487
G1 X135.621 Y101.289 E76.34516
G1 X137.069 Y102.192 E76.54994
G1 X137.407 Y102.451 E76.60103
G1 X138.121 Y103.118 E76.71828
G1 X138.329 Y103.342 E76.75496
G1 X138.943 Y104.101 E76.87212
G1 X139.118 Y104.35 E76.90864
G1 X139.622 Y105.187 E77.02588
G1 X139.747 Y105.427 E77.05835
G1 X140.045 Y106.096 E77.14624
G1 X140.149 Y106.384 E77.18298
G1 X140.486 Y107.557 E77.32944
G1 X140.556 Y107.898 E77.37121
G1 X140.674 Y108.868 E77.48847
G1 X140.69 Y109.134 E77.52044
G1 X140.69 Y109.866 E77.60828
G1 X140.663 Y110.21 E77.64969
G1 X140.434 Y111.655 E77.82526
G1 X140.341 Y112.028 E77.87139
G1 X140.022 Y112.953 E77.9888
G1 X139.902 Y113.234 E78.02547
G1 X139.46 Y114.102 E78.14235
G1 X139.304 Y114.363 E78.17884
G1 X138.745 Y115.164 E78.29605
G1 X138.549 Y115.407 E78.33352
G1 X137.882 Y116.121 E78.45077
G1 X137.658 Y116.329 E78.48745
G1 X136.899 Y116.943 E78.6046
G1 X136.65 Y117.118 E78.64112
G1 X135.813 Y117.622 E78.75836
G1 X135.573 Y117.747 E78.79084
G1 X134.904 Y118.045 E78.87872
G1 X134.616 Y118.149 E78.91547
G1 X133.7 Y118.412 E79.02983
G1 X133.7 Y118.499 E79.04027
G1 X133.66 Y118.916 E79.09054
G1 X133.542 Y119.318 E79.14081
G1 X133.349 Y119.69 E79.1911
G1 X133.09 Y120.019 E79.24135
G1 X132.773 Y120.293 E79.29163
G1 X132.41 Y120.502 E79.34189
G1 X132.013 Y120.638 E79.39225
G1 X131.5 Y120.699 E79.45424
G1 X91.5 Y120.699 E84.25424
G1 X91.083 Y120.659 E84.30451
G1 X90.681 Y120.541 E84.35479
G1 X90.309 Y120.348 E84.40508
G1 X89.98 Y120.089 E84.45532
G1 X89.706 Y119.772 E84.50561
G1 X89.497 Y119.409 E84.55587
G1 X89.361 Y119.012 E84.60623
G1 X89.3 Y118.499 E84.66822
G1 X89.3 Y118.393 E84.68094
G1 X88.576 Y118.213 E84.77047
G1 X88.142 Y118.055 E84.82589
G1 X86.826 Y117.413 E85.0016
G1 X86.497 Y117.216 E85.04762
G1 X85.706 Y116.641 E85.16496
G1 X85.472 Y116.443 E85.20175
G1 X84.769 Y115.764 E85.31903
G1 X84.564 Y115.537 E85.35574
G1 X83.963 Y114.768 E85.47286
G1 X83.79 Y114.512 E85.50993
G1 X83.303 Y113.667 E85.62697
G1 X83.169 Y113.392 E85.66368
G1 X82.803 Y112.486 E85.78093
G1 X82.691 Y112.119 E85.82698
G1 X82.387 Y110.689 E86.00241
G1 X82.342 Y110.349 E86.04357
G1 X82.303 Y109.619 E86.13129
G1 X82.305 Y109.347 E86.16393
G1 X82.374 Y108.371 E86.28135
G1 X82.434 Y107.995 E86.32704
G1 X82.787 Y106.576 E86.50251
G1 X82.945 Y106.142 E86.55793
G1 X83.587 Y104.826 E86.73364
G1 X83.784 Y104.498 E86.77955
G1 X84.358 Y103.708 E86.89674
G1 X84.556 Y103.473 E86.93361
G1 X85.235 Y102.77 E87.0509
G1 X85.462 Y102.565 E87.0876
G0 F3600 X85.709 Y102.88
G1 F1800 X86.478 Y102.279 E87.20472
G1 X86.687 Y102.138 E87.23497
G1 X87.533 Y101.65 E87.35217
G1 X87.758 Y101.54 E87.38223
G1 X88.664 Y101.174 E87.49948
G1 X88.964 Y101.082 E87.53714
G1 X90.395 Y100.778 E87.71269
G1 X90.768 Y100.739 E87.75769
G1 X132.109 Y100.727 E92.71861
G1 X132.453 Y100.76 E92.76008
G1 X133.889 Y101.039 E92.93562
G1 X134.192 Y101.126 E92.97345
G1 X135.103 Y101.476 E93.09056
G1 X135.409 Y101.629 E93.13162
G1 X136.857 Y102.532 E93.3364
G1 X137.134 Y102.744 E93.37826
G1 X137.848 Y103.411 E93.4955
G1 X138.018 Y103.594 E93.52548
G1 X138.632 Y104.353 E93.64263
G1 X138.775 Y104.556 E93.67243
G1 X139.279 Y105.393 E93.78967
G1 X139.381 Y105.59 E93.81629
G1 X139.679 Y106.259 E93.90417
G1 X139.765 Y106.494 E93.9342
G1 X140.102 Y107.667 E94.08066
G1 X140.159 Y107.947 E94.11495
G1 X140.277 Y108.917 E94.2322
G1 X140.29 Y109.134 E94.25829
G1 X140.29 Y109.866 E94.34613
G1 X140.268 Y110.148 E94.38007
G1 X140.039 Y111.593 E94.55564
G1 X139.963 Y111.898 E94.59336
G1 X139.644 Y112.823 E94.71077
G1 X139.546 Y113.053 E94.74077
G1 X139.104 Y113.921 E94.85766
G1 X138.976 Y114.134 E94.88748
G1 X138.417 Y114.935 E95.00469
G1 X138.256 Y115.134 E95.03541
G1 X137.589 Y115.848 E95.15266
G1 X137.406 Y116.018 E95.18263
G1 X136.647 Y116.632 E95.29978
G1 X136.444 Y116.775 E95.32958
G1 X135.607 Y117.279 E95.44682
G1 X135.41 Y117.381 E95.47345
G1 X134.741 Y117.679 E95.56133
G1 X134.506 Y117.765 E95.59136
G1 X133.333 Y118.102 E95.73781
G1 X133.3 Y118.108 E95.74184
G1 X133.3 Y118.499 E95.78876
G1 X133.26 Y118.876 E95.83425
G1 X133.142 Y119.236 E95.87971
G1 X132.952 Y119.563 E95.9251
G1 X132.697 Y119.844 E95.97063
