;FLAVOR:UltiGCode
;TIME:1922
;MATERIAL:4979
;MATERIAL2:0
;NOZZLE_DIAMETER:0.4
;Generated with Cura_SteamEngine 2.3.0

;LAYER_COUNT:50
;LAYER:0
M107
G10
G0 F3600 X83.018 Y100.619 Z.3
;TYPE:SKIRT
G11
G1 F1800 X83.482 Y100.286 E0.06854
G1 X85.182 Y99.248 E0.30756
G1 X85.684 Y98.99 E0.37529
G1 X86.601 Y98.603 E0.49472
G1 X87.047 Y98.447 E0.55142
G1 X88.486 Y98.041 E0.73085
G1 X89.048 Y97.927 E0.79966
G1 X90.532 Y97.742 E0.97912
G1 X91.005 Y97.713 E1.03598
G1 X132.498 Y97.75 E6.01515
G1 X133.248 Y97.825 E6.10559
G1 X135.201 Y98.22 E6.3447
G1 X135.837 Y98.408 E6.42428
G1 X137.227 Y98.954 E6.60349
G1 X137.818 Y99.248 E6.6827
G1 X139.518 Y100.286 E6.92172
G1 X140.123 Y100.744 E7.01278
G1 X141.582 Y102.098 E7.25164
G1 X141.968 Y102.514 E7.31974
G1 X142.589 Y103.293 E7.43929
G1 X142.81 Y103.6 E7.48468
G1 X143.352 Y104.439 E7.60454
G1 X143.623 Y104.937 E7.67257
G1 X144.442 Y106.751 E7.91141
G1 X144.684 Y107.47 E8.00245
G1 X145.127 Y109.412 E8.24147
G1 X145.221 Y110.162 E8.33218
G1 X145.271 Y112.151 E8.57093
G1 X145.23 Y112.813 E8.65053
G1 X145.007 Y114.292 E8.83001
G1 X144.88 Y114.846 E8.89822
G1 X144.439 Y116.274 E9.07756
G1 X144.271 Y116.717 E9.13442
G1 X143.861 Y117.625 E9.25397
G1 X143.641 Y118.042 E9.31055
G1 X142.861 Y119.319 E9.49011
G1 X142.53 Y119.779 E9.55812
G1 X141.571 Y120.923 E9.73725
G1 X141.101 Y121.393 E9.81701
G1 X139.575 Y122.673 E10.05602
G1 X138.95 Y123.1 E10.14686
G1 X137.201 Y124.052 E10.38581
G1 X136.506 Y124.344 E10.47627
G1 X134.604 Y124.932 E10.71517
G1 X133.952 Y125.073 E10.79522
G1 X132.468 Y125.258 E10.97468
G1 X132.003 Y125.287 E11.03059
G1 X123.505 Y125.299 E12.05035
G1 X122.956 Y125.26 E12.11639
G1 X122.418 Y125.142 E12.18249
G1 X121.902 Y124.947 E12.24868
G1 X121.42 Y124.679 E12.31486
G1 X120.982 Y124.345 E12.38096
G1 X120.597 Y123.951 E12.44707
G1 X120.273 Y123.506 E12.51312
G1 X120.164 Y123.299 E12.54119
G1 X113.835 Y123.299 E13.30067
G1 X113.677 Y123.583 E13.33967
G1 X113.343 Y124.021 E13.40577
G1 X112.948 Y124.405 E13.47188
G1 X112.502 Y124.729 E13.53803
G1 X112.014 Y124.984 E13.6041
G1 X111.494 Y125.167 E13.67025
G1 X110.953 Y125.272 E13.73639
G1 X110.5 Y125.299 E13.79084
G1 X104 Y125.299 E14.57084
G1 X103.45 Y125.259 E14.63702
G1 X102.912 Y125.14 E14.70314
G1 X102.508 Y124.986 E14.75502
G1 X101.994 Y125.167 E14.82041
G1 X101.453 Y125.272 E14.88654
G1 X100.995 Y125.299 E14.9416
G1 X90.997 Y125.287 E16.14136
G1 X90.436 Y125.245 E16.20887
G1 X88.466 Y124.948 E16.44794
G1 X87.821 Y124.792 E16.52757
G1 X86.405 Y124.316 E16.70683
G1 X85.97 Y124.139 E16.76319
G1 X85.071 Y123.707 E16.88288
G1 X84.575 Y123.421 E16.95159
G1 X82.931 Y122.299 E17.19043
G1 X82.489 Y121.946 E17.25831
G1 X81.758 Y121.268 E17.37795
G1 X81.371 Y120.852 E17.44613
G1 X80.129 Y119.295 E17.68514
G1 X79.81 Y118.826 E17.7532
G1 X79.312 Y117.964 E17.87266
G1 X79.064 Y117.451 E17.94104
G1 X78.336 Y115.595 E18.18028
G1 X78.17 Y115.054 E18.24819
G1 X77.948 Y114.083 E18.36771
G1 X77.881 Y113.708 E18.41343
G1 X77.757 Y112.718 E18.53315
G1 X77.729 Y112.151 E18.60128
G1 X77.779 Y110.162 E18.84003
G1 X77.853 Y109.504 E18.91949
G1 X78.149 Y108.039 E19.09884
G1 X78.272 Y107.58 E19.15587
G1 X78.59 Y106.635 E19.27551
G1 X78.729 Y106.283 E19.32093
G1 X79.139 Y105.375 E19.44048
G1 X79.359 Y104.958 E19.49706
G1 X80.139 Y103.681 E19.67662
G1 X80.533 Y103.147 E19.75626
G1 X81.85 Y101.655 E19.99507
G1 X82.255 Y101.26 E20.06296
G1 X83.018 Y100.619 E20.18254
G0 F3600 X83.275 Y100.926
G1 F1800 X83.69 Y100.627 E20.24392
G1 X85.39 Y99.589 E20.48294
G1 X85.84 Y99.359 E20.54359
G1 X86.757 Y98.972 E20.66302
G1 X87.156 Y98.832 E20.71377
G1 X88.595 Y98.426 E20.89319
G1 X89.097 Y98.324 E20.95466
G1 X90.581 Y98.139 E21.13412
G1 X91.005 Y98.113 E21.18509
G1 X132.498 Y98.15 E26.16425
G1 X133.169 Y98.217 E26.24518
G1 X135.122 Y98.612 E26.48428
G1 X135.691 Y98.78 E26.55547
G1 X137.081 Y99.326 E26.73468
G1 X137.61 Y99.589 E26.80557
G1 X139.31 Y100.627 E27.0446
G1 X139.851 Y101.037 E27.12605
G1 X141.31 Y102.391 E27.36491
G1 X141.656 Y102.764 E27.42596
G1 X142.277 Y103.543 E27.54551
G1 X142.474 Y103.817 E27.58601
G1 X143.016 Y104.656 E27.70587
G1 X143.259 Y105.102 E27.76682
G1 X144.078 Y106.916 E28.00565
G1 X144.294 Y107.559 E28.08705
G1 X144.737 Y109.501 E28.32608
G1 X144.821 Y110.172 E28.40723
G1 X144.871 Y112.161 E28.64598
G1 X144.834 Y112.753 E28.71716
G1 X144.611 Y114.232 E28.89665
G1 X144.498 Y114.728 E28.95769
G1 X144.057 Y116.156 E29.13704
G1 X143.907 Y116.552 E29.18785
G1 X143.497 Y117.46 E29.3074
G1 X143.3 Y117.833 E29.35802
G1 X142.52 Y119.11 E29.53759
G1 X142.224 Y119.522 E29.59846
G1 X141.265 Y120.666 E29.7776
G1 X140.844 Y121.087 E29.84904
G1 X139.318 Y122.367 E30.08806
G1 X138.758 Y122.748 E30.16933
G1 X137.009 Y123.7 E30.40829
G1 X136.388 Y123.962 E30.48917
G1 X134.486 Y124.55 E30.72807
G1 X133.903 Y124.676 E30.79964
G1 X132.419 Y124.861 E30.9791
G1 X132.003 Y124.887 E31.02912
G1 X123.505 Y124.899 E32.04888
G1 X122.985 Y124.86 E32.11146
G1 X122.478 Y124.742 E32.17392
G1 X121.994 Y124.547 E32.23654
G1 X121.546 Y124.281 E32.29906
G1 X121.144 Y123.95 E32.36155
G1 X120.797 Y123.561 E32.4241
G1 X120.513 Y123.124 E32.48664
G1 X120.412 Y122.899 E32.51624
G1 X113.59 Y122.899 E33.33488
G1 X113.546 Y123.009 E33.3491
G1 X113.28 Y123.457 E33.41162
G1 X112.948 Y123.859 E33.47418
G1 X112.558 Y124.205 E33.53675
G1 X112.12 Y124.488 E33.59932
G1 X111.645 Y124.701 E33.66179
G1 X111.142 Y124.838 E33.72435
G1 X110.5 Y124.899 E33.80174
G1 X104 Y124.899 E34.58174
G1 X103.48 Y124.859 E34.64432
G1 X102.973 Y124.74 E34.70681
G1 X102.492 Y124.546 E34.76905
G1 X102.145 Y124.701 E34.81466
G1 X101.642 Y124.838 E34.87722
G1 X100.996 Y124.899 E34.95508
G1 X90.998 Y124.887 E36.15484
G1 X90.495 Y124.849 E36.21537
G1 X88.525 Y124.552 E36.45445
G1 X87.949 Y124.413 E36.52555
G1 X86.533 Y123.937 E36.70481
G1 X86.143 Y123.779 E36.75531
G1 X85.244 Y123.347 E36.875
G1 X84.8 Y123.09 E36.93656
G1 X83.156 Y121.968 E37.17541
G1 X82.761 Y121.653 E37.23603
G1 X82.03 Y120.975 E37.35567
G1 X81.684 Y120.602 E37.41673
G1 X80.442 Y119.045 E37.65573
G1 X80.156 Y118.626 E37.71661
G1 X79.658 Y117.764 E37.83607
G1 X79.437 Y117.305 E37.8972
G1 X78.709 Y115.449 E38.13644
G1 X78.56 Y114.965 E38.19721
G1 X78.338 Y113.994 E38.31674
G1 X78.278 Y113.659 E38.35758
G1 X78.154 Y112.669 E38.4773
G1 X78.129 Y112.161 E38.53834
G1 X78.179 Y110.172 E38.77709
G1 X78.245 Y109.584 E38.8481
G1 X78.541 Y108.119 E39.02745
G1 X78.652 Y107.708 E39.07854
G1 X78.97 Y106.763 E39.19818
G1 X79.093 Y106.448 E39.23876
G1 X79.503 Y105.54 E39.35832
G1 X79.7 Y105.167 E39.40894
G1 X80.48 Y103.89 E39.5885
G1 X80.833 Y103.412 E39.65981
G1 X82.15 Y101.92 E39.89862
G1 X82.512 Y101.567 E39.95929
G1 X83.275 Y100.926 E40.07888
G0 F3600 X83.532 Y101.232
G1 F1800 X83.899 Y100.969 E40.13306
G1 X85.599 Y99.931 E40.37208
G1 X85.996 Y99.727 E40.42564
G1 X86.913 Y99.34 E40.54508
G1 X87.264 Y99.217 E40.58971
G1 X88.703 Y98.811 E40.76913
G1 X89.147 Y98.721 E40.8235
G1 X90.631 Y98.536 E41.00295
G1 X91.005 Y98.513 E41.04792
G1 X132.498 Y98.55 E46.02708
G1 X133.09 Y98.61 E46.09848
G1 X135.043 Y99.005 E46.33759
G1 X135.545 Y99.153 E46.40039
G1 X136.935 Y99.699 E46.5796
G1 X137.401 Y99.931 E46.64207
G1 X139.101 Y100.969 E46.88109
G1 X139.579 Y101.33 E46.95297
G1 X141.038 Y102.684 E47.19183
G1 X141.343 Y103.013 E47.24566
G1 X141.964 Y103.792 E47.36521
G1 X142.138 Y104.034 E47.40098
G1 X142.68 Y104.873 E47.52084
G1 X142.894 Y105.267 E47.57464
G1 X143.713 Y107.081 E47.81348
G1 X143.904 Y107.648 E47.88528
G1 X144.347 Y109.59 E48.1243
G1 X144.421 Y110.182 E48.19589
G1 X144.471 Y112.171 E48.43465
G1 X144.438 Y112.693 E48.49742
G1 X144.215 Y114.172 E48.6769
G1 X144.115 Y114.61 E48.73081
G1 X143.674 Y116.038 E48.91016
G1 X143.542 Y116.388 E48.95505
G1 X143.132 Y117.296 E49.0746
G1 X142.958 Y117.625 E49.11926
G1 X142.178 Y118.902 E49.29883
G1 X141.917 Y119.265 E49.35248
G1 X140.958 Y120.409 E49.53161
G1 X140.587 Y120.78 E49.59457
G1 X139.061 Y122.06 E49.83358
G1 X138.567 Y122.397 E49.90534
G1 X136.818 Y123.349 E50.1443
G1 X136.27 Y123.58 E50.21566
G1 X134.368 Y124.168 E50.45456
G1 X133.853 Y124.279 E50.51778
G1 X132.369 Y124.464 E50.69724
G1 X132.002 Y124.487 E50.74137
G1 X123.504 Y124.499 E51.76113
G1 X123.016 Y124.46 E51.81987
G1 X122.541 Y124.342 E51.87861
G1 X122.092 Y124.148 E51.9373
G1 X121.68 Y123.884 E51.99602
G1 X121.316 Y123.556 E52.05482
G1 X121.011 Y123.173 E52.11357
G1 X120.772 Y122.746 E52.17229
G1 X120.682 Y122.499 E52.20384
G1 X113.325 Y122.499 E53.08668
G1 X113.147 Y122.911 E53.14053
G1 X112.882 Y123.323 E53.19932
G1 X112.554 Y123.686 E53.25803
G1 X112.171 Y123.991 E53.31678
G1 X111.743 Y124.229 E53.37554
G1 X111.283 Y124.395 E53.43423
G1 X110.802 Y124.484 E53.49293
G1 X110.5 Y124.499 E53.52921
G1 X104 Y124.499 E54.30921
G1 X103.512 Y124.459 E54.36797
G1 X103.037 Y124.34 E54.42673
G1 X102.588 Y124.146 E54.48543
G1 X102.497 Y124.088 E54.49837
G1 X102.243 Y124.229 E54.53324
G1 X101.783 Y124.395 E54.59192
G1 X101.302 Y124.484 E54.65062
G1 X100.996 Y124.499 E54.68738
G1 X90.998 Y124.487 E55.88715
G1 X90.555 Y124.453 E55.94046
G1 X88.585 Y124.156 E56.17953
G1 X88.076 Y124.034 E56.24234
G1 X86.66 Y123.558 E56.42161
G1 X86.317 Y123.418 E56.46606
G1 X85.418 Y122.986 E56.58575
G1 X85.026 Y122.76 E56.64005
G1 X83.382 Y121.638 E56.8789
G1 X83.033 Y121.36 E56.93244
G1 X82.302 Y120.682 E57.05208
G1 X81.997 Y120.353 E57.10592
G1 X80.755 Y118.796 E57.34492
G1 X80.502 Y118.426 E57.39871
G1 X80.004 Y117.564 E57.51817
G1 X79.809 Y117.158 E57.57222
G1 X79.081 Y115.302 E57.81146
G1 X78.949 Y114.876 E57.86497
G1 X78.727 Y113.905 E57.9845
G1 X78.675 Y113.609 E58.02056
G1 X78.551 Y112.619 E58.14029
G1 X78.529 Y112.171 E58.19412
G1 X78.579 Y110.182 E58.43287
G1 X78.637 Y109.663 E58.49554
G1 X78.933 Y108.198 E58.67489
G1 X79.031 Y107.835 E58.72001
G1 X79.349 Y106.89 E58.83966
G1 X79.458 Y106.612 E58.87549
G1 X79.868 Y105.704 E58.99505
G1 X80.042 Y105.375 E59.03971
G1 X80.822 Y104.098 E59.21927
G1 X81.133 Y103.677 E59.28208
G1 X82.45 Y102.185 E59.5209
G1 X82.769 Y101.873 E59.57444
G1 X83.532 Y101.232 E59.69402
G0 F3600 X83.79 Y101.538
G1 F1800 X84.107 Y101.31 E59.74088
G1 X85.807 Y100.272 E59.9799
G1 X86.151 Y100.096 E60.02627
G1 X87.068 Y99.709 E60.14571
G1 X87.373 Y99.602 E60.1845
G1 X88.812 Y99.196 E60.36392
G1 X89.196 Y99.118 E60.41094
G1 X90.68 Y98.933 E60.5904
G1 X91.004 Y98.913 E60.62935
G1 X132.497 Y98.95 E65.60851
G1 X133.01 Y99.002 E65.67039
G1 X134.963 Y99.397 E65.90949
G1 X135.399 Y99.525 E65.96402
G1 X136.789 Y100.071 E66.14323
G1 X137.193 Y100.272 E66.19738
G1 X138.893 Y101.31 E66.4364
G1 X139.307 Y101.623 E66.49868
G1 X140.766 Y102.977 E66.73754
G1 X141.03 Y103.262 E66.78416
G1 X141.651 Y104.041 E66.9037
G1 X141.802 Y104.251 E66.93474
G1 X142.344 Y105.09 E67.0546
G1 X142.53 Y105.431 E67.10121
G1 X143.349 Y107.245 E67.34005
G1 X143.514 Y107.737 E67.40232
G1 X143.957 Y109.679 E67.64135
G1 X144.021 Y110.192 E67.70339
G1 X144.071 Y112.181 E67.94214
G1 X144.043 Y112.634 E67.99661
G1 X143.82 Y114.113 E68.17609
G1 X143.733 Y114.492 E68.22276
G1 X143.292 Y115.92 E68.4021
G1 X143.178 Y116.223 E68.44095
G1 X142.768 Y117.131 E68.5605
G1 X142.617 Y117.416 E68.59921
G1 X141.837 Y118.693 E68.77877
G1 X141.611 Y119.008 E68.82529
G1 X140.652 Y120.152 E69.00443
G1 X140.33 Y120.474 E69.05907
G1 X138.804 Y121.754 E69.29808
G1 X138.376 Y122.046 E69.36026
G1 X136.627 Y122.998 E69.59921
G1 X136.152 Y123.198 E69.66106
G1 X134.25 Y123.786 E69.89996
G1 X133.804 Y123.882 E69.9547
G1 X132.32 Y124.067 E70.13416
G1 X132.002 Y124.087 E70.1724
G1 X123.504 Y124.099 E71.19216
G1 X123.05 Y124.06 E71.24684
G1 X122.61 Y123.942 E71.30151
G1 X122.197 Y123.749 E71.35621
G1 X121.824 Y123.487 E71.41091
G1 X121.503 Y123.164 E71.46555
G1 X121.243 Y122.79 E71.52021
G1 X121.052 Y122.376 E71.57493
G1 X120.98 Y122.099 E71.60927
G1 X113.021 Y122.099 E72.56435
G1 X112.942 Y122.393 E72.60088
G1 X112.748 Y122.805 E72.65553
G1 X112.485 Y123.178 E72.7103
G1 X112.162 Y123.499 E72.76494
G1 X111.787 Y123.758 E72.81963
G1 X111.373 Y123.948 E72.87429
G1 X110.932 Y124.063 E72.92898
G1 X110.5 Y124.099 E72.981
G1 X104 Y124.099 E73.761
G1 X103.546 Y124.059 E73.81569
G1 X103.106 Y123.941 E73.87036
G1 X102.694 Y123.747 E73.92501
G1 X102.5 Y123.611 E73.95344
G1 X102.287 Y123.758 E73.98449
G1 X101.873 Y123.948 E74.03916
G1 X101.432 Y124.063 E74.09384
G1 X100.997 Y124.099 E74.14622
G1 X90.999 Y124.087 E75.34598
G1 X90.614 Y124.058 E75.39232
G1 X88.644 Y123.761 E75.63139
G1 X88.204 Y123.654 E75.68573
G1 X86.788 Y123.178 E75.86499
G1 X86.49 Y123.057 E75.90358
G1 X85.591 Y122.625 E76.02327
G1 X85.251 Y122.43 E76.07031
G1 X83.607 Y121.308 E76.30915
G1 X83.305 Y121.066 E76.35559
G1 X82.574 Y120.388 E76.47524
G1 X82.309 Y120.103 E76.52194
G1 X81.067 Y118.546 E76.76094
G1 X80.849 Y118.226 E76.8074
G1 X80.351 Y117.364 E76.92686
G1 X80.182 Y117.012 E76.97372
G1 X79.454 Y115.156 E77.21296
G1 X79.339 Y114.786 E77.25946
G1 X79.117 Y113.815 E77.37898
G1 X79.072 Y113.559 E77.41017
G1 X78.948 Y112.569 E77.5299
G1 X78.929 Y112.181 E77.57652
G1 X78.979 Y110.192 E77.81527
G1 X79.029 Y109.742 E77.8696
G1 X79.325 Y108.277 E78.04896
G1 X79.41 Y107.963 E78.08799
G1 X79.728 Y107.018 E78.20764
G1 X79.822 Y106.777 E78.23868
G1 X80.232 Y105.869 E78.35824
G1 X80.383 Y105.584 E78.39694
G1 X81.163 Y104.307 E78.5765
G1 X81.433 Y103.941 E78.63108
G1 X82.75 Y102.449 E78.8699
G1 X83.027 Y102.179 E78.91631
G1 X83.79 Y101.538 E79.0359
G0 F3600 X84.047 Y101.845
G1 F1800 X84.316 Y101.651 E79.0757
G1 X86.016 Y100.613 E79.31472
G1 X86.307 Y100.464 E79.35395
G1 X87.224 Y100.077 E79.47339
G1 X87.482 Y99.987 E79.50618
G1 X88.921 Y99.581 E79.6856
G1 X89.246 Y99.515 E79.72539
G1 X90.73 Y99.33 E79.90485
G1 X91.004 Y99.313 E79.9378
G1 X132.497 Y99.35 E84.91696
G1 X132.931 Y99.394 E84.9693
G1 X134.884 Y99.789 E85.20841
G1 X135.252 Y99.897 E85.25443
G1 X136.642 Y100.443 E85.43364
G1 X136.984 Y100.613 E85.47947
G1 X138.684 Y101.651 E85.71849
G1 X139.035 Y101.916 E85.77127
G1 X140.494 Y103.27 E86.01012
G1 X140.717 Y103.512 E86.04961
G1 X141.338 Y104.291 E86.16916
G1 X141.466 Y104.468 E86.19537
G1 X142.008 Y105.307 E86.31523
G1 X142.165 Y105.596 E86.3547
G1 X142.984 Y107.41 E86.59354
G1 X143.124 Y107.826 E86.64621
G1 X143.567 Y109.768 E86.88524
G1 X143.621 Y110.202 E86.93772
G1 X143.671 Y112.191 E87.17647
G1 X143.647 Y112.574 E87.22252
G1 X143.424 Y114.053 E87.40201
G1 X143.351 Y114.374 E87.44151
G1 X142.91 Y115.802 E87.62086
G1 X142.813 Y116.058 E87.65371
G1 X142.403 Y116.966 E87.77326
G1 X142.275 Y117.208 E87.80612
G1 X141.495 Y118.485 E87.98568
G1 X141.304 Y118.751 E88.02498
G1 X140.345 Y119.895 E88.20411
G1 X140.073 Y120.168 E88.25036
G1 X138.547 Y121.448 E88.48937
G1 X138.185 Y121.694 E88.54189
G1 X136.436 Y122.646 E88.78084
G1 X136.034 Y122.816 E88.83322
G1 X134.132 Y123.404 E89.07212
G1 X133.754 Y123.485 E89.11851
G1 X132.27 Y123.67 E89.29797
G1 X132.001 Y123.687 E89.33031
G1 X123.503 Y123.699 E90.35007
G1 X123.086 Y123.66 E90.40033
G1 X122.684 Y123.542 E90.45061
G1 X122.311 Y123.35 E90.50095
G1 X121.982 Y123.091 E90.55119
G1 X121.707 Y122.774 E90.60155
G1 X121.498 Y122.411 E90.65182
G1 X121.361 Y122.015 E90.7021
G1 X121.324 Y121.699 E90.74028
G1 X112.681 Y121.699 E91.77744
G1 X112.66 Y121.916 E91.8036
G1 X112.542 Y122.318 E91.85388
G1 X112.349 Y122.69 E91.90417
G1 X112.09 Y123.019 E91.95441
G1 X111.773 Y123.293 E92.00469
G1 X111.41 Y123.502 E92.05496
G1 X111.013 Y123.638 E92.10531
G1 X110.5 Y123.699 E92.16731
G1 X104 Y123.699 E92.94731
G1 X103.583 Y123.659 E92.99758
G1 X103.181 Y123.541 E93.04785
G1 X102.809 Y123.348 E93.09814
G1 X102.495 Y123.101 E93.14608
G1 X102.273 Y123.293 E93.18131
G1 X101.91 Y123.502 E93.23157
G1 X101.513 Y123.638 E93.28193
G1 X100.997 Y123.699 E93.34428
G1 X90.999 Y123.687 E94.54404
G1 X90.674 Y123.662 E94.58315
G1 X88.704 Y123.365 E94.82223
G1 X88.331 Y123.275 E94.86827
G1 X86.915 Y122.799 E95.04753
G1 X86.663 Y122.697 E95.08016
G1 X85.764 Y122.265 E95.19985
G1 X85.477 Y122.099 E95.23963
G1 X83.833 Y120.977 E95.47848
G1 X83.577 Y120.773 E95.51776
G1 X82.846 Y120.095 E95.6374
G1 X82.622 Y119.854 E95.67688
G1 X81.38 Y118.297 E95.91589
G1 X81.195 Y118.026 E95.95526
G1 X80.697 Y117.164 E96.07472
